VaruniBuereddy/KernelizedMovementPrimitives-LQR/C_results/franka_joint_positions.csv
time,q1,q2,q3,q4,q5,q6,q7
0.007502,-0.000001,-0.780383,0.000000,-2.463082,-0.000010,1.571040,0.785398
0.009482,-0.000001,-0.780383,0.000000,-2.463082,-0.000010,1.571040,0.785398
0.011458,-0.000001,-0.780383,0.000000,-2.463081,-0.000010,1.571049,0.785398
0.013462,-0.000001,-0.780383,0.000000,-2.463081,-0.000010,1.571094,0.785398
0.015474,-0.000001,-0.780383,0.000000,-2.463081,-0.000010,1.571175,0.785398
0.017381,-0.000001,-0.780383,0.000000,-2.463081,-0.000010,1.571290,0.785398
0.019434,-0.000001,-0.780383,0.000000,-2.463081,-0.000010,1.571439,0.785398
0.021556,-0.000001,-0.780383,0.000000,-2.463081,-0.000010,1.571620,0.785398
0.023541,-0.000001,-0.780383,0.000000,-2.463081,-0.000010,1.571723,0.785398
0.025533,-0.000001,-0.780383,0.000000,-2.463080,-0.000010,1.571952,0.785398
0.027468,-0.000001,-0.780383,0.000000,-2.463079,-0.000010,1.572353,0.785398
0.029414,-0.000001,-0.780383,0.000000,-2.463079,-0.000010,1.572353,0.785398
0.031472,-0.000001,-0.780383,0.000000,-2.463076,-0.000010,1.572990,0.785398
0.033444,-0.000001,-0.780383,0.000000,-2.463075,-0.000010,1.573350,0.785398
0.035524,-0.000001,-0.780383,0.000000,-2.463072,-0.000010,1.573736,0.785398
0.037638,-0.000001,-0.780383,0.000000,-2.463069,-0.000010,1.574148,0.785398
0.039494,-0.000001,-0.780383,0.000000,-2.463067,-0.000010,1.574362,0.785398
0.041501,-0.000001,-0.780383,0.000000,-2.463063,-0.000010,1.574809,0.785398
0.043724,-0.000001,-0.780383,0.000000,-2.463058,-0.000010,1.575278,0.785398
0.045551,-0.000001,-0.780383,0.000000,-2.463055,-0.000010,1.575521,0.785398
0.047625,-0.000001,-0.780383,0.000000,-2.463045,-0.000010,1.576280,0.785398
0.049453,-0.000001,-0.780383,0.000000,-2.463037,-0.000010,1.576810,0.785398
0.051448,-0.000001,-0.780383,0.000000,-2.463028,-0.000010,1.577359,0.785398
0.053482,-0.000001,-0.780383,0.000000,-2.463018,-0.000010,1.577925,0.785398
0.055478,-0.000001,-0.780383,0.000000,-2.463006,-0.000010,1.578506,0.785398
0.057478,-0.000001,-0.780383,0.000000,-2.462993,-0.000010,1.579103,0.785398
0.059483,-0.000001,-0.780383,0.000000,-2.462979,-0.000010,1.579713,0.785398
0.061479,-0.000001,-0.780383,0.000000,-2.462963,-0.000010,1.580335,0.785398
0.063526,-0.000001,-0.780383,0.000000,-2.462946,-0.000010,1.580968,0.785398
0.065485,-0.000001,-0.780383,0.000000,-2.462927,-0.000010,1.581612,0.785398
0.067499,-0.000001,-0.780383,0.000000,-2.462906,-0.000010,1.582265,0.785398
0.069444,-0.000001,-0.780383,0.000000,-2.462884,-0.000010,1.582927,0.785398
0.071469,-0.000001,-0.780383,0.000000,-2.462859,-0.000010,1.583596,0.785398
0.073471,-0.000001,-0.780383,0.000000,-2.462833,-0.000010,1.584272,0.785398
0.075497,-0.000001,-0.780383,0.000000,-2.462805,-0.000010,1.584953,0.785398
0.077523,-0.000001,-0.780383,0.000000,-2.462774,-0.000010,1.585638,0.785398
0.079458,-0.000001,-0.780383,-0.000000,-2.462742,-0.000010,1.586328,0.785398
0.081470,-0.000001,-0.780383,-0.000000,-2.462707,-0.000010,1.587020,0.785398
0.083461,-0.000001,-0.780383,-0.000000,-2.462670,-0.000010,1.587715,0.785398
0.085460,-0.000001,-0.780383,-0.000000,-2.462631,-0.000010,1.588410,0.785398
0.087457,-0.000001,-0.780383,-0.000000,-2.462590,-0.000010,1.589105,0.785398
0.089502,-0.000001,-0.780383,-0.000000,-2.462546,-0.000010,1.589801,0.785398
0.091445,-0.000001,-0.780383,-0.000000,-2.462499,-0.000010,1.590496,0.785398
0.093475,-0.000001,-0.780383,-0.000000,-2.462450,-0.000010,1.591189,0.785398
0.095437,-0.000001,-0.780383,-0.000000,-2.462425,-0.000010,1.591534,0.785398
0.097520,-0.000001,-0.780383,-0.000000,-2.462345,-0.000010,1.592566,0.785398
0.099484,-0.000001,-0.780383,-0.000000,-2.462288,-0.000010,1.593249,0.785398
0.101474,-0.000001,-0.780383,-0.000000,-2.462228,-0.000010,1.593928,0.785398
0.103481,-0.000001,-0.780383,-0.000000,-2.462166,-0.000010,1.594602,0.785398
0.105454,-0.000001,-0.780383,-0.000000,-2.462101,-0.000010,1.595269,0.785398
0.107536,-0.000001,-0.780383,-0.000000,-2.462033,-0.000010,1.595930,0.785398
0.109405,-0.000001,-0.780383,-0.000000,-2.461962,-0.000010,1.596584,0.785398
0.111457,-0.000001,-0.780383,-0.000000,-2.461889,-0.000010,1.597230,0.785398
0.113438,-0.000001,-0.780383,-0.000000,-2.461812,-0.000010,1.597867,0.785398
0.115449,-0.000001,-0.780383,-0.000000,-2.461732,-0.000010,1.598496,0.785398
0.117387,-0.000001,-0.780383,-0.000000,-2.461650,-0.000010,1.599115,0.785398
0.119436,-0.000001,-0.780383,-0.000000,-2.461564,-0.000010,1.599724,0.785398
0.121489,-0.000001,-0.780383,-0.000000,-2.461520,-0.000010,1.600025,0.785398
0.123411,-0.000001,-0.780383,-0.000000,-2.461383,-0.000010,1.600911,0.785398
0.125558,-0.000001,-0.780383,-0.000000,-2.461335,-0.000010,1.601201,0.785398
0.127837,-0.000001,-0.780383,-0.000000,-2.461189,-0.000010,1.602053,0.785398
0.129521,-0.000001,-0.780383,-0.000000,-2.461087,-0.000010,1.602606,0.785398
0.131525,-0.000001,-0.780383,-0.000000,-2.461035,-0.000010,1.602878,0.785398
0.133424,-0.000001,-0.780383,-0.000000,-2.460929,-0.000010,1.603413,0.785398
0.135456,-0.000001,-0.780383,-0.000000,-2.460819,-0.000010,1.603934,0.785398
0.137474,-0.000001,-0.780383,-0.000000,-2.460648,-0.000010,1.604691,0.785398
0.139405,-0.000001,-0.780383,-0.000000,-2.460590,-0.000010,1.604937,0.785398
0.141526,-0.000001,-0.780383,-0.000000,-2.460409,-0.000010,1.605652,0.785398
0.143382,-0.000001,-0.780383,-0.000000,-2.460347,-0.000010,1.605883,0.785398
0.145461,-0.000001,-0.780383,-0.000000,-2.460221,-0.000010,1.606335,0.785398
0.147439,-0.000001,-0.780383,-0.000000,-2.460091,-0.000010,1.606771,0.785398
0.149483,-0.000001,-0.780383,-0.000000,-2.459958,-0.000010,1.607193,0.785398
0.151418,-0.000001,-0.780383,-0.000000,-2.459821,-0.000010,1.607598,0.785398
0.153477,-0.000001,-0.780383,-0.000000,-2.459681,-0.000010,1.607989,0.785398
0.155446,-0.000001,-0.780383,-0.000000,-2.459537,-0.000010,1.608363,0.785398
0.157470,-0.000001,-0.780383,-0.000000,-2.459391,-0.000010,1.608721,0.785398
0.159431,-0.000001,-0.780383,-0.000000,-2.459240,-0.000010,1.609063,0.785398
0.161491,-0.000001,-0.780383,-0.000000,-2.459087,-0.000010,1.609389,0.785398
0.163482,-0.000001,-0.780383,-0.000000,-2.458929,-0.000010,1.609698,0.785398
0.165482,-0.000001,-0.780383,-0.000000,-2.458769,-0.000010,1.609990,0.785398
0.167475,-0.000001,-0.780383,-0.000000,-2.458605,-0.000010,1.610266,0.785398
0.169494,-0.000001,-0.780383,-0.000000,-2.458437,-0.000010,1.610524,0.785398
0.171501,-0.000001,-0.780383,-0.000000,-2.458266,-0.000010,1.610766,0.785398
0.173451,-0.000001,-0.780383,-0.000000,-2.458092,-0.000010,1.610991,0.785398
0.175503,-0.000001,-0.780383,-0.000000,-2.457914,-0.000010,1.611199,0.785398
0.177466,-0.000001,-0.780383,-0.000000,-2.457733,-0.000010,1.611390,0.785398
0.179581,-0.000001,-0.780383,-0.000000,-2.457549,-0.000010,1.611563,0.785398
0.181485,-0.000001,-0.780383,-0.000000,-2.457361,-0.000010,1.611720,0.785398
0.183478,-0.000001,-0.780383,-0.000000,-2.457170,-0.000010,1.611860,0.785398
0.185464,-0.000001,-0.780383,-0.000000,-2.456975,-0.000010,1.611983,0.785398
0.187493,-0.000001,-0.780383,-0.000000,-2.456777,-0.000010,1.612090,0.785398
0.189469,-0.000001,-0.780383,-0.000000,-2.456576,-0.000010,1.612179,0.785398
0.191456,-0.000001,-0.780383,-0.000000,-2.456372,-0.000010,1.612252,0.785398
0.193507,-0.000001,-0.780383,-0.000000,-2.456164,-0.000010,1.612308,0.785398
0.195523,-0.000001,-0.780383,-0.000000,-2.456059,-0.000010,1.612330,0.785398
0.197532,-0.000001,-0.780383,-0.000000,-2.455739,-0.000010,1.612372,0.785398
0.199448,-0.000001,-0.780383,-0.000000,-2.455521,-0.000010,1.612380,0.785398
0.201489,-0.000001,-0.780383,-0.000000,-2.455302,-0.000010,1.612380,0.785398
0.203654,-0.000001,-0.780383,-0.000000,-2.455081,-0.000010,1.612380,0.785398
0.205488,-0.000001,-0.780383,-0.000000,-2.454859,-0.000010,1.612380,0.785398
0.207548,-0.000001,-0.780383,-0.000000,-2.454636,-0.000010,1.612380,0.785398
0.209642,-0.000001,-0.780383,-0.000000,-2.454412,-0.000010,1.612380,0.785398
0.211449,-0.000001,-0.780383,-0.000000,-2.454187,-0.000010,1.612380,0.785398
0.213628,-0.000001,-0.780383,-0.000000,-2.453961,-0.000010,1.612380,0.785398
0.215460,-0.000001,-0.780383,-0.000000,-2.453734,-0.000010,1.612380,0.785398
0.217454,-0.000001,-0.780383,-0.000000,-2.453505,-0.000010,1.612380,0.785398
0.219490,-0.000001,-0.780383,-0.000000,-2.453276,-0.000010,1.612380,0.785398
0.221444,-0.000001,-0.780383,-0.000000,-2.453046,-0.000010,1.612380,0.785398
0.223470,-0.000001,-0.780383,-0.000000,-2.452815,-0.000010,1.612380,0.785398
0.225441,-0.000001,-0.780383,-0.000000,-2.452583,-0.000010,1.612380,0.785398
0.227451,-0.000001,-0.780383,-0.000000,-2.452350,-0.000010,1.612380,0.785398
0.229492,-0.000001,-0.780383,-0.000000,-2.452116,-0.000010,1.612380,0.785398
0.231615,-0.000001,-0.780383,-0.000000,-2.451881,-0.000010,1.612380,0.785398
0.233444,-0.000001,-0.780383,-0.000000,-2.451645,-0.000010,1.612380,0.785398
0.235493,-0.000001,-0.780383,-0.000000,-2.451408,-0.000010,1.612380,0.785398
0.237429,-0.000001,-0.780383,-0.000000,-2.451171,-0.000010,1.612380,0.785398
0.239465,-0.000001,-0.780383,-0.000000,-2.450933,-0.000010,1.612380,0.785398
0.241466,-0.000001,-0.780383,-0.000000,-2.450694,-0.000010,1.612380,0.785398
0.243713,-0.000001,-0.780383,-0.000000,-2.450454,-0.000010,1.612380,0.785398
0.245476,-0.000001,-0.780383,-0.000000,-2.450214,-0.000010,1.612380,0.785398
0.247406,-0.000001,-0.780383,-0.000000,-2.450093,-0.000010,1.612380,0.785398
0.249462,-0.000001,-0.780383,-0.000000,-2.449852,-0.000010,1.612380,0.785398
0.251612,-0.000001,-0.780383,-0.000000,-2.449488,-0.000010,1.612380,0.785398
0.253398,-0.000001,-0.780383,-0.000000,-2.449367,-0.000010,1.612380,0.785398
0.255477,-0.000001,-0.780383,-0.000000,-2.449123,-0.000010,1.612380,0.785398
0.257511,-0.000001,-0.780383,-0.000000,-2.448879,-0.000010,1.612380,0.785398
0.259430,-0.000001,-0.780383,-0.000000,-2.448634,-0.000010,1.612380,0.785398
0.261470,-0.000001,-0.780383,-0.000000,-2.448389,-0.000010,1.612380,0.785398
0.263463,-0.000001,-0.780383,-0.000000,-2.448143,-0.000010,1.612380,0.785398
0.265472,-0.000001,-0.780383,-0.000000,-2.447896,-0.000010,1.612380,0.785398
0.267554,-0.000001,-0.780383,-0.000000,-2.447649,-0.000010,1.612380,0.785398
0.269484,-0.000001,-0.780383,-0.000000,-2.447402,-0.000010,1.612380,0.785398
0.271451,-0.000001,-0.780383,-0.000000,-2.447154,-0.000010,1.612380,0.785398
0.273400,-0.000001,-0.780383,-0.000000,-2.446905,-0.000010,1.612380,0.785398
0.275464,-0.000001,-0.780383,-0.000000,-2.446656,-0.000010,1.612380,0.785398
0.277438,-0.000001,-0.780383,-0.000000,-2.446407,-0.000010,1.612380,0.785398
0.279563,-0.000001,-0.780383,-0.000000,-2.446157,-0.000010,1.612380,0.785398
0.281438,-0.000001,-0.780383,-0.000000,-2.445906,-0.000010,1.612380,0.785398
0.283439,-0.000001,-0.780383,-0.000000,-2.445656,-0.000010,1.612380,0.785398
0.285445,-0.000001,-0.780383,-0.000000,-2.445405,-0.000010,1.612380,0.785398
0.287436,-0.000001,-0.780383,-0.000000,-2.445153,-0.000010,1.612380,0.785398
0.289437,-0.000001,-0.780383,-0.000000,-2.444902,-0.000010,1.612380,0.785398
0.291438,-0.000001,-0.780383,-0.000000,-2.444650,-0.000010,1.612380,0.785398
0.293507,-0.000001,-0.780383,-0.000000,-2.444397,-0.000010,1.612380,0.785398
0.295446,-0.000001,-0.780383,-0.000000,-2.444271,-0.000010,1.612380,0.785398
0.297502,-0.000001,-0.780383,-0.000000,-2.443892,-0.000010,1.612380,0.785398
0.299503,-0.000001,-0.780383,-0.000000,-2.443639,-0.000010,1.612380,0.785398
0.301448,-0.000001,-0.780383,-0.000000,-2.443386,-0.000010,1.612380,0.785398
0.303437,-0.000001,-0.780383,-0.000000,-2.443132,-0.000010,1.612380,0.785398
0.305446,-0.000001,-0.780383,-0.000000,-2.442878,-0.000010,1.612380,0.785398
0.307448,-0.000001,-0.780383,-0.000000,-2.442625,-0.000010,1.612380,0.785398
0.309459,-0.000001,-0.780383,-0.000000,-2.442371,-0.000010,1.612380,0.785398
0.311434,-0.000001,-0.780383,-0.000000,-2.442116,-0.000010,1.612380,0.785398
0.313569,-0.000001,-0.780383,-0.000000,-2.441862,-0.000010,1.612380,0.785398
0.315435,-0.000001,-0.780383,-0.000000,-2.441608,-0.000010,1.612380,0.785398
0.317433,-0.000001,-0.780383,-0.000000,-2.441353,-0.000010,1.612380,0.785398
0.319569,-0.000001,-0.780383,-0.000000,-2.441099,-0.000010,1.612380,0.785398
0.321451,-0.000001,-0.780383,-0.000000,-2.440844,-0.000010,1.612380,0.785398
0.323454,-0.000001,-0.780383,-0.000000,-2.440590,-0.000010,1.612380,0.785398
0.325414,-0.000001,-0.780383,-0.000000,-2.440335,-0.000010,1.612380,0.785398
0.327673,-0.000001,-0.780383,-0.000000,-2.440081,-0.000010,1.612380,0.785398
0.329512,-0.000001,-0.780383,-0.000000,-2.439826,-0.000010,1.612380,0.785398
0.331522,-0.000001,-0.780383,-0.000000,-2.439699,-0.000010,1.612380,0.785398
0.333507,-0.000001,-0.780384,-0.000000,-2.439317,-0.000010,1.612380,0.785398
0.335382,-0.000001,-0.780384,-0.000000,-2.439063,-0.000010,1.612380,0.785398
0.337477,-0.000001,-0.780384,-0.000000,-2.438809,-0.000010,1.612380,0.785398
0.339514,-0.000001,-0.780384,-0.000000,-2.438555,-0.000010,1.612380,0.785398
0.341392,-0.000001,-0.780384,-0.000000,-2.438301,-0.000010,1.612380,0.785398
0.343463,-0.000001,-0.780385,-0.000000,-2.438174,-0.000010,1.612380,0.785398
0.345479,-0.000001,-0.780385,-0.000000,-2.437920,-0.000010,1.612380,0.785398
0.347453,-0.000001,-0.780385,-0.000000,-2.437667,-0.000010,1.612380,0.785398
0.349477,-0.000001,-0.780386,-0.000000,-2.437414,-0.000010,1.612380,0.785398
0.351477,-0.000001,-0.780387,-0.000000,-2.437161,-0.000010,1.612380,0.785398
0.353465,-0.000001,-0.780387,-0.000000,-2.436908,-0.000010,1.612380,0.785398
0.355441,-0.000001,-0.780388,-0.000000,-2.436656,-0.000010,1.612380,0.785398
0.357471,-0.000001,-0.780389,-0.000000,-2.436404,-0.000010,1.612380,0.785398
0.359481,-0.000001,-0.780390,-0.000000,-2.436152,-0.000010,1.612380,0.785398
0.361519,-0.000001,-0.780391,-0.000000,-2.435900,-0.000010,1.612380,0.785398
0.363493,-0.000001,-0.780393,-0.000000,-2.435649,-0.000010,1.612380,0.785398
0.365473,-0.000001,-0.780394,-0.000000,-2.435399,-0.000010,1.612380,0.785398
0.367474,-0.000001,-0.780396,-0.000000,-2.435148,-0.000010,1.612380,0.785398
0.369438,-0.000001,-0.780398,-0.000000,-2.434898,-0.000010,1.612380,0.785398
0.371494,-0.000001,-0.780400,-0.000000,-2.434649,-0.000010,1.612380,0.785398
0.373455,-0.000001,-0.780402,-0.000000,-2.434400,-0.000010,1.612380,0.785398
0.375443,-0.000001,-0.780404,-0.000000,-2.434152,-0.000010,1.612380,0.785398
0.377436,-0.000001,-0.780406,-0.000000,-2.433904,-0.000010,1.612380,0.785398
0.379475,-0.000001,-0.780409,-0.000000,-2.433656,-0.000010,1.612380,0.785398
0.381486,-0.000001,-0.780412,-0.000000,-2.433409,-0.000010,1.612380,0.785398
0.383442,-0.000001,-0.780415,-0.000000,-2.433163,-0.000010,1.612380,0.785398
0.385490,-0.000001,-0.780418,-0.000000,-2.432917,-0.000010,1.612380,0.785398
0.387485,-0.000001,-0.780422,-0.000000,-2.432672,-0.000010,1.612380,0.785398
0.389476,-0.000001,-0.780426,-0.000000,-2.432427,-0.000010,1.612380,0.785398
0.391445,-0.000001,-0.780429,-0.000000,-2.432183,-0.000010,1.612380,0.785398
0.393480,-0.000001,-0.780434,-0.000000,-2.431940,-0.000010,1.612380,0.785398
0.395458,-0.000001,-0.780438,-0.000000,-2.431697,-0.000010,1.612380,0.785398
0.397449,-0.000001,-0.780443,-0.000000,-2.431455,-0.000010,1.612380,0.785398
0.399465,-0.000001,-0.780448,-0.000000,-2.431214,-0.000010,1.612380,0.785398
0.401513,-0.000001,-0.780453,-0.000000,-2.430973,-0.000010,1.612380,0.785398
0.403479,-0.000001,-0.780458,-0.000000,-2.430734,-0.000010,1.612380,0.785398
0.405494,-0.000001,-0.780464,-0.000000,-2.430494,-0.000010,1.612380,0.785398
0.407435,-0.000001,-0.780470,-0.000000,-2.430256,-0.000010,1.612380,0.785398
0.409456,-0.000001,-0.780477,-0.000000,-2.430019,-0.000010,1.612380,0.785398
0.411471,-0.000001,-0.780483,-0.000000,-2.429782,-0.000010,1.612380,0.785398
0.413521,-0.000001,-0.780490,-0.000000,-2.429546,-0.000010,1.612380,0.785398
0.415528,-0.000001,-0.780498,-0.000000,-2.429311,-0.000010,1.612380,0.785398
0.417458,-0.000001,-0.780505,-0.000000,-2.429077,-0.000010,1.612380,0.785398
0.419478,-0.000001,-0.780513,-0.000000,-2.428843,-0.000010,1.612380,0.785398
0.421465,-0.000001,-0.780521,-0.000000,-2.428611,-0.000010,1.612380,0.785398
0.423473,-0.000001,-0.780530,-0.000000,-2.428379,-0.000010,1.612380,0.785398
0.425498,-0.000001,-0.780539,-0.000000,-2.428149,-0.000010,1.612380,0.785398
0.427576,-0.000001,-0.780548,-0.000000,-2.427919,-0.000010,1.612380,0.785398
0.429466,-0.000001,-0.780558,-0.000000,-2.427690,-0.000010,1.612380,0.785398
0.431484,-0.000001,-0.780567,-0.000000,-2.427463,-0.000010,1.612380,0.785398
0.433480,-0.000001,-0.780578,-0.000000,-2.427236,-0.000010,1.612380,0.785398
0.435479,-0.000001,-0.780588,-0.000000,-2.427010,-0.000010,1.612380,0.785398
0.437464,-0.000001,-0.780600,-0.000000,-2.426785,-0.000010,1.612380,0.785398
0.439498,-0.000001,-0.780611,-0.000000,-2.426561,-0.000010,1.612380,0.785398
0.441512,-0.000001,-0.780623,-0.000000,-2.426338,-0.000010,1.612380,0.785398
0.443469,-0.000001,-0.780635,-0.000000,-2.426117,-0.000010,1.612380,0.785398
0.445485,-0.000001,-0.780648,-0.000000,-2.425896,-0.000010,1.612380,0.785398
0.447480,-0.000001,-0.780661,-0.000000,-2.425676,-0.000010,1.612380,0.785398
0.449486,-0.000001,-0.780674,-0.000000,-2.425458,-0.000010,1.612380,0.785398
0.451472,-0.000001,-0.780688,-0.000000,-2.425240,-0.000010,1.612380,0.785398
0.453472,-0.000001,-0.780702,-0.000000,-2.425024,-0.000010,1.612380,0.785398
0.455440,-0.000001,-0.780717,-0.000000,-2.424809,-0.000010,1.612380,0.785398
0.457490,-0.000001,-0.780732,-0.000000,-2.424595,-0.000010,1.612380,0.785398
0.459479,-0.000001,-0.780747,-0.000000,-2.424382,-0.000010,1.612380,0.785398
0.461478,-0.000001,-0.780763,-0.000000,-2.424170,-0.000010,1.612380,0.785398
0.463499,-0.000001,-0.780780,-0.000000,-2.423959,-0.000010,1.612380,0.785398
0.465481,-0.000001,-0.780797,-0.000000,-2.423750,-0.000010,1.612380,0.785398
0.467445,-0.000001,-0.780814,-0.000000,-2.423542,-0.000010,1.612380,0.785398
0.469455,-0.000001,-0.780832,-0.000000,-2.423335,-0.000010,1.612380,0.785398
0.471439,-0.000001,-0.780850,-0.000000,-2.423129,-0.000010,1.612380,0.785398
0.473499,-0.000001,-0.780869,-0.000000,-2.422925,-0.000010,1.612380,0.785398
0.475508,-0.000001,-0.780888,-0.000000,-2.422721,-0.000010,1.612380,0.785398
0.477530,-0.000001,-0.780907,-0.000000,-2.422519,-0.000010,1.612380,0.785398
0.479521,-0.000001,-0.780928,-0.000000,-2.422319,-0.000010,1.612380,0.785398
0.481495,-0.000001,-0.780948,-0.000000,-2.422119,-0.000010,1.612380,0.785398
0.483517,-0.000001,-0.780969,-0.000000,-2.421921,-0.000010,1.612380,0.785398
0.485507,-0.000001,-0.780991,-0.000000,-2.421724,-0.000010,1.612380,0.785398
0.487491,-0.000001,-0.781013,-0.000000,-2.421529,-0.000010,1.612380,0.785398
0.489486,-0.000001,-0.781036,-0.000000,-2.421334,-0.000010,1.612380,0.785398
0.491492,-0.000001,-0.781059,-0.000000,-2.421142,-0.000010,1.612380,0.785398
0.493490,-0.000001,-0.781082,-0.000000,-2.420950,-0.000010,1.612380,0.785398
0.495469,-0.000001,-0.781094,-0.000000,-2.420855,-0.000010,1.612380,0.785398
0.497539,-0.000001,-0.781131,-0.000000,-2.420571,-0.000010,1.612380,0.785398
0.499447,-0.000001,-0.781156,-0.000000,-2.420384,-0.000010,1.612380,0.785398
0.501548,-0.000001,-0.781182,-0.000000,-2.420198,-0.000010,1.612380,0.785398
0.503437,-0.000001,-0.781208,-0.000000,-2.420013,-0.000010,1.612380,0.785398
0.505434,-0.000001,-0.781235,-0.000000,-2.419830,-0.000010,1.612380,0.785398
0.507483,-0.000001,-0.781262,-0.000000,-2.419648,-0.000010,1.612380,0.785398
0.509476,-0.000001,-0.781290,-0.000000,-2.419467,-0.000010,1.612380,0.785398
0.511445,-0.000001,-0.781318,-0.000000,-2.419288,-0.000010,1.612380,0.785398
0.513514,-0.000001,-0.781347,-0.000000,-2.419111,-0.000010,1.612380,0.785398
0.515483,-0.000001,-0.781377,-0.000000,-2.418935,-0.000010,1.612380,0.785398
0.517575,-0.000001,-0.781407,-0.000000,-2.418760,-0.000010,1.612380,0.785398
0.519572,-0.000001,-0.781437,-0.000000,-2.418587,-0.000010,1.612380,0.785398
0.521592,-0.000001,-0.781468,-0.000000,-2.418415,-0.000010,1.612380,0.785398
0.523478,-0.000001,-0.781484,-0.000000,-2.418330,-0.000010,1.612380,0.785398
0.525470,-0.000001,-0.781516,-0.000000,-2.418160,-0.000010,1.612380,0.785398
0.527434,-0.000001,-0.781565,-0.000000,-2.417909,-0.000010,1.612380,0.785398
0.529475,-0.000001,-0.781565,-0.000000,-2.417909,-0.000010,1.612380,0.785398
0.531470,-0.000001,-0.781616,-0.000000,-2.417661,-0.000010,1.612380,0.785398
0.533473,-0.000001,-0.781650,-0.000000,-2.417497,-0.000010,1.612380,0.785398
0.535471,-0.000001,-0.781685,-0.000000,-2.417335,-0.000010,1.612380,0.785398
0.537470,-0.000001,-0.781720,-0.000000,-2.417175,-0.000010,1.612380,0.785398
0.539468,-0.000001,-0.781756,-0.000000,-2.417016,-0.000010,1.612380,0.785398
0.541471,-0.000001,-0.781793,-0.000000,-2.416858,-0.000010,1.612380,0.785398
0.543471,-0.000001,-0.781830,-0.000000,-2.416703,-0.000010,1.612380,0.785398
0.545473,-0.000001,-0.781868,-0.000000,-2.416548,-0.000010,1.612380,0.785398
0.547450,-0.000001,-0.781906,-0.000000,-2.416395,-0.000010,1.612380,0.785398
0.549461,-0.000001,-0.781945,-0.000000,-2.416244,-0.000010,1.612380,0.785398
0.551473,-0.000001,-0.781985,-0.000000,-2.416095,-0.000010,1.612380,0.785398
0.553506,-0.000001,-0.782025,-0.000000,-2.415946,-0.000010,1.612380,0.785398
0.555465,-0.000001,-0.782066,-0.000000,-2.415800,-0.000010,1.612380,0.785398
0.557475,-0.000001,-0.782107,-0.000000,-2.415655,-0.000010,1.612380,0.785398
0.559483,-0.000001,-0.782149,-0.000000,-2.415512,-0.000010,1.612380,0.785398
0.561476,-0.000001,-0.782192,-0.000000,-2.415370,-0.000010,1.612380,0.785398
0.563444,-0.000001,-0.782235,-0.000000,-2.415230,-0.000010,1.612380,0.785398
0.565476,-0.000001,-0.782279,-0.000000,-2.415091,-0.000010,1.612380,0.785398
0.567472,-0.000001,-0.782323,-0.000000,-2.414954,-0.000010,1.612380,0.785398
0.569542,-0.000001,-0.782368,-0.000000,-2.414819,-0.000010,1.612380,0.785398
0.571490,-0.000001,-0.782414,-0.000000,-2.414685,-0.000010,1.612380,0.785398
0.573474,-0.000001,-0.782460,-0.000000,-2.414553,-0.000010,1.612380,0.785398
0.575467,-0.000001,-0.782507,-0.000000,-2.414422,-0.000010,1.612380,0.785398
0.577451,-0.000001,-0.782554,-0.000000,-2.414293,-0.000010,1.612380,0.785398
0.579587,-0.000001,-0.782603,-0.000000,-2.414166,-0.000010,1.612380,0.785398
0.581437,-0.000001,-0.782651,-0.000000,-2.414040,-0.000010,1.612380,0.785398
0.583476,-0.000001,-0.782701,-0.000000,-2.413916,-0.000010,1.612380,0.785398
0.585436,-0.000001,-0.782751,-0.000000,-2.413793,-0.000010,1.612380,0.785398
0.587473,-0.000001,-0.782801,-0.000000,-2.413672,-0.000010,1.612380,0.785398
0.589473,-0.000001,-0.782853,-0.000000,-2.413553,-0.000010,1.612380,0.785398
0.591491,-0.000001,-0.782905,-0.000000,-2.413436,-0.000010,1.612380,0.785398
0.593572,-0.000001,-0.782957,-0.000000,-2.413320,-0.000010,1.612380,0.785398
0.595393,-0.000001,-0.782984,-0.000000,-2.413262,-0.000010,1.612380,0.785398
0.597443,-0.000001,-0.783064,-0.000000,-2.413093,-0.000010,1.612380,0.785398
0.599555,-0.000001,-0.783118,-0.000000,-2.412982,-0.000010,1.612380,0.785398
0.601441,-0.000001,-0.783173,-0.000000,-2.412872,-0.000010,1.612380,0.785398
0.603471,-0.000001,-0.783229,-0.000000,-2.412764,-0.000010,1.612380,0.785398
0.605453,-0.000001,-0.783285,-0.000000,-2.412658,-0.000010,1.612380,0.785398
0.607438,-0.000001,-0.783342,-0.000000,-2.412554,-0.000010,1.612380,0.785398
0.609452,-0.000001,-0.783400,-0.000000,-2.412451,-0.000010,1.612380,0.785398
0.611447,-0.000001,-0.783458,-0.000000,-2.412350,-0.000010,1.612380,0.785398
0.613469,-0.000001,-0.783517,-0.000000,-2.412250,-0.000010,1.612380,0.785398
0.615447,-0.000001,-0.783576,-0.000000,-2.412153,-0.000010,1.612380,0.785398
0.617391,-0.000001,-0.783636,-0.000000,-2.412056,-0.000010,1.612380,0.785398
0.619428,-0.000001,-0.783697,-0.000000,-2.411962,-0.000010,1.612380,0.785398
0.621448,-0.000001,-0.783758,-0.000000,-2.411869,-0.000010,1.612380,0.785398
0.623436,-0.000001,-0.783820,-0.000000,-2.411778,-0.000010,1.612380,0.785398
0.625438,-0.000001,-0.783883,-0.000000,-2.411688,-0.000010,1.612380,0.785398
0.627447,-0.000001,-0.783946,-0.000000,-2.411600,-0.000010,1.612380,0.785398
0.629455,-0.000001,-0.784010,-0.000000,-2.411514,-0.000010,1.612380,0.785398
0.631499,-0.000001,-0.784074,-0.000000,-2.411429,-0.000010,1.612380,0.785398
0.633599,-0.000001,-0.784140,-0.000000,-2.411346,-0.000010,1.612380,0.785398
0.635436,-0.000001,-0.784205,-0.000000,-2.411264,-0.000010,1.612380,0.785398
0.637449,-0.000001,-0.784272,-0.000000,-2.411185,-0.000010,1.612380,0.785398
0.639434,-0.000001,-0.784339,-0.000000,-2.411107,-0.000010,1.612380,0.785398
0.641572,-0.000001,-0.784406,-0.000000,-2.411030,-0.000010,1.612380,0.785398
0.643605,-0.000001,-0.784474,-0.000000,-2.410955,-0.000010,1.612380,0.785398
0.645634,-0.000001,-0.784543,-0.000000,-2.410882,-0.000010,1.612380,0.785398
0.647559,-0.000001,-0.784613,-0.000000,-2.410810,-0.000010,1.612380,0.785398
0.649417,-0.000001,-0.784648,-0.000000,-2.410775,-0.000010,1.612380,0.785398
0.651403,-0.000001,-0.784718,-0.000000,-2.410706,-0.000010,1.612380,0.785398
0.653474,-0.000001,-0.784789,-0.000000,-2.410639,-0.000010,1.612380,0.785398
0.655486,-0.000001,-0.784861,-0.000000,-2.410573,-0.000010,1.612380,0.785398
0.657500,-0.000001,-0.784933,-0.000000,-2.410509,-0.000010,1.612380,0.785398
0.659537,-0.000001,-0.785043,-0.000000,-2.410415,-0.000010,1.612380,0.785398
0.661469,-0.000001,-0.785080,-0.000000,-2.410385,-0.000010,1.612380,0.785398
0.663448,-0.000001,-0.785154,-0.000000,-2.410326,-0.000010,1.612380,0.785398
0.665473,-0.000001,-0.785228,-0.000000,-2.410268,-0.000010,1.612380,0.785398
0.667460,-0.000001,-0.785304,-0.000000,-2.410212,-0.000010,1.612380,0.785398
0.669481,-0.000001,-0.785380,-0.000000,-2.410157,-0.000010,1.612380,0.785398
0.671461,-0.000001,-0.785456,-0.000000,-2.410104,-0.000010,1.612380,0.785398
0.673436,-0.000001,-0.785533,-0.000000,-2.410053,-0.000010,1.612380,0.785398
0.675450,-0.000001,-0.785611,-0.000000,-2.410003,-0.000010,1.612380,0.785398
0.677441,-0.000001,-0.785689,-0.000000,-2.409955,-0.000010,1.612380,0.785398
0.679488,-0.000001,-0.785768,-0.000000,-2.409908,-0.000010,1.612380,0.785398
0.681515,-0.000001,-0.785848,-0.000000,-2.409863,-0.000010,1.612380,0.785398
0.683478,-0.000001,-0.785928,-0.000000,-2.409820,-0.000010,1.612380,0.785398
0.685470,-0.000001,-0.786009,-0.000000,-2.409778,-0.000010,1.612380,0.785398
0.687551,-0.000001,-0.786090,-0.000000,-2.409738,-0.000010,1.612380,0.785398
0.689471,-0.000001,-0.786172,-0.000000,-2.409699,-0.000010,1.612380,0.785398
0.691474,-0.000001,-0.786255,-0.000000,-2.409662,-0.000010,1.612380,0.785398
0.693468,-0.000001,-0.786338,-0.000000,-2.409626,-0.000010,1.612380,0.785398
0.695440,-0.000001,-0.786379,-0.000000,-2.409609,-0.000010,1.612380,0.785398
0.697480,-0.000001,-0.786505,-0.000000,-2.409560,-0.000010,1.612380,0.785398
0.699469,-0.000001,-0.786590,-0.000000,-2.409529,-0.000010,1.612380,0.785398
0.701523,-0.000001,-0.786676,-0.000000,-2.409500,-0.000010,1.612380,0.785398
0.703541,-0.000001,-0.786762,-0.000000,-2.409472,-0.000010,1.612380,0.785398
0.705440,-0.000001,-0.786848,-0.000000,-2.409446,-0.000010,1.612380,0.785398
0.707437,-0.000001,-0.786935,-0.000000,-2.409421,-0.000010,1.612380,0.785398
0.709547,-0.000001,-0.787023,-0.000000,-2.409397,-0.000010,1.612380,0.785398
0.711456,-0.000001,-0.787111,-0.000000,-2.409376,-0.000010,1.612380,0.785398
0.713455,-0.000001,-0.787200,-0.000000,-2.409355,-0.000010,1.612380,0.785398
0.715456,-0.000001,-0.787289,-0.000000,-2.409337,-0.000010,1.612380,0.785398
0.717453,-0.000001,-0.787379,-0.000000,-2.409319,-0.000010,1.612380,0.785398
0.719437,-0.000001,-0.787469,-0.000000,-2.409304,-0.000010,1.612380,0.785398
0.721443,-0.000001,-0.787560,-0.000000,-2.409289,-0.000010,1.612380,0.785398
0.723441,-0.000001,-0.787652,-0.000000,-2.409277,-0.000010,1.612380,0.785398
0.725458,-0.000001,-0.787744,-0.000000,-2.409265,-0.000010,1.612380,0.785398
0.727437,-0.000001,-0.787836,-0.000000,-2.409255,-0.000010,1.612380,0.785398
0.729452,-0.000001,-0.787929,-0.000000,-2.409247,-0.000010,1.612380,0.785398
0.731397,-0.000001,-0.788023,-0.000000,-2.409240,-0.000010,1.612380,0.785398
0.733450,-0.000001,-0.788117,-0.000000,-2.409234,-0.000010,1.612380,0.785398
0.735462,-0.000001,-0.788212,-0.000000,-2.409230,-0.000010,1.612380,0.785398
0.737515,-0.000001,-0.788307,-0.000000,-2.409227,-0.000010,1.612380,0.785398
0.739445,-0.000001,-0.788403,-0.000000,-2.409226,-0.000010,1.612380,0.785398
0.741450,-0.000001,-0.788499,-0.000000,-2.409226,-0.000010,1.612380,0.785398
0.743460,-0.000001,-0.788595,-0.000000,-2.409226,-0.000010,1.612380,0.785398
0.745457,-0.000001,-0.788690,-0.000000,-2.409226,-0.000010,1.612380,0.785398
0.747392,-0.000001,-0.788786,-0.000000,-2.409226,-0.000010,1.612380,0.785398
0.749476,-0.000001,-0.788834,-0.000000,-2.409226,-0.000010,1.612380,0.785398
0.751447,-0.000001,-0.788929,-0.000000,-2.409226,-0.000010,1.612380,0.785398
0.753509,-0.000001,-0.789072,-0.000000,-2.409226,-0.000010,1.612380,0.785398
0.755453,-0.000001,-0.789120,-0.000000,-2.409226,-0.000010,1.612380,0.785398
0.757524,-0.000001,-0.789262,-0.000000,-2.409226,-0.000010,1.612380,0.785398
0.759464,-0.000001,-0.789310,-0.000000,-2.409226,-0.000010,1.612380,0.785398
0.761489,-0.000001,-0.789452,-0.000000,-2.409226,-0.000010,1.612380,0.785398
0.763483,-0.000001,-0.789499,-0.000000,-2.409226,-0.000010,1.612380,0.785398
0.765487,-0.000001,-0.789594,-0.000000,-2.409226,-0.000010,1.612380,0.785398
0.767488,-0.000001,-0.789688,-0.000000,-2.409226,-0.000010,1.612380,0.785398
0.769444,-0.000001,-0.789782,-0.000000,-2.409226,-0.000010,1.612380,0.785398
0.771493,-0.000001,-0.789876,-0.000000,-2.409226,-0.000010,1.612380,0.785398
0.773503,-0.000001,-0.789970,-0.000000,-2.409226,-0.000010,1.612380,0.785398
0.775617,-0.000001,-0.790064,-0.000000,-2.409226,-0.000010,1.612380,0.785398
0.777949,-0.000001,-0.790157,-0.000000,-2.409226,-0.000010,1.612380,0.785398
0.779532,-0.000001,-0.790250,-0.000000,-2.409226,-0.000010,1.612380,0.785398
0.781460,-0.000001,-0.790344,-0.000000,-2.409226,-0.000010,1.612380,0.785398
0.783542,-0.000001,-0.790437,-0.000000,-2.409226,-0.000010,1.612380,0.785398
0.785482,-0.000001,-0.790529,-0.000000,-2.409226,-0.000010,1.612380,0.785398
0.787442,-0.000001,-0.790622,-0.000000,-2.409226,-0.000010,1.612380,0.785398
0.789487,-0.000001,-0.790715,-0.000000,-2.409226,-0.000010,1.612380,0.785398
0.791445,-0.000001,-0.790807,-0.000000,-2.409226,-0.000010,1.612380,0.785398
0.793498,-0.000001,-0.790899,-0.000000,-2.409226,-0.000010,1.612380,0.785398
0.795543,-0.000001,-0.790991,-0.000000,-2.409226,-0.000010,1.612380,0.785398
0.797473,-0.000001,-0.791083,-0.000000,-2.409226,-0.000010,1.612380,0.785398
0.799443,-0.000001,-0.791174,-0.000000,-2.409226,-0.000010,1.612380,0.785398
0.801459,-0.000001,-0.791266,-0.000000,-2.409226,-0.000010,1.612380,0.785398
0.803477,-0.000001,-0.791357,-0.000000,-2.409226,-0.000010,1.612380,0.785398
0.805444,-0.000001,-0.791448,-0.000000,-2.409226,-0.000010,1.612380,0.785398
0.807517,-0.000001,-0.791539,-0.000000,-2.409226,-0.000010,1.612380,0.785398
0.809482,-0.000001,-0.791629,-0.000000,-2.409226,-0.000010,1.612380,0.785398
0.811462,-0.000001,-0.791720,-0.000000,-2.409226,-0.000010,1.612380,0.785398
0.813591,-0.000001,-0.791810,-0.000000,-2.409226,-0.000010,1.612380,0.785398
0.815466,-0.000001,-0.791900,-0.000000,-2.409226,-0.000010,1.612380,0.785398
0.817475,-0.000001,-0.791990,-0.000000,-2.409226,-0.000010,1.612380,0.785398
0.819523,-0.000001,-0.792080,-0.000000,-2.409226,-0.000010,1.612380,0.785398
0.821475,-0.000001,-0.792169,-0.000000,-2.409226,-0.000010,1.612380,0.785398
0.823455,-0.000001,-0.792258,-0.000000,-2.409226,-0.000010,1.612380,0.785398
0.825537,-0.000001,-0.792347,-0.000000,-2.409226,-0.000010,1.612380,0.785398
0.827440,-0.000001,-0.792436,-0.000000,-2.409226,-0.000010,1.612380,0.785398
0.829489,-0.000001,-0.792525,-0.000000,-2.409226,-0.000010,1.612380,0.785398
0.831461,-0.000001,-0.792613,-0.000000,-2.409226,-0.000010,1.612380,0.785398
0.833446,-0.000001,-0.792701,-0.000000,-2.409226,-0.000010,1.612380,0.785398
0.835856,-0.000001,-0.792789,-0.000000,-2.409226,-0.000010,1.612380,0.785398
0.837501,-0.000001,-0.792877,-0.000000,-2.409226,-0.000010,1.612380,0.785398
0.839403,-0.000001,-0.792965,-0.000000,-2.409226,-0.000010,1.612380,0.785398
0.841437,-0.000001,-0.793052,-0.000000,-2.409226,-0.000010,1.612380,0.785398
0.843437,-0.000001,-0.793139,-0.000000,-2.409226,-0.000010,1.612380,0.785398
0.845597,-0.000001,-0.793226,-0.000000,-2.409226,-0.000010,1.612380,0.785398
0.847431,-0.000001,-0.793312,-0.000000,-2.409226,-0.000010,1.612380,0.785398
0.849451,-0.000001,-0.793356,-0.000000,-2.409226,-0.000010,1.612380,0.785398
0.851469,-0.000001,-0.793442,-0.000000,-2.409226,-0.000010,1.612380,0.785398
0.853544,-0.000001,-0.793571,-0.000000,-2.409226,-0.000010,1.612380,0.785398
0.855492,-0.000001,-0.793657,-0.000000,-2.409226,-0.000010,1.612380,0.785398
0.857580,-0.000001,-0.793742,-0.000000,-2.409226,-0.000010,1.612380,0.785398
0.859431,-0.000001,-0.793827,-0.000000,-2.409226,-0.000010,1.612380,0.785398
0.861539,-0.000001,-0.793870,-0.000000,-2.409226,-0.000010,1.612380,0.785398
0.863503,-0.000001,-0.793955,-0.000000,-2.409226,-0.000010,1.612380,0.785398
0.865485,-0.000001,-0.794039,-0.000000,-2.409226,-0.000010,1.612380,0.785398
0.867482,-0.000001,-0.794124,-0.000000,-2.409226,-0.000010,1.612380,0.785398
0.869556,-0.000001,-0.794250,-0.000000,-2.409226,-0.000010,1.612380,0.785398
0.871531,-0.000001,-0.794292,-0.000000,-2.409226,-0.000010,1.612380,0.785398
0.873534,-0.000001,-0.794375,-0.000000,-2.409226,-0.000010,1.612380,0.785398
0.875463,-0.000001,-0.794459,-0.000000,-2.409226,-0.000010,1.612380,0.785398
0.877490,-0.000001,-0.794542,-0.000000,-2.409226,-0.000010,1.612380,0.785398
0.879478,-0.000001,-0.794625,-0.000000,-2.409226,-0.000010,1.612380,0.785398
0.881517,-0.000001,-0.794708,-0.000000,-2.409226,-0.000010,1.612380,0.785398
0.883445,-0.000001,-0.794790,-0.000000,-2.409226,-0.000010,1.612380,0.785398
0.885473,-0.000001,-0.794872,-0.000000,-2.409226,-0.000010,1.612380,0.785398
0.887454,-0.000001,-0.794954,-0.000000,-2.409226,-0.000010,1.612380,0.785398
0.889472,-0.000001,-0.795036,-0.000000,-2.409226,-0.000010,1.612380,0.785398
0.891492,-0.000001,-0.795117,-0.000000,-2.409226,-0.000010,1.612380,0.785398
0.893465,-0.000001,-0.795198,-0.000000,-2.409226,-0.000010,1.612380,0.785398
0.895440,-0.000001,-0.795239,-0.000000,-2.409226,-0.000010,1.612380,0.785398
0.897444,-0.000001,-0.795360,-0.000000,-2.409226,-0.000010,1.612380,0.785398
0.899474,-0.000001,-0.795440,-0.000000,-2.409226,-0.000010,1.612380,0.785398
0.901455,-0.000001,-0.795520,-0.000000,-2.409226,-0.000010,1.612380,0.785398
0.903468,-0.000001,-0.795600,-0.000000,-2.409226,-0.000010,1.612380,0.785398
0.905546,-0.000001,-0.795679,-0.000000,-2.409226,-0.000010,1.612380,0.785398
0.907493,-0.000001,-0.795758,-0.000000,-2.409226,-0.000010,1.612380,0.785398
0.909461,-0.000001,-0.795837,-0.000000,-2.409226,-0.000010,1.612380,0.785398
0.911558,-0.000001,-0.795916,-0.000000,-2.409226,-0.000010,1.612380,0.785398
0.913486,-0.000001,-0.795995,-0.000000,-2.409226,-0.000010,1.612380,0.785398
0.915602,-0.000001,-0.796073,-0.000000,-2.409226,-0.000010,1.612380,0.785398
0.917515,-0.000001,-0.796151,-0.000000,-2.409226,-0.000010,1.612380,0.785398
0.919435,-0.000001,-0.796228,-0.000000,-2.409226,-0.000010,1.612380,0.785398
0.921449,-0.000001,-0.796305,-0.000000,-2.409226,-0.000010,1.612380,0.785398
0.923441,-0.000001,-0.796382,-0.000000,-2.409226,-0.000010,1.612380,0.785398
0.925466,-0.000001,-0.796459,-0.000000,-2.409226,-0.000010,1.612380,0.785398
0.927454,-0.000001,-0.796536,-0.000000,-2.409226,-0.000010,1.612380,0.785398
0.929471,-0.000001,-0.796612,-0.000000,-2.409226,-0.000010,1.612380,0.785398
0.931461,-0.000001,-0.796688,-0.000000,-2.409226,-0.000010,1.612380,0.785398
0.933617,-0.000001,-0.796763,-0.000000,-2.409226,-0.000010,1.612380,0.785398
0.935544,-0.000001,-0.796838,-0.000000,-2.409226,-0.000010,1.612380,0.785398
0.937445,-0.000001,-0.796913,-0.000000,-2.409226,-0.000010,1.612380,0.785398
0.939524,-0.000001,-0.796988,-0.000000,-2.409226,-0.000010,1.612380,0.785398
0.941456,-0.000001,-0.797062,-0.000000,-2.409226,-0.000010,1.612380,0.785398
0.943520,-0.000001,-0.797137,-0.000000,-2.409226,-0.000010,1.612380,0.785398
0.945438,-0.000001,-0.797210,-0.000000,-2.409226,-0.000010,1.612380,0.785398
0.947484,-0.000001,-0.797284,-0.000000,-2.409226,-0.000010,1.612380,0.785398
0.949495,-0.000001,-0.797357,-0.000000,-2.409226,-0.000010,1.612380,0.785398
0.951495,-0.000001,-0.797430,-0.000000,-2.409226,-0.000010,1.612380,0.785398
0.953457,-0.000001,-0.797503,-0.000000,-2.409226,-0.000010,1.612380,0.785398
0.955458,-0.000001,-0.797575,-0.000000,-2.409226,-0.000010,1.612380,0.785398
0.957549,-0.000001,-0.797647,-0.000000,-2.409226,-0.000010,1.612380,0.785398
0.959396,-0.000001,-0.797718,-0.000000,-2.409226,-0.000010,1.612380,0.785398
0.961442,-0.000001,-0.797790,-0.000000,-2.409226,-0.000010,1.612380,0.785398
0.963511,-0.000001,-0.797861,-0.000000,-2.409226,-0.000010,1.612380,0.785398
0.965472,-0.000001,-0.797932,-0.000000,-2.409226,-0.000010,1.612380,0.785398
0.967427,-0.000001,-0.798002,-0.000000,-2.409226,-0.000010,1.612380,0.785398
0.969391,-0.000001,-0.798072,-0.000000,-2.409226,-0.000010,1.612380,0.785398
0.971410,-0.000001,-0.798142,-0.000000,-2.409226,-0.000010,1.612380,0.785398
0.973453,-0.000001,-0.798211,-0.000000,-2.409226,-0.000010,1.612380,0.785398
0.975501,-0.000001,-0.798280,-0.000000,-2.409226,-0.000010,1.612380,0.785398
0.977505,-0.000001,-0.798349,-0.000000,-2.409226,-0.000010,1.612380,0.785398
0.979383,-0.000001,-0.798418,-0.000000,-2.409226,-0.000010,1.612380,0.785398
0.981480,-0.000001,-0.798486,-0.000000,-2.409226,-0.000010,1.612380,0.785398
0.983516,-0.000001,-0.798554,-0.000000,-2.409226,-0.000010,1.612380,0.785398
0.985390,-0.000001,-0.798621,-0.000000,-2.409226,-0.000010,1.612380,0.785398
0.987449,-0.000001,-0.798689,-0.000000,-2.409226,-0.000010,1.612380,0.785398
0.989424,-0.000001,-0.798722,-0.000000,-2.409226,-0.000010,1.612380,0.785398
0.991472,-0.000001,-0.798789,-0.000000,-2.409226,-0.000010,1.612380,0.785398
0.993535,-0.000001,-0.798888,-0.000000,-2.409226,-0.000010,1.612380,0.785398
0.995406,-0.000001,-0.798954,-0.000000,-2.409226,-0.000010,1.612380,0.785398
0.997522,-0.000001,-0.799020,-0.000000,-2.409226,-0.000010,1.612380,0.785398
0.999479,-0.000001,-0.799085,-0.000000,-2.409226,-0.000010,1.612380,0.785398
1.001462,-0.000001,-0.799118,-0.000000,-2.409226,-0.000010,1.612380,0.785398
1.003495,-0.000001,-0.799182,-0.000000,-2.409226,-0.000010,1.612380,0.785398
1.005493,-0.000001,-0.799247,-0.000000,-2.409226,-0.000010,1.612380,0.785398
1.007471,-0.000001,-0.799311,-0.000000,-2.409226,-0.000010,1.612380,0.785398
1.009460,-0.000001,-0.799375,-0.000000,-2.409226,-0.000010,1.612380,0.785398
1.011476,-0.000001,-0.799438,-0.000000,-2.409226,-0.000010,1.612380,0.785398
1.013490,-0.000001,-0.799501,-0.000000,-2.409226,-0.000010,1.612380,0.785398
1.015492,-0.000001,-0.799564,-0.000000,-2.409226,-0.000010,1.612380,0.785398
1.017505,-0.000001,-0.799626,-0.000000,-2.409226,-0.000010,1.612380,0.785398
1.019518,-0.000001,-0.799688,-0.000000,-2.409226,-0.000010,1.612380,0.785398
1.021483,-0.000001,-0.799750,-0.000000,-2.409226,-0.000010,1.612380,0.785398
1.023443,-0.000001,-0.799811,-0.000000,-2.409226,-0.000010,1.612380,0.785398
1.025480,-0.000001,-0.799872,-0.000000,-2.409226,-0.000010,1.612380,0.785398
1.027488,-0.000001,-0.799933,-0.000000,-2.409226,-0.000010,1.612380,0.785398
1.029496,-0.000001,-0.799993,-0.000000,-2.409226,-0.000010,1.612380,0.785398
1.031459,-0.000001,-0.800053,-0.000000,-2.409226,-0.000010,1.612380,0.785398
1.033502,-0.000001,-0.800113,-0.000000,-2.409226,-0.000010,1.612380,0.785398
1.035451,-0.000001,-0.800172,-0.000000,-2.409226,-0.000010,1.612380,0.785398
1.037457,-0.000001,-0.800231,-0.000000,-2.409226,-0.000010,1.612380,0.785398
1.039465,-0.000001,-0.800290,-0.000000,-2.409226,-0.000010,1.612380,0.785398
1.041460,-0.000001,-0.800348,-0.000000,-2.409226,-0.000010,1.612380,0.785398
1.043451,-0.000001,-0.800406,-0.000000,-2.409226,-0.000010,1.612380,0.785398
1.045464,-0.000001,-0.800464,-0.000000,-2.409226,-0.000010,1.612380,0.785398
1.047467,-0.000001,-0.800521,-0.000000,-2.409226,-0.000010,1.612380,0.785398
1.049507,-0.000001,-0.800578,-0.000000,-2.409226,-0.000010,1.612380,0.785398
1.051468,-0.000001,-0.800634,-0.000000,-2.409226,-0.000010,1.612380,0.785398
1.053538,-0.000001,-0.800690,-0.000000,-2.409226,-0.000010,1.612380,0.785398
1.055496,-0.000001,-0.800746,-0.000000,-2.409226,-0.000010,1.612380,0.785398
1.057495,-0.000001,-0.800801,-0.000000,-2.409226,-0.000010,1.612380,0.785398
1.059497,-0.000001,-0.800856,-0.000000,-2.409226,-0.000010,1.612380,0.785398
1.061472,-0.000001,-0.800911,-0.000000,-2.409226,-0.000010,1.612380,0.785398
1.063504,-0.000001,-0.800965,-0.000000,-2.409226,-0.000010,1.612380,0.785398
1.065486,-0.000001,-0.801019,-0.000000,-2.409226,-0.000010,1.612380,0.785398
1.067483,-0.000001,-0.801073,-0.000000,-2.409226,-0.000010,1.612380,0.785398
1.069504,-0.000001,-0.801126,-0.000000,-2.409226,-0.000010,1.612380,0.785398
1.071518,-0.000001,-0.801179,-0.000000,-2.409226,-0.000010,1.612380,0.785398
1.073493,-0.000001,-0.801231,-0.000000,-2.409226,-0.000010,1.612380,0.785398
1.075515,-0.000001,-0.801283,-0.000000,-2.409226,-0.000010,1.612380,0.785398
1.077497,-0.000001,-0.801335,-0.000000,-2.409226,-0.000010,1.612380,0.785398
1.079450,-0.000001,-0.801387,-0.000000,-2.409226,-0.000010,1.612380,0.785398
1.081471,-0.000001,-0.801438,-0.000000,-2.409226,-0.000010,1.612380,0.785398
1.083474,-0.000001,-0.801488,-0.000000,-2.409226,-0.000010,1.612380,0.785398
1.085478,-0.000001,-0.801539,-0.000000,-2.409226,-0.000010,1.612380,0.785398
1.087486,-0.000001,-0.801588,-0.000000,-2.409226,-0.000010,1.612380,0.785398
1.089462,-0.000001,-0.801638,-0.000000,-2.409226,-0.000010,1.612380,0.785398
1.091521,-0.000001,-0.801687,-0.000000,-2.409226,-0.000010,1.612380,0.785398
1.093467,-0.000001,-0.801736,-0.000000,-2.409226,-0.000010,1.612380,0.785398
1.095469,-0.000001,-0.801784,-0.000000,-2.409226,-0.000010,1.612380,0.785398
1.097480,-0.000001,-0.801832,-0.000000,-2.409226,-0.000010,1.612380,0.785398
1.099476,-0.000001,-0.801880,-0.000000,-2.409226,-0.000010,1.612380,0.785398
1.101478,-0.000001,-0.801927,-0.000000,-2.409226,-0.000010,1.612380,0.785398
1.103485,-0.000001,-0.801974,-0.000000,-2.409226,-0.000010,1.612380,0.785398
1.105440,-0.000001,-0.802021,-0.000000,-2.409226,-0.000010,1.612380,0.785398
1.107468,-0.000001,-0.802067,-0.000000,-2.409226,-0.000010,1.612380,0.785398
1.109442,-0.000001,-0.802113,-0.000000,-2.409226,-0.000010,1.612380,0.785398
1.111440,-0.000001,-0.802158,-0.000000,-2.409226,-0.000010,1.612380,0.785398
1.113437,-0.000001,-0.802203,-0.000000,-2.409226,-0.000010,1.612380,0.785398
1.115480,-0.000001,-0.802248,-0.000000,-2.409226,-0.000010,1.612380,0.785398
1.117460,-0.000001,-0.802292,-0.000000,-2.409226,-0.000010,1.612380,0.785398
1.119441,-0.000001,-0.802336,-0.000000,-2.409226,-0.000010,1.612380,0.785398
1.121391,-0.000001,-0.802380,-0.000000,-2.409226,-0.000010,1.612380,0.785398
1.123441,-0.000001,-0.802423,-0.000000,-2.409226,-0.000010,1.612380,0.785398
1.125438,-0.000001,-0.802465,-0.000000,-2.409226,-0.000010,1.612380,0.785398
1.127434,-0.000001,-0.802508,-0.000000,-2.409226,-0.000010,1.612380,0.785398
1.129435,-0.000001,-0.802550,-0.000000,-2.409226,-0.000010,1.612380,0.785398
1.131396,-0.000001,-0.802591,-0.000000,-2.409226,-0.000010,1.612380,0.785398
1.133453,-0.000001,-0.802633,-0.000000,-2.409226,-0.000010,1.612380,0.785398
1.135436,-0.000001,-0.802673,-0.000000,-2.409226,-0.000010,1.612380,0.785398
1.137474,-0.000001,-0.802714,-0.000000,-2.409226,-0.000010,1.612380,0.785398
1.139516,-0.000001,-0.802754,-0.000000,-2.409226,-0.000010,1.612380,0.785398
1.141580,-0.000001,-0.802794,-0.000000,-2.409226,-0.000010,1.612380,0.785398
1.143596,-0.000001,-0.802833,-0.000000,-2.409226,-0.000010,1.612380,0.785398
1.145417,-0.000001,-0.802852,-0.000000,-2.409226,-0.000010,1.612380,0.785398
1.147750,-0.000001,-0.802910,-0.000000,-2.409226,-0.000010,1.612380,0.785398
1.149487,-0.000001,-0.802929,-0.000000,-2.409226,-0.000010,1.612380,0.785398
1.151471,-0.000001,-0.802967,-0.000000,-2.409226,-0.000010,1.612380,0.785398
1.153498,-0.000001,-0.803005,-0.000000,-2.409226,-0.000010,1.612380,0.785398
1.155509,-0.000001,-0.803042,-0.000000,-2.409226,-0.000010,1.612380,0.785398
1.157504,-0.000001,-0.803079,-0.000000,-2.409226,-0.000010,1.612380,0.785398
1.159449,-0.000001,-0.803115,-0.000000,-2.409226,-0.000010,1.612380,0.785398
1.161500,-0.000001,-0.803151,-0.000000,-2.409226,-0.000010,1.612380,0.785398
1.163465,-0.000001,-0.803186,-0.000000,-2.409226,-0.000010,1.612380,0.785398
1.165551,-0.000001,-0.803222,-0.000000,-2.409226,-0.000010,1.612380,0.785398
1.167502,-0.000001,-0.803256,-0.000000,-2.409226,-0.000010,1.612380,0.785398
1.169498,-0.000001,-0.803291,-0.000000,-2.409226,-0.000010,1.612380,0.785398
1.171552,-0.000001,-0.803325,-0.000000,-2.409226,-0.000010,1.612380,0.785398
1.173472,-0.000001,-0.803358,-0.000000,-2.409226,-0.000010,1.612380,0.785398
1.175441,-0.000001,-0.803392,-0.000000,-2.409226,-0.000010,1.612380,0.785398
1.177476,-0.000001,-0.803424,-0.000000,-2.409226,-0.000010,1.612380,0.785398
1.179493,-0.000001,-0.803457,-0.000000,-2.409226,-0.000010,1.612380,0.785398
1.181513,-0.000001,-0.803489,-0.000000,-2.409226,-0.000010,1.612380,0.785398
1.183497,-0.000001,-0.803521,-0.000000,-2.409226,-0.000010,1.612380,0.785398
1.185533,-0.000001,-0.803552,-0.000000,-2.409226,-0.000010,1.612380,0.785398
1.187505,-0.000001,-0.803583,-0.000000,-2.409226,-0.000010,1.612380,0.785398
1.189475,-0.000001,-0.803613,-0.000000,-2.409226,-0.000010,1.612380,0.785398
1.191473,-0.000001,-0.803643,-0.000000,-2.409226,-0.000010,1.612380,0.785398
1.193476,-0.000001,-0.803673,-0.000000,-2.409226,-0.000010,1.612380,0.785398
1.195432,-0.000001,-0.803687,-0.000000,-2.409226,-0.000010,1.612380,0.785398
1.197480,-0.000001,-0.803731,-0.000000,-2.409226,-0.000010,1.612380,0.785398
1.199485,-0.000001,-0.803759,-0.000000,-2.409226,-0.000010,1.612380,0.785398
1.201470,-0.000001,-0.803787,-0.000000,-2.409226,-0.000010,1.612380,0.785398
1.203475,-0.000001,-0.803815,-0.000000,-2.409226,-0.000010,1.612380,0.785398
1.205500,-0.000001,-0.803842,-0.000000,-2.409226,-0.000010,1.612380,0.785398
1.207472,-0.000001,-0.803869,-0.000000,-2.409226,-0.000010,1.612380,0.785398
1.209467,-0.000001,-0.803896,-0.000000,-2.409226,-0.000010,1.612380,0.785398
1.211479,-0.000001,-0.803922,-0.000000,-2.409226,-0.000010,1.612380,0.785398
1.213471,-0.000001,-0.803947,-0.000000,-2.409226,-0.000010,1.612380,0.785398
1.215474,-0.000001,-0.803973,-0.000000,-2.409226,-0.000010,1.612380,0.785398
1.217517,-0.000001,-0.803998,-0.000000,-2.409226,-0.000010,1.612380,0.785398
1.219478,-0.000001,-0.804022,-0.000000,-2.409226,-0.000010,1.612380,0.785398
1.221441,-0.000001,-0.804046,-0.000000,-2.409226,-0.000010,1.612380,0.785398
1.223539,-0.000001,-0.804070,-0.000000,-2.409226,-0.000010,1.612380,0.785398
1.225492,-0.000001,-0.804082,-0.000000,-2.409226,-0.000010,1.612380,0.785398
1.227441,-0.000001,-0.804116,-0.000000,-2.409226,-0.000010,1.612380,0.785398
1.229557,-0.000001,-0.804139,-0.000000,-2.409226,-0.000010,1.612380,0.785398
1.231494,-0.000001,-0.804161,-0.000000,-2.409226,-0.000010,1.612380,0.785398
1.233475,-0.000001,-0.804182,-0.000000,-2.409226,-0.000010,1.612380,0.785398
1.235473,-0.000001,-0.804204,-0.000000,-2.409226,-0.000010,1.612380,0.785398
1.237458,-0.000001,-0.804224,-0.000000,-2.409226,-0.000010,1.612380,0.785398
1.239418,-0.000001,-0.804245,-0.000000,-2.409226,-0.000010,1.612380,0.785398
1.241530,-0.000001,-0.804265,-0.000000,-2.409226,-0.000010,1.612380,0.785398
1.243449,-0.000001,-0.804285,-0.000000,-2.409226,-0.000010,1.612380,0.785398
1.245466,-0.000001,-0.804304,-0.000000,-2.409226,-0.000010,1.612380,0.785398
1.247493,-0.000001,-0.804323,-0.000000,-2.409226,-0.000010,1.612380,0.785398
1.249441,-0.000001,-0.804341,-0.000000,-2.409226,-0.000010,1.612380,0.785398
1.251451,-0.000001,-0.804359,-0.000000,-2.409226,-0.000010,1.612380,0.785398
1.253447,-0.000001,-0.804368,-0.000000,-2.409226,-0.000010,1.612380,0.785398
1.255429,-0.000001,-0.804394,-0.000000,-2.409226,-0.000010,1.612380,0.785398
1.257508,-0.000001,-0.804403,-0.000000,-2.409226,-0.000010,1.612380,0.785398
1.259437,-0.000001,-0.804420,-0.000000,-2.409226,-0.000010,1.612380,0.785398
1.261466,-0.000001,-0.804436,-0.000000,-2.409226,-0.000010,1.612380,0.785398
1.263484,-0.000001,-0.804452,-0.000000,-2.409226,-0.000010,1.612380,0.785398
1.265458,-0.000001,-0.804467,-0.000000,-2.409226,-0.000010,1.612380,0.785398
1.267472,-0.000001,-0.804482,-0.000000,-2.409226,-0.000010,1.612380,0.785398
1.269469,-0.000001,-0.804497,-0.000000,-2.409226,-0.000010,1.612380,0.785398
1.271475,-0.000001,-0.804511,-0.000000,-2.409226,-0.000010,1.612380,0.785398
1.273470,-0.000001,-0.804525,-0.000000,-2.409226,-0.000010,1.612380,0.785398
1.275467,-0.000001,-0.804539,-0.000000,-2.409226,-0.000010,1.612380,0.785398
1.277478,-0.000001,-0.804552,-0.000000,-2.409226,-0.000010,1.612380,0.785398
1.279477,-0.000001,-0.804564,-0.000000,-2.409226,-0.000010,1.612380,0.785398
1.281466,-0.000001,-0.804577,-0.000000,-2.409226,-0.000010,1.612380,0.785398
1.283488,-0.000001,-0.804589,-0.000000,-2.409226,-0.000010,1.612380,0.785398
1.285469,-0.000001,-0.804600,-0.000000,-2.409226,-0.000010,1.612380,0.785398
1.287466,-0.000001,-0.804611,-0.000000,-2.409226,-0.000010,1.612380,0.785398
1.289464,-0.000001,-0.804622,-0.000000,-2.409226,-0.000010,1.612380,0.785398
1.291469,-0.000001,-0.804632,-0.000000,-2.409226,-0.000010,1.612380,0.785398
1.293477,-0.000001,-0.804642,-0.000000,-2.409226,-0.000010,1.612380,0.785398
1.295467,-0.000001,-0.804651,-0.000000,-2.409226,-0.000010,1.612380,0.785398
1.297439,-0.000001,-0.804661,-0.000000,-2.409226,-0.000010,1.612380,0.785398
1.299470,-0.000001,-0.804669,-0.000000,-2.409226,-0.000010,1.612380,0.785398
1.301467,-0.000001,-0.804678,-0.000000,-2.409226,-0.000010,1.612380,0.785398
1.303475,-0.000001,-0.804685,-0.000000,-2.409226,-0.000010,1.612380,0.785398
1.305470,-0.000001,-0.804693,-0.000000,-2.409226,-0.000010,1.612380,0.785398
1.307474,-0.000001,-0.804700,-0.000000,-2.409226,-0.000010,1.612380,0.785398
1.309442,-0.000001,-0.804707,-0.000000,-2.409226,-0.000010,1.612380,0.785398
1.311471,-0.000001,-0.804713,-0.000000,-2.409226,-0.000010,1.612380,0.785398
1.313448,-0.000001,-0.804719,-0.000000,-2.409226,-0.000010,1.612380,0.785398
1.315479,-0.000001,-0.804724,-0.000000,-2.409226,-0.000010,1.612380,0.785398
1.317469,-0.000001,-0.804730,-0.000000,-2.409226,-0.000010,1.612380,0.785398
1.319536,-0.000001,-0.804734,-0.000000,-2.409226,-0.000010,1.612380,0.785398
1.321480,-0.000001,-0.804739,-0.000000,-2.409226,-0.000010,1.612380,0.785398
1.323470,-0.000001,-0.804743,-0.000000,-2.409226,-0.000010,1.612380,0.785398
1.325484,-0.000001,-0.804746,-0.000000,-2.409226,-0.000010,1.612380,0.785398
1.327485,-0.000001,-0.804749,-0.000000,-2.409226,-0.000010,1.612380,0.785398
1.329438,-0.000001,-0.804752,-0.000000,-2.409226,-0.000010,1.612380,0.785398
1.331478,-0.000001,-0.804754,-0.000000,-2.409226,-0.000010,1.612380,0.785398
1.333491,-0.000001,-0.804756,-0.000000,-2.409226,-0.000010,1.612380,0.785398
1.335496,-0.000001,-0.804758,-0.000000,-2.409226,-0.000010,1.612380,0.785398
1.337475,-0.000001,-0.804759,-0.000000,-2.409226,-0.000010,1.612380,0.785398
1.339477,-0.000001,-0.804760,-0.000000,-2.409226,-0.000010,1.612380,0.785398
1.341464,-0.000001,-0.804760,-0.000000,-2.409226,-0.000010,1.612380,0.785398
1.343501,-0.000001,-0.804760,-0.000000,-2.409226,-0.000010,1.612380,0.785398
1.345505,-0.000001,-0.804760,-0.000000,-2.409226,-0.000010,1.612380,0.785398
1.347480,-0.000001,-0.804760,-0.000000,-2.409226,-0.000010,1.612380,0.785398
1.349469,-0.000001,-0.804760,-0.000000,-2.409226,-0.000010,1.612380,0.785398
1.351483,-0.000001,-0.804760,-0.000000,-2.409226,-0.000010,1.612380,0.785398
1.353463,-0.000001,-0.804760,-0.000000,-2.409226,-0.000010,1.612380,0.785398
1.355478,-0.000001,-0.804760,-0.000000,-2.409226,-0.000010,1.612380,0.785398
1.357534,-0.000001,-0.804760,-0.000000,-2.409226,-0.000010,1.612380,0.785398
1.359446,-0.000001,-0.804760,-0.000000,-2.409226,-0.000010,1.612380,0.785398
1.361436,-0.000001,-0.804760,-0.000000,-2.409226,-0.000010,1.612380,0.785398
1.363500,-0.000001,-0.804760,-0.000000,-2.409226,-0.000010,1.612380,0.785398
1.365435,-0.000001,-0.804760,-0.000000,-2.409226,-0.000010,1.612380,0.785398
1.367435,-0.000001,-0.804760,-0.000000,-2.409226,-0.000010,1.612380,0.785398
1.369433,-0.000001,-0.804760,-0.000000,-2.409226,-0.000010,1.612380,0.785398
1.371436,-0.000001,-0.804760,-0.000000,-2.409226,-0.000010,1.612380,0.785398
1.373477,-0.000001,-0.804760,-0.000000,-2.409226,-0.000010,1.612380,0.785398
1.375455,-0.000001,-0.804760,-0.000000,-2.409226,-0.000010,1.612380,0.785398
1.377390,-0.000001,-0.804760,-0.000000,-2.409226,-0.000010,1.612380,0.785398
1.379459,-0.000001,-0.804760,-0.000000,-2.409226,-0.000010,1.612380,0.785398
1.381451,-0.000001,-0.804760,-0.000000,-2.409226,-0.000010,1.612380,0.785398
1.383387,-0.000001,-0.804760,-0.000000,-2.409226,-0.000010,1.612380,0.785398
1.385448,-0.000001,-0.804760,-0.000000,-2.409226,-0.000010,1.612380,0.785398
1.387458,-0.000001,-0.804760,-0.000000,-2.409226,-0.000010,1.612380,0.785398
1.389473,-0.000001,-0.804760,-0.000000,-2.409226,-0.000010,1.612380,0.785398
1.391522,-0.000001,-0.804760,-0.000000,-2.409226,-0.000010,1.612380,0.785398
1.393595,-0.000001,-0.804760,-0.000000,-2.409226,-0.000010,1.612380,0.785398
1.395469,-0.000001,-0.804760,-0.000000,-2.409226,-0.000010,1.612380,0.785398
1.397490,-0.000001,-0.804760,-0.000000,-2.409226,-0.000010,1.612380,0.785398
1.399513,-0.000001,-0.804760,-0.000000,-2.409226,-0.000010,1.612380,0.785398
1.401655,-0.000001,-0.804760,-0.000000,-2.409226,-0.000010,1.612380,0.785398
1.403507,-0.000001,-0.804760,-0.000000,-2.409226,-0.000010,1.612380,0.785398
1.405496,-0.000001,-0.804760,-0.000000,-2.409226,-0.000010,1.612380,0.785398
1.407492,-0.000001,-0.804760,-0.000000,-2.409226,-0.000010,1.612380,0.785398
1.409508,-0.000001,-0.804760,-0.000000,-2.409226,-0.000010,1.612380,0.785398
1.411464,-0.000001,-0.804760,-0.000000,-2.409226,-0.000010,1.612380,0.785398
1.413522,-0.000001,-0.804760,-0.000000,-2.409226,-0.000010,1.612380,0.785398
1.415469,-0.000001,-0.804760,-0.000000,-2.409226,-0.000010,1.612380,0.785398
1.417475,-0.000001,-0.804760,-0.000000,-2.409226,-0.000010,1.612380,0.785398
1.419462,-0.000001,-0.804760,-0.000000,-2.409226,-0.000010,1.612380,0.785398
1.421501,-0.000001,-0.804760,-0.000000,-2.409226,-0.000010,1.612380,0.785398
1.423483,-0.000001,-0.804760,-0.000000,-2.409226,-0.000010,1.612380,0.785398
1.425473,-0.000001,-0.804760,-0.000000,-2.409226,-0.000010,1.612380,0.785398
1.427476,-0.000001,-0.804760,-0.000000,-2.409226,-0.000010,1.612380,0.785398
1.429482,-0.000001,-0.804760,-0.000000,-2.409226,-0.000010,1.612380,0.785398
1.431479,-0.000001,-0.804760,-0.000000,-2.409226,-0.000010,1.612380,0.785398
1.433503,-0.000001,-0.804760,-0.000000,-2.409226,-0.000010,1.612380,0.785398
1.435455,-0.000001,-0.804760,-0.000000,-2.409226,-0.000010,1.612380,0.785398
1.437455,-0.000001,-0.804760,-0.000000,-2.409226,-0.000010,1.612380,0.785398
1.439483,-0.000001,-0.804760,-0.000000,-2.409226,-0.000010,1.612380,0.785398
1.441433,-0.000001,-0.804760,-0.000000,-2.409226,-0.000010,1.612380,0.785398
1.443434,-0.000001,-0.804760,-0.000000,-2.409226,-0.000010,1.612380,0.785398
1.445430,-0.000001,-0.804760,-0.000000,-2.409226,-0.000010,1.612380,0.785398
1.447431,-0.000001,-0.804760,-0.000000,-2.409226,-0.000010,1.612380,0.785398
1.449433,-0.000001,-0.804760,-0.000000,-2.409226,-0.000010,1.612380,0.785398
1.451437,-0.000001,-0.804760,-0.000000,-2.409226,-0.000010,1.612380,0.785398
1.453453,-0.000001,-0.804760,-0.000000,-2.409226,-0.000010,1.612380,0.785398
1.455439,-0.000001,-0.804760,-0.000000,-2.409226,-0.000010,1.612380,0.785398
1.457436,-0.000001,-0.804760,-0.000000,-2.409226,-0.000010,1.612380,0.785398
1.459437,-0.000001,-0.804760,-0.000000,-2.409226,-0.000010,1.612380,0.785398
1.461453,-0.000001,-0.804760,-0.000000,-2.409226,-0.000010,1.612380,0.785398
1.463417,-0.000001,-0.804760,-0.000000,-2.409226,-0.000010,1.612380,0.785398
1.465453,-0.000001,-0.804760,-0.000000,-2.409226,-0.000010,1.612380,0.785398
1.467462,-0.000001,-0.804760,-0.000000,-2.409226,-0.000010,1.612380,0.785398
1.469514,-0.000001,-0.804760,-0.000000,-2.409226,-0.000010,1.612380,0.785398
1.471558,-0.000001,-0.804760,-0.000000,-2.409226,-0.000010,1.612380,0.785398
1.473459,-0.000001,-0.804760,-0.000000,-2.409226,-0.000010,1.612380,0.785398
1.475477,-0.000001,-0.804760,-0.000000,-2.409226,-0.000010,1.612380,0.785398
1.477427,-0.000001,-0.804760,-0.000000,-2.409226,-0.000010,1.612380,0.785398
1.479476,-0.000001,-0.804760,-0.000000,-2.409226,-0.000010,1.612380,0.785398
1.481534,-0.000001,-0.804760,-0.000000,-2.409226,-0.000010,1.612380,0.785398
1.483508,-0.000001,-0.804760,-0.000000,-2.409226,-0.000010,1.612380,0.785398
1.485576,-0.000001,-0.804760,-0.000000,-2.409226,-0.000010,1.612380,0.785398
1.487485,-0.000001,-0.804760,-0.000000,-2.409226,-0.000010,1.612380,0.785398
1.489471,-0.000001,-0.804760,-0.000000,-2.409226,-0.000010,1.612380,0.785398
1.491524,-0.000001,-0.804760,-0.000000,-2.409226,-0.000010,1.612380,0.785398
1.493497,-0.000001,-0.804760,-0.000000,-2.409226,-0.000010,1.612380,0.785398
1.495404,-0.000001,-0.804760,-0.000000,-2.409226,-0.000010,1.612380,0.785398
1.497485,-0.000001,-0.804760,-0.000000,-2.409226,-0.000010,1.612380,0.785398
1.499469,-0.000001,-0.804760,-0.000000,-2.409226,-0.000010,1.612380,0.785398
1.501440,-0.000001,-0.804760,-0.000000,-2.409226,-0.000010,1.612380,0.785398
1.503503,-0.000001,-0.804760,-0.000000,-2.409226,-0.000010,1.612380,0.785398
1.505482,-0.000001,-0.804760,-0.000000,-2.409226,-0.000010,1.612380,0.785398
1.507521,-0.000001,-0.804760,-0.000000,-2.409226,-0.000010,1.612380,0.785398
1.509485,-0.000001,-0.804760,-0.000000,-2.409226,-0.000010,1.612380,0.785398
1.511514,-0.000001,-0.804760,-0.000000,-2.409226,-0.000010,1.612380,0.785398
1.513475,-0.000001,-0.804760,-0.000000,-2.409226,-0.000010,1.612380,0.785398
1.515446,-0.000001,-0.804760,-0.000000,-2.409226,-0.000010,1.612380,0.785398
1.517463,-0.000001,-0.804760,-0.000000,-2.409226,-0.000010,1.612380,0.785398
1.519476,-0.000001,-0.804760,-0.000000,-2.409226,-0.000010,1.612380,0.785398
1.521514,-0.000001,-0.804760,-0.000000,-2.409226,-0.000010,1.612380,0.785398
1.523479,-0.000001,-0.804760,-0.000000,-2.409226,-0.000010,1.612380,0.785398
1.525480,-0.000001,-0.804760,-0.000000,-2.409226,-0.000010,1.612380,0.785398
1.527476,-0.000001,-0.804760,-0.000000,-2.409226,-0.000010,1.612380,0.785398
1.529474,-0.000001,-0.804760,-0.000000,-2.409226,-0.000010,1.612380,0.785398
1.531445,-0.000001,-0.804760,-0.000000,-2.409226,-0.000010,1.612380,0.785398
1.533435,-0.000001,-0.804760,-0.000000,-2.409226,-0.000010,1.612380,0.785398
1.535468,-0.000001,-0.804760,-0.000000,-2.409226,-0.000010,1.612380,0.785398
1.537488,-0.000001,-0.804760,-0.000000,-2.409226,-0.000010,1.612380,0.785398
1.539496,-0.000001,-0.804760,-0.000000,-2.409226,-0.000010,1.612380,0.785398
1.541543,-0.000001,-0.804760,-0.000000,-2.409226,-0.000010,1.612380,0.785398
1.543488,-0.000001,-0.804760,-0.000000,-2.409226,-0.000010,1.612380,0.785398
1.545475,-0.000001,-0.804760,-0.000000,-2.409226,-0.000010,1.612380,0.785398
1.547477,-0.000001,-0.804760,-0.000000,-2.409226,-0.000010,1.612380,0.785398
1.549469,-0.000001,-0.804760,-0.000000,-2.409226,-0.000010,1.612380,0.785398
1.551464,-0.000001,-0.804760,-0.000000,-2.409226,-0.000010,1.612380,0.785398
1.553441,-0.000001,-0.804760,-0.000000,-2.409226,-0.000010,1.612380,0.785398
1.555480,-0.000001,-0.804760,-0.000000,-2.409226,-0.000010,1.612380,0.785398
1.557468,-0.000001,-0.804760,-0.000000,-2.409226,-0.000010,1.612380,0.785398
1.559473,-0.000001,-0.804760,-0.000000,-2.409226,-0.000010,1.612380,0.785398
1.561469,-0.000001,-0.804760,-0.000000,-2.409226,-0.000010,1.612380,0.785398
1.563476,-0.000001,-0.804760,-0.000000,-2.409226,-0.000010,1.612380,0.785398
1.565468,-0.000001,-0.804760,-0.000000,-2.409226,-0.000010,1.612380,0.785398
1.567476,-0.000001,-0.804760,-0.000000,-2.409226,-0.000010,1.612380,0.785398
1.569433,-0.000001,-0.804760,-0.000000,-2.409226,-0.000010,1.612380,0.785398
1.571476,-0.000001,-0.804760,-0.000000,-2.409226,-0.000010,1.612380,0.785398
1.573461,-0.000001,-0.804760,-0.000000,-2.409226,-0.000010,1.612380,0.785398
1.575531,-0.000001,-0.804760,-0.000000,-2.409226,-0.000010,1.612380,0.785398
1.577473,-0.000001,-0.804760,-0.000000,-2.409226,-0.000010,1.612380,0.785398
1.579517,-0.000001,-0.804760,-0.000000,-2.409226,-0.000010,1.612380,0.785398
1.581488,-0.000001,-0.804760,-0.000000,-2.409226,-0.000010,1.612380,0.785398
1.583484,-0.000001,-0.804760,-0.000000,-2.409226,-0.000010,1.612380,0.785398
1.585444,-0.000001,-0.804760,-0.000000,-2.409226,-0.000010,1.612380,0.785398
1.587525,-0.000001,-0.804760,-0.000000,-2.409226,-0.000010,1.612380,0.785398
1.589450,-0.000001,-0.804760,-0.000000,-2.409226,-0.000010,1.612380,0.785398
1.591485,-0.000001,-0.804760,-0.000000,-2.409226,-0.000010,1.612380,0.785398
1.593484,-0.000001,-0.804760,-0.000000,-2.409226,-0.000010,1.612380,0.785398
1.595464,-0.000001,-0.804760,-0.000000,-2.409226,-0.000010,1.612380,0.785398
1.597462,-0.000001,-0.804760,-0.000000,-2.409226,-0.000010,1.612380,0.785398
1.599491,-0.000001,-0.804760,-0.000000,-2.409226,-0.000010,1.612380,0.785398
1.601479,-0.000001,-0.804760,-0.000000,-2.409226,-0.000010,1.612380,0.785398
1.603479,-0.000001,-0.804760,-0.000000,-2.409226,-0.000010,1.612380,0.785398
1.605470,-0.000001,-0.804760,-0.000000,-2.409226,-0.000010,1.612380,0.785398
1.607460,-0.000001,-0.804760,-0.000000,-2.409226,-0.000010,1.612380,0.785398
1.609440,-0.000001,-0.804760,-0.000000,-2.409226,-0.000010,1.612380,0.785398
1.611605,-0.000001,-0.804760,-0.000000,-2.409226,-0.000010,1.612380,0.785398
1.613440,-0.000001,-0.804760,-0.000000,-2.409226,-0.000010,1.612380,0.785398
1.615437,-0.000001,-0.804760,-0.000000,-2.409226,-0.000010,1.612380,0.785398
1.617449,-0.000001,-0.804760,-0.000000,-2.409226,-0.000010,1.612380,0.785398
1.619438,-0.000001,-0.804760,-0.000000,-2.409226,-0.000010,1.612380,0.785398
1.621450,-0.000001,-0.804760,-0.000000,-2.409226,-0.000010,1.612380,0.785398
1.623508,-0.000001,-0.804760,-0.000000,-2.409226,-0.000010,1.612380,0.785398
1.625542,-0.000001,-0.804760,-0.000000,-2.409226,-0.000010,1.612380,0.785398
1.627514,-0.000001,-0.804760,-0.000000,-2.409226,-0.000010,1.612380,0.785398
1.629501,-0.000001,-0.804760,-0.000000,-2.409226,-0.000010,1.612380,0.785398
1.631476,-0.000001,-0.804760,-0.000000,-2.409226,-0.000010,1.612380,0.785398
1.633488,-0.000001,-0.804760,-0.000000,-2.409226,-0.000010,1.612380,0.785398
1.635504,-0.000001,-0.804760,-0.000000,-2.409226,-0.000010,1.612380,0.785398
1.637439,-0.000001,-0.804760,-0.000000,-2.409226,-0.000010,1.612380,0.785398
1.639529,-0.000001,-0.804760,-0.000000,-2.409226,-0.000010,1.612380,0.785398
1.641453,-0.000001,-0.804760,-0.000000,-2.409226,-0.000010,1.612380,0.785398
1.643480,-0.000001,-0.804760,-0.000000,-2.409226,-0.000010,1.612380,0.785398
1.645540,-0.000001,-0.804760,-0.000000,-2.409226,-0.000010,1.612380,0.785398
1.647455,-0.000001,-0.804760,-0.000000,-2.409226,-0.000010,1.612380,0.785398
1.649471,-0.000001,-0.804760,-0.000000,-2.409226,-0.000010,1.612380,0.785398
1.651479,-0.000001,-0.804760,-0.000000,-2.409226,-0.000010,1.612380,0.785398
1.653452,-0.000001,-0.804760,-0.000000,-2.409226,-0.000010,1.612380,0.785398
1.655459,-0.000001,-0.804760,-0.000000,-2.409226,-0.000010,1.612380,0.785398
1.657460,-0.000001,-0.804760,-0.000000,-2.409226,-0.000010,1.612380,0.785398
1.659440,-0.000001,-0.804760,-0.000000,-2.409226,-0.000010,1.612380,0.785398
1.661441,-0.000001,-0.804760,-0.000000,-2.409226,-0.000010,1.612380,0.785398
1.663514,-0.000001,-0.804760,-0.000000,-2.409226,-0.000010,1.612380,0.785398
1.665457,-0.000001,-0.804760,-0.000000,-2.409226,-0.000010,1.612380,0.785398
1.667444,-0.000001,-0.804760,-0.000000,-2.409226,-0.000010,1.612380,0.785398
1.669584,-0.000001,-0.804760,-0.000000,-2.409226,-0.000010,1.612380,0.785398
1.671555,-0.000001,-0.804760,-0.000000,-2.409226,-0.000010,1.612380,0.785398
1.673508,-0.000001,-0.804760,-0.000000,-2.409226,-0.000010,1.612380,0.785398
1.675439,-0.000001,-0.804760,-0.000000,-2.409226,-0.000010,1.612380,0.785398
1.677441,-0.000001,-0.804760,-0.000000,-2.409226,-0.000010,1.612380,0.785398
1.679474,-0.000001,-0.804760,-0.000000,-2.409226,-0.000010,1.612380,0.785398
1.681557,-0.000001,-0.804760,-0.000000,-2.409226,-0.000010,1.612380,0.785398
1.683521,-0.000001,-0.804760,-0.000000,-2.409226,-0.000010,1.612380,0.785398
1.685409,-0.000001,-0.804760,-0.000000,-2.409226,-0.000010,1.612380,0.785398
1.687530,-0.000001,-0.804760,-0.000000,-2.409226,-0.000010,1.612380,0.785398
1.689417,-0.000001,-0.804760,-0.000000,-2.409226,-0.000010,1.612380,0.785398
1.691440,-0.000001,-0.804760,-0.000000,-2.409226,-0.000010,1.612380,0.785398
1.693458,-0.000001,-0.804760,-0.000000,-2.409226,-0.000010,1.612380,0.785398
1.695463,-0.000001,-0.804760,-0.000000,-2.409226,-0.000010,1.612380,0.785398
1.697499,-0.000001,-0.804760,-0.000000,-2.409226,-0.000010,1.612380,0.785398
1.699729,-0.000001,-0.804760,-0.000000,-2.409226,-0.000010,1.612380,0.785398
1.701460,-0.000001,-0.804760,-0.000000,-2.409226,-0.000010,1.612380,0.785398
1.703430,-0.000001,-0.804760,-0.000000,-2.409226,-0.000010,1.612380,0.785398
1.705434,-0.000001,-0.804760,-0.000000,-2.409226,-0.000010,1.612380,0.785398
1.707509,-0.000001,-0.804760,-0.000000,-2.409226,-0.000010,1.612380,0.785398
1.709510,-0.000001,-0.804760,-0.000000,-2.409226,-0.000010,1.612380,0.785398
1.711429,-0.000001,-0.804760,-0.000000,-2.409226,-0.000010,1.612380,0.785398
1.713410,-0.000001,-0.804760,-0.000000,-2.409226,-0.000010,1.612380,0.785398
1.715416,-0.000001,-0.804760,-0.000000,-2.409226,-0.000010,1.612380,0.785398
1.717468,-0.000001,-0.804760,-0.000000,-2.409226,-0.000010,1.612380,0.785398
1.719478,-0.000001,-0.804760,-0.000000,-2.409226,-0.000010,1.612380,0.785398
1.721476,-0.000001,-0.804760,-0.000000,-2.409226,-0.000010,1.612380,0.785398
1.723473,-0.000001,-0.804760,-0.000000,-2.409226,-0.000010,1.612380,0.785398
1.725477,-0.000001,-0.804760,-0.000000,-2.409226,-0.000010,1.612380,0.785398
1.727475,-0.000001,-0.804760,-0.000000,-2.409226,-0.000010,1.612380,0.785398
1.729468,-0.000001,-0.804760,-0.000000,-2.409226,-0.000010,1.612380,0.785398
1.731431,-0.000001,-0.804760,-0.000000,-2.409226,-0.000010,1.612380,0.785398
1.733431,-0.000001,-0.804760,-0.000000,-2.409226,-0.000010,1.612380,0.785398
1.735493,-0.000001,-0.804760,-0.000000,-2.409226,-0.000010,1.612380,0.785398
1.737542,-0.000001,-0.804760,-0.000000,-2.409226,-0.000010,1.612380,0.785398
1.739473,-0.000001,-0.804760,-0.000000,-2.409226,-0.000010,1.612380,0.785398
1.741798,-0.000001,-0.804760,-0.000000,-2.409226,-0.000010,1.612380,0.785398
1.743549,-0.000001,-0.804760,-0.000000,-2.409226,-0.000010,1.612380,0.785398
1.745413,-0.000001,-0.804760,-0.000000,-2.409226,-0.000010,1.612380,0.785398
1.747440,-0.000001,-0.804760,-0.000000,-2.409226,-0.000010,1.612380,0.785398
1.749415,-0.000001,-0.804760,-0.000000,-2.409226,-0.000010,1.612380,0.785398
1.751496,-0.000001,-0.804760,-0.000000,-2.409226,-0.000010,1.612380,0.785398
1.753418,-0.000001,-0.804760,-0.000000,-2.409226,-0.000010,1.612380,0.785398
1.755491,-0.000001,-0.804760,-0.000000,-2.409226,-0.000010,1.612380,0.785398
1.757532,-0.000001,-0.804760,-0.000000,-2.409226,-0.000010,1.612380,0.785398
1.759513,-0.000001,-0.804760,-0.000000,-2.409226,-0.000010,1.612380,0.785398
1.761542,-0.000001,-0.804760,-0.000000,-2.409226,-0.000010,1.612380,0.785398
1.763502,-0.000001,-0.804760,-0.000000,-2.409226,-0.000010,1.612380,0.785398
1.765484,-0.000001,-0.804760,-0.000000,-2.409226,-0.000010,1.612380,0.785398
1.767477,-0.000001,-0.804760,-0.000000,-2.409226,-0.000010,1.612380,0.785398
1.769459,-0.000001,-0.804760,-0.000000,-2.409226,-0.000010,1.612380,0.785398
1.771438,-0.000001,-0.804760,-0.000000,-2.409226,-0.000010,1.612380,0.785398
1.773477,-0.000001,-0.804760,-0.000000,-2.409226,-0.000010,1.612380,0.785398
1.775466,-0.000001,-0.804760,-0.000000,-2.409226,-0.000010,1.612380,0.785398
1.777470,-0.000001,-0.804760,-0.000000,-2.409226,-0.000010,1.612380,0.785398
1.779479,-0.000001,-0.804760,-0.000000,-2.409226,-0.000010,1.612380,0.785398
1.781466,-0.000001,-0.804760,-0.000000,-2.409226,-0.000010,1.612380,0.785398
1.783504,-0.000001,-0.804760,-0.000000,-2.409226,-0.000010,1.612380,0.785398
1.785447,-0.000001,-0.804760,-0.000000,-2.409226,-0.000010,1.612380,0.785398
1.787470,-0.000001,-0.804760,-0.000000,-2.409226,-0.000010,1.612380,0.785398
1.789493,-0.000001,-0.804760,-0.000000,-2.409226,-0.000010,1.612380,0.785398
1.791482,-0.000001,-0.804760,-0.000000,-2.409226,-0.000010,1.612380,0.785398
1.793452,-0.000001,-0.804760,-0.000000,-2.409226,-0.000010,1.612380,0.785398
1.795470,-0.000001,-0.804760,-0.000000,-2.409226,-0.000010,1.612380,0.785398
1.797484,-0.000001,-0.804760,-0.000000,-2.409226,-0.000010,1.612380,0.785398
1.799472,-0.000001,-0.804760,-0.000000,-2.409226,-0.000010,1.612380,0.785398
1.801481,-0.000001,-0.804760,-0.000000,-2.409226,-0.000010,1.612380,0.785398
1.803454,-0.000001,-0.804760,-0.000000,-2.409226,-0.000010,1.612380,0.785398
1.805479,-0.000001,-0.804760,-0.000000,-2.409226,-0.000010,1.612380,0.785398
1.807471,-0.000001,-0.804760,-0.000000,-2.409226,-0.000010,1.612380,0.785398
1.809439,-0.000001,-0.804760,-0.000000,-2.409226,-0.000010,1.612380,0.785398
1.811442,-0.000001,-0.804760,-0.000000,-2.409226,-0.000010,1.612380,0.785398
1.813473,-0.000001,-0.804760,-0.000000,-2.409226,-0.000010,1.612380,0.785398
1.815470,-0.000001,-0.804760,-0.000000,-2.409226,-0.000010,1.612380,0.785398
1.817475,-0.000001,-0.804760,-0.000000,-2.409226,-0.000010,1.612380,0.785398
1.819463,-0.000001,-0.804760,-0.000000,-2.409226,-0.000010,1.612380,0.785398
1.821461,-0.000001,-0.804760,-0.000000,-2.409226,-0.000010,1.612380,0.785398
1.823479,-0.000001,-0.804760,-0.000000,-2.409226,-0.000010,1.612380,0.785398
1.825480,-0.000001,-0.804760,-0.000000,-2.409226,-0.000010,1.612380,0.785398
1.827469,-0.000001,-0.804760,-0.000000,-2.409226,-0.000010,1.612380,0.785398
1.829518,-0.000001,-0.804760,-0.000000,-2.409226,-0.000010,1.612380,0.785398
1.831505,-0.000001,-0.804760,-0.000000,-2.409226,-0.000010,1.612380,0.785398
1.833443,-0.000001,-0.804760,-0.000000,-2.409226,-0.000010,1.612380,0.785398
1.835501,-0.000001,-0.804760,-0.000000,-2.409226,-0.000010,1.612380,0.785398
1.837529,-0.000001,-0.804760,-0.000000,-2.409226,-0.000010,1.612380,0.785398
1.839496,-0.000001,-0.804760,-0.000000,-2.409226,-0.000010,1.612380,0.785398
1.841492,-0.000001,-0.804760,-0.000000,-2.409226,-0.000010,1.612380,0.785398
1.843565,-0.000001,-0.804760,-0.000000,-2.409226,-0.000010,1.612380,0.785398
1.845473,-0.000001,-0.804760,-0.000000,-2.409226,-0.000010,1.612380,0.785398
1.847473,-0.000001,-0.804760,-0.000000,-2.409226,-0.000010,1.612380,0.785398
1.849479,-0.000001,-0.804760,-0.000000,-2.409226,-0.000010,1.612380,0.785398
1.851438,-0.000001,-0.804760,-0.000000,-2.409226,-0.000010,1.612380,0.785398
1.853474,-0.000001,-0.804760,-0.000000,-2.409226,-0.000010,1.612380,0.785398
1.855469,-0.000001,-0.804760,-0.000000,-2.409226,-0.000010,1.612380,0.785398
1.857468,-0.000001,-0.804760,-0.000000,-2.409226,-0.000010,1.612380,0.785398
1.859473,-0.000001,-0.804760,-0.000000,-2.409226,-0.000010,1.612380,0.785398
1.861475,-0.000001,-0.804760,-0.000000,-2.409226,-0.000010,1.612380,0.785398
1.863471,-0.000001,-0.804760,-0.000000,-2.409226,-0.000010,1.612380,0.785398
1.865438,-0.000001,-0.804760,-0.000000,-2.409226,-0.000010,1.612380,0.785398
1.867468,-0.000001,-0.804760,-0.000000,-2.409226,-0.000010,1.612380,0.785398
1.869532,-0.000001,-0.804760,-0.000000,-2.409226,-0.000010,1.612380,0.785398
1.871475,-0.000001,-0.804760,-0.000000,-2.409226,-0.000010,1.612380,0.785398
1.873470,-0.000001,-0.804760,-0.000000,-2.409226,-0.000010,1.612380,0.785398
1.875469,-0.000001,-0.804760,-0.000000,-2.409226,-0.000010,1.612380,0.785398
1.877508,-0.000001,-0.804760,-0.000000,-2.409226,-0.000010,1.612380,0.785398
1.879444,-0.000001,-0.804760,-0.000000,-2.409226,-0.000010,1.612380,0.785398
1.881460,-0.000001,-0.804760,-0.000000,-2.409226,-0.000010,1.612380,0.785398
1.883460,-0.000001,-0.804760,-0.000000,-2.409226,-0.000010,1.612380,0.785398
1.885500,-0.000001,-0.804760,-0.000000,-2.409226,-0.000010,1.612380,0.785398
1.887501,-0.000001,-0.804760,-0.000000,-2.409226,-0.000010,1.612380,0.785398
1.889528,-0.000001,-0.804760,-0.000000,-2.409226,-0.000010,1.612380,0.785398
1.891464,-0.000001,-0.804760,-0.000000,-2.409226,-0.000010,1.612380,0.785398
1.893459,-0.000001,-0.804760,-0.000000,-2.409226,-0.000010,1.612380,0.785398
1.895442,-0.000001,-0.804760,-0.000000,-2.409226,-0.000010,1.612380,0.785398
1.897452,-0.000001,-0.804760,-0.000000,-2.409226,-0.000010,1.612380,0.785398
1.899435,-0.000001,-0.804760,-0.000000,-2.409226,-0.000010,1.612380,0.785398
1.901387,-0.000001,-0.804760,-0.000000,-2.409226,-0.000010,1.612380,0.785398
1.903416,-0.000001,-0.804760,-0.000000,-2.409226,-0.000010,1.612380,0.785398
1.905440,-0.000001,-0.804760,-0.000000,-2.409226,-0.000010,1.612380,0.785398
1.907436,-0.000001,-0.804760,-0.000000,-2.409226,-0.000010,1.612380,0.785398
1.909456,-0.000001,-0.804760,-0.000000,-2.409226,-0.000010,1.612380,0.785398
1.911436,-0.000001,-0.804760,-0.000000,-2.409226,-0.000010,1.612380,0.785398
1.913445,-0.000001,-0.804760,-0.000000,-2.409226,-0.000010,1.612380,0.785398
1.915432,-0.000001,-0.804760,-0.000000,-2.409226,-0.000010,1.612380,0.785398
1.917632,-0.000001,-0.804760,-0.000000,-2.409226,-0.000010,1.612380,0.785398
1.919444,-0.000001,-0.804760,-0.000000,-2.409226,-0.000010,1.612380,0.785398
1.921445,-0.000001,-0.804760,-0.000000,-2.409226,-0.000010,1.612380,0.785398
1.923447,-0.000001,-0.804760,-0.000000,-2.409226,-0.000010,1.612380,0.785398
1.925744,-0.000001,-0.804760,-0.000000,-2.409226,-0.000010,1.612380,0.785398
1.927528,-0.000001,-0.804760,-0.000000,-2.409226,-0.000010,1.612380,0.785398
1.929488,-0.000001,-0.804760,-0.000000,-2.409226,-0.000010,1.612380,0.785398
1.931568,-0.000001,-0.804760,-0.000000,-2.409226,-0.000010,1.612380,0.785398
1.933412,-0.000001,-0.804760,-0.000000,-2.409226,-0.000010,1.612380,0.785398
1.935591,-0.000001,-0.804760,-0.000000,-2.409226,-0.000010,1.612380,0.785398
1.937446,-0.000001,-0.804760,-0.000000,-2.409226,-0.000010,1.612380,0.785398
1.939448,-0.000001,-0.804760,-0.000000,-2.409226,-0.000010,1.612380,0.785398
1.941514,-0.000001,-0.804760,-0.000000,-2.409226,-0.000010,1.612380,0.785398
1.943524,-0.000001,-0.804760,-0.000000,-2.409226,-0.000010,1.612380,0.785398
1.945526,-0.000001,-0.804760,-0.000000,-2.409226,-0.000010,1.612380,0.785398
1.947395,-0.000001,-0.804760,-0.000000,-2.409226,-0.000010,1.612380,0.785398
1.949412,-0.000001,-0.804760,-0.000000,-2.409226,-0.000010,1.612380,0.785398
1.951471,-0.000001,-0.804760,-0.000000,-2.409226,-0.000010,1.612380,0.785398
1.953521,-0.000001,-0.804760,-0.000000,-2.409226,-0.000010,1.612380,0.785398
1.955541,-0.000001,-0.804760,-0.000000,-2.409226,-0.000010,1.612380,0.785398
1.957477,-0.000001,-0.804760,-0.000000,-2.409226,-0.000010,1.612380,0.785398
1.959469,-0.000001,-0.804760,-0.000000,-2.409226,-0.000010,1.612380,0.785398
1.961458,-0.000001,-0.804760,-0.000000,-2.409226,-0.000010,1.612380,0.785398
1.963473,-0.000001,-0.804760,-0.000000,-2.409226,-0.000010,1.612380,0.785398
1.965492,-0.000001,-0.804760,-0.000000,-2.409226,-0.000010,1.612380,0.785398
1.967467,-0.000001,-0.804760,-0.000000,-2.409226,-0.000010,1.612380,0.785398
1.969471,-0.000001,-0.804760,-0.000000,-2.409226,-0.000010,1.612380,0.785398
1.971467,-0.000001,-0.804760,-0.000000,-2.409226,-0.000010,1.612380,0.785398
1.973493,-0.000001,-0.804760,-0.000000,-2.409226,-0.000010,1.612380,0.785398
1.975505,-0.000001,-0.804760,-0.000000,-2.409226,-0.000010,1.612380,0.785398
1.977509,-0.000001,-0.804760,-0.000000,-2.409226,-0.000010,1.612380,0.785398
1.979495,-0.000001,-0.804760,-0.000000,-2.409226,-0.000010,1.612380,0.785398
1.981487,-0.000001,-0.804760,-0.000000,-2.409226,-0.000010,1.612380,0.785398
1.983480,-0.000001,-0.804760,-0.000000,-2.409226,-0.000010,1.612380,0.785398
1.985493,-0.000001,-0.804760,-0.000000,-2.409226,-0.000010,1.612380,0.785398
1.987484,-0.000001,-0.804760,-0.000000,-2.409226,-0.000010,1.612380,0.785398
1.989543,-0.000001,-0.804760,-0.000000,-2.409226,-0.000010,1.612380,0.785398
1.991553,-0.000001,-0.804760,-0.000000,-2.409226,-0.000010,1.612380,0.785398
1.993519,-0.000001,-0.804760,-0.000000,-2.409226,-0.000010,1.612380,0.785398
1.995480,-0.000001,-0.804760,-0.000000,-2.409226,-0.000010,1.612380,0.785398
1.997481,-0.000001,-0.804760,-0.000000,-2.409226,-0.000010,1.612380,0.785398
1.999473,-0.000001,-0.804760,-0.000000,-2.409226,-0.000010,1.612380,0.785398
2.001461,-0.000001,-0.804760,-0.000000,-2.409226,-0.000010,1.612380,0.785398
2.003459,-0.000001,-0.804760,-0.000000,-2.409226,-0.000010,1.612380,0.785398
2.005472,-0.000001,-0.804760,-0.000000,-2.409226,-0.000010,1.612380,0.785398
2.007485,-0.000001,-0.804760,-0.000000,-2.409226,-0.000010,1.612380,0.785398
2.009457,-0.000001,-0.804760,-0.000000,-2.409226,-0.000010,1.612380,0.785398
2.011435,-0.000001,-0.804760,-0.000000,-2.409226,-0.000010,1.612380,0.785398
2.013461,-0.000001,-0.804760,-0.000000,-2.409226,-0.000010,1.612380,0.785398
2.015567,-0.000001,-0.804760,-0.000000,-2.409226,-0.000010,1.612380,0.785398
2.017438,-0.000001,-0.804760,-0.000000,-2.409226,-0.000010,1.612380,0.785398
2.019442,-0.000001,-0.804760,-0.000000,-2.409226,-0.000010,1.612380,0.785398
2.021458,-0.000001,-0.804760,-0.000000,-2.409226,-0.000010,1.612380,0.785398
2.023441,-0.000001,-0.804760,-0.000000,-2.409226,-0.000010,1.612380,0.785398
2.025610,-0.000001,-0.804760,-0.000000,-2.409226,-0.000010,1.612380,0.785398
2.027596,-0.000001,-0.804760,-0.000000,-2.409226,-0.000010,1.612380,0.785398
2.029413,-0.000001,-0.804760,-0.000000,-2.409226,-0.000010,1.612380,0.785398
2.031449,-0.000001,-0.804760,-0.000000,-2.409226,-0.000010,1.612380,0.785398
2.033449,-0.000001,-0.804760,-0.000000,-2.409226,-0.000010,1.612380,0.785398
2.035547,-0.000001,-0.804760,-0.000000,-2.409226,-0.000010,1.612380,0.785398
2.037431,-0.000001,-0.804760,-0.000000,-2.409226,-0.000010,1.612380,0.785398
2.039379,-0.000001,-0.804760,-0.000000,-2.409226,-0.000010,1.612380,0.785398
2.041495,-0.000001,-0.804760,-0.000000,-2.409226,-0.000010,1.612380,0.785398
2.043521,-0.000001,-0.804760,-0.000000,-2.409226,-0.000010,1.612380,0.785398
2.045487,-0.000001,-0.804760,-0.000000,-2.409226,-0.000010,1.612380,0.785398
2.047486,-0.000001,-0.804760,-0.000000,-2.409226,-0.000010,1.612380,0.785398
2.049460,-0.000001,-0.804760,-0.000000,-2.409226,-0.000010,1.612380,0.785398
2.051477,-0.000001,-0.804760,-0.000000,-2.409226,-0.000010,1.612380,0.785398
2.053427,-0.000001,-0.804760,-0.000000,-2.409226,-0.000010,1.612380,0.785398
2.055577,-0.000001,-0.804760,-0.000000,-2.409226,-0.000010,1.612380,0.785398
2.057464,-0.000001,-0.804760,-0.000000,-2.409226,-0.000010,1.612380,0.785398
2.059513,-0.000001,-0.804760,-0.000000,-2.409226,-0.000010,1.612380,0.785398
2.061477,-0.000001,-0.804760,-0.000000,-2.409226,-0.000010,1.612380,0.785398
2.063507,-0.000001,-0.804760,-0.000000,-2.409226,-0.000010,1.612380,0.785398
2.065473,-0.000001,-0.804760,-0.000000,-2.409226,-0.000010,1.612380,0.785398
2.067457,-0.000001,-0.804760,-0.000000,-2.409226,-0.000010,1.612380,0.785398
2.069459,-0.000001,-0.804760,-0.000000,-2.409226,-0.000010,1.612380,0.785398
2.071440,-0.000001,-0.804760,-0.000000,-2.409226,-0.000010,1.612380,0.785398
2.073452,-0.000001,-0.804760,-0.000000,-2.409226,-0.000010,1.612380,0.785398
2.075476,-0.000001,-0.804760,-0.000000,-2.409226,-0.000010,1.612380,0.785398
2.077470,-0.000001,-0.804760,-0.000000,-2.409226,-0.000010,1.612380,0.785398
2.079437,-0.000001,-0.804760,-0.000000,-2.409226,-0.000010,1.612380,0.785398
2.081495,-0.000001,-0.804760,-0.000000,-2.409226,-0.000010,1.612380,0.785398
2.083511,-0.000001,-0.804760,-0.000000,-2.409226,-0.000010,1.612380,0.785398
2.085538,-0.000001,-0.804760,-0.000000,-2.409226,-0.000010,1.612380,0.785398
2.087506,-0.000001,-0.804760,-0.000000,-2.409226,-0.000010,1.612380,0.785398
2.089489,-0.000001,-0.804760,-0.000000,-2.409226,-0.000010,1.612380,0.785398
2.091487,-0.000001,-0.804760,-0.000000,-2.409226,-0.000010,1.612380,0.785398
2.093496,-0.000001,-0.804760,-0.000000,-2.409226,-0.000010,1.612380,0.785398
2.095490,-0.000001,-0.804760,-0.000000,-2.409226,-0.000010,1.612380,0.785398
2.097472,-0.000001,-0.804760,-0.000000,-2.409226,-0.000010,1.612380,0.785398
2.099455,-0.000001,-0.804760,-0.000000,-2.409226,-0.000010,1.612380,0.785398
2.101478,-0.000001,-0.804760,-0.000000,-2.409226,-0.000010,1.612380,0.785398
2.103480,-0.000001,-0.804760,-0.000000,-2.409226,-0.000010,1.612380,0.785398
2.105478,-0.000001,-0.804760,-0.000000,-2.409226,-0.000010,1.612380,0.785398
2.107444,-0.000001,-0.804760,-0.000000,-2.409226,-0.000010,1.612380,0.785398
2.109459,-0.000001,-0.804760,-0.000000,-2.409226,-0.000010,1.612380,0.785398
2.111446,-0.000001,-0.804760,-0.000000,-2.409226,-0.000010,1.612380,0.785398
2.113436,-0.000001,-0.804760,-0.000000,-2.409226,-0.000010,1.612380,0.785398
2.115452,-0.000001,-0.804760,-0.000000,-2.409226,-0.000010,1.612380,0.785398
2.117439,-0.000001,-0.804760,-0.000000,-2.409226,-0.000010,1.612380,0.785398
2.119455,-0.000001,-0.804760,-0.000000,-2.409226,-0.000010,1.612380,0.785398
2.121458,-0.000001,-0.804760,-0.000000,-2.409226,-0.000010,1.612380,0.785398
2.123439,-0.000001,-0.804760,-0.000000,-2.409226,-0.000010,1.612380,0.785398
2.125443,-0.000001,-0.804760,-0.000000,-2.409226,-0.000010,1.612380,0.785398
2.127439,-0.000001,-0.804760,-0.000000,-2.409226,-0.000010,1.612380,0.785398
2.129443,-0.000001,-0.804760,-0.000000,-2.409226,-0.000010,1.612380,0.785398
2.131450,-0.000001,-0.804760,-0.000000,-2.409226,-0.000010,1.612380,0.785398
2.133482,-0.000001,-0.804760,-0.000000,-2.409226,-0.000010,1.612380,0.785398
2.135503,-0.000001,-0.804760,-0.000000,-2.409226,-0.000010,1.612380,0.785398
2.137485,-0.000001,-0.804760,-0.000000,-2.409226,-0.000010,1.612380,0.785398
2.139498,-0.000001,-0.804760,-0.000000,-2.409226,-0.000010,1.612380,0.785398
2.141472,-0.000001,-0.804760,-0.000000,-2.409226,-0.000010,1.612380,0.785398
2.143437,-0.000001,-0.804760,-0.000000,-2.409226,-0.000010,1.612380,0.785398
2.145461,-0.000001,-0.804760,-0.000000,-2.409226,-0.000010,1.612380,0.785398
2.147454,-0.000001,-0.804760,-0.000000,-2.409226,-0.000010,1.612380,0.785398
2.149455,-0.000001,-0.804760,-0.000000,-2.409226,-0.000010,1.612380,0.785398
2.151467,-0.000001,-0.804760,-0.000000,-2.409226,-0.000010,1.612380,0.785398
2.153433,-0.000001,-0.804760,-0.000000,-2.409226,-0.000010,1.612380,0.785398
2.155450,-0.000001,-0.804760,-0.000000,-2.409226,-0.000010,1.612380,0.785398
2.157435,-0.000001,-0.804760,-0.000000,-2.409226,-0.000010,1.612380,0.785398
2.159484,-0.000001,-0.804760,-0.000000,-2.409226,-0.000010,1.612380,0.785398
2.161415,-0.000001,-0.804760,-0.000000,-2.409226,-0.000010,1.612380,0.785398
2.163436,-0.000001,-0.804760,-0.000000,-2.409226,-0.000010,1.612380,0.785398
2.165512,-0.000001,-0.804760,-0.000000,-2.409226,-0.000010,1.612380,0.785398
2.167455,-0.000001,-0.804760,-0.000000,-2.409226,-0.000010,1.612380,0.785398
2.169464,-0.000001,-0.804760,-0.000000,-2.409226,-0.000010,1.612380,0.785398
2.171540,-0.000001,-0.804760,-0.000000,-2.409226,-0.000010,1.612380,0.785398
2.173569,-0.000001,-0.804760,-0.000000,-2.409226,-0.000010,1.612380,0.785398
2.175461,-0.000001,-0.804760,-0.000000,-2.409226,-0.000010,1.612380,0.785398
2.177465,-0.000001,-0.804760,-0.000000,-2.409226,-0.000010,1.612380,0.785398
2.179500,-0.000001,-0.804760,-0.000000,-2.409226,-0.000010,1.612380,0.785398
2.181503,-0.000001,-0.804760,-0.000000,-2.409226,-0.000010,1.612380,0.785398
2.183434,-0.000001,-0.804760,-0.000000,-2.409226,-0.000010,1.612380,0.785398
2.185418,-0.000001,-0.804760,-0.000000,-2.409226,-0.000010,1.612380,0.785398
2.187583,-0.000001,-0.804760,-0.000000,-2.409226,-0.000010,1.612380,0.785398
2.189407,-0.000001,-0.804760,-0.000000,-2.409226,-0.000010,1.612380,0.785398
2.191547,-0.000001,-0.804760,-0.000000,-2.409226,-0.000010,1.612380,0.785398
2.193472,-0.000001,-0.804760,-0.000000,-2.409226,-0.000010,1.612380,0.785398
2.195445,-0.000001,-0.804760,-0.000000,-2.409226,-0.000010,1.612380,0.785398
2.197506,-0.000001,-0.804760,-0.000000,-2.409226,-0.000010,1.612380,0.785398
2.199504,-0.000001,-0.804760,-0.000000,-2.409226,-0.000010,1.612380,0.785398
2.201481,-0.000001,-0.804760,-0.000000,-2.409226,-0.000010,1.612380,0.785398
2.203473,-0.000001,-0.804760,-0.000000,-2.409226,-0.000010,1.612380,0.785398
2.205458,-0.000001,-0.804760,-0.000000,-2.409226,-0.000010,1.612380,0.785398
2.207475,-0.000001,-0.804760,-0.000000,-2.409226,-0.000010,1.612380,0.785398
2.209503,-0.000001,-0.804760,-0.000000,-2.409226,-0.000010,1.612380,0.785398
2.211495,-0.000001,-0.804760,-0.000000,-2.409226,-0.000010,1.612380,0.785398
2.213485,-0.000001,-0.804760,-0.000000,-2.409226,-0.000010,1.612380,0.785398
2.215493,-0.000001,-0.804760,-0.000000,-2.409226,-0.000010,1.612380,0.785398
2.217449,-0.000001,-0.804760,-0.000000,-2.409226,-0.000010,1.612380,0.785398
2.219497,-0.000001,-0.804760,-0.000000,-2.409226,-0.000010,1.612380,0.785398
2.221489,-0.000001,-0.804760,-0.000000,-2.409226,-0.000010,1.612380,0.785398
2.223453,-0.000001,-0.804760,-0.000000,-2.409226,-0.000010,1.612380,0.785398
2.225450,-0.000001,-0.804760,-0.000000,-2.409226,-0.000010,1.612380,0.785398
2.227481,-0.000001,-0.804760,-0.000000,-2.409226,-0.000010,1.612380,0.785398
2.229494,-0.000001,-0.804760,-0.000000,-2.409226,-0.000010,1.612380,0.785398
2.231473,-0.000001,-0.804760,-0.000000,-2.409226,-0.000010,1.612380,0.785398
2.233442,-0.000001,-0.804760,-0.000000,-2.409226,-0.000010,1.612380,0.785398
2.235534,-0.000001,-0.804760,-0.000000,-2.409226,-0.000010,1.612380,0.785398
2.237479,-0.000001,-0.804760,-0.000000,-2.409226,-0.000010,1.612380,0.785398
2.239467,-0.000001,-0.804760,-0.000000,-2.409226,-0.000010,1.612380,0.785398
2.241449,-0.000001,-0.804760,-0.000000,-2.409226,-0.000010,1.612380,0.785398
2.243503,-0.000001,-0.804760,-0.000000,-2.409226,-0.000010,1.612380,0.785398
2.245488,-0.000001,-0.804760,-0.000000,-2.409226,-0.000010,1.612380,0.785398
2.247487,-0.000001,-0.804760,-0.000000,-2.409226,-0.000010,1.612380,0.785398
2.249483,-0.000001,-0.804760,-0.000000,-2.409226,-0.000010,1.612380,0.785398
2.251469,-0.000001,-0.804760,-0.000000,-2.409226,-0.000010,1.612380,0.785398
2.253474,-0.000001,-0.804760,-0.000000,-2.409226,-0.000010,1.612380,0.785398
2.255469,-0.000001,-0.804760,-0.000000,-2.409226,-0.000010,1.612380,0.785398
2.257507,-0.000001,-0.804760,-0.000000,-2.409226,-0.000010,1.612380,0.785398
2.259552,-0.000001,-0.804760,-0.000000,-2.409226,-0.000010,1.612380,0.785398
2.261471,-0.000001,-0.804760,-0.000000,-2.409226,-0.000010,1.612380,0.785398
2.263471,-0.000001,-0.804760,-0.000000,-2.409226,-0.000010,1.612380,0.785398
2.265439,-0.000001,-0.804760,-0.000000,-2.409226,-0.000010,1.612380,0.785398
2.267472,-0.000001,-0.804760,-0.000000,-2.409226,-0.000010,1.612380,0.785398
2.269439,-0.000001,-0.804760,-0.000000,-2.409226,-0.000010,1.612380,0.785398
2.271477,-0.000001,-0.804760,-0.000000,-2.409226,-0.000010,1.612380,0.785398
2.273557,-0.000001,-0.804760,-0.000000,-2.409226,-0.000010,1.612380,0.785398
2.275435,-0.000001,-0.804760,-0.000000,-2.409226,-0.000010,1.612380,0.785398
2.277473,-0.000001,-0.804760,-0.000000,-2.409226,-0.000010,1.612380,0.785398
2.279480,-0.000001,-0.804760,-0.000000,-2.409226,-0.000010,1.612380,0.785398
2.281473,-0.000001,-0.804760,-0.000000,-2.409226,-0.000010,1.612380,0.785398
2.283456,-0.000001,-0.804760,-0.000000,-2.409226,-0.000010,1.612380,0.785398
2.285449,-0.000001,-0.804760,-0.000000,-2.409226,-0.000010,1.612380,0.785398
2.287436,-0.000001,-0.804760,-0.000000,-2.409226,-0.000010,1.612380,0.785398
2.289448,-0.000001,-0.804760,-0.000000,-2.409226,-0.000010,1.612380,0.785398
2.291501,-0.000001,-0.804760,-0.000000,-2.409226,-0.000010,1.612380,0.785398
2.293388,-0.000001,-0.804760,-0.000000,-2.409226,-0.000010,1.612380,0.785398
2.295435,-0.000001,-0.804760,-0.000000,-2.409226,-0.000010,1.612380,0.785398
2.297439,-0.000001,-0.804760,-0.000000,-2.409226,-0.000010,1.612380,0.785398
2.299577,-0.000001,-0.804760,-0.000000,-2.409226,-0.000010,1.612380,0.785398
2.301463,-0.000001,-0.804760,-0.000000,-2.409226,-0.000010,1.612380,0.785398
2.303566,-0.000001,-0.804760,-0.000000,-2.409226,-0.000010,1.612380,0.785398
2.305474,-0.000001,-0.804760,-0.000000,-2.409226,-0.000010,1.612380,0.785398
2.307438,-0.000001,-0.804760,-0.000000,-2.409226,-0.000010,1.612380,0.785398
2.309519,-0.000001,-0.804760,-0.000000,-2.409226,-0.000010,1.612380,0.785398
2.311489,-0.000001,-0.804760,-0.000000,-2.409226,-0.000010,1.612380,0.785398
2.313587,-0.000001,-0.804760,-0.000000,-2.409226,-0.000010,1.612380,0.785398
2.315478,-0.000001,-0.804760,-0.000000,-2.409226,-0.000010,1.612380,0.785398
2.317482,-0.000001,-0.804760,-0.000000,-2.409226,-0.000010,1.612380,0.785398
2.319463,-0.000001,-0.804760,-0.000000,-2.409226,-0.000010,1.612380,0.785398
2.321452,-0.000001,-0.804760,-0.000000,-2.409226,-0.000010,1.612380,0.785398
2.323446,-0.000001,-0.804760,-0.000000,-2.409226,-0.000010,1.612380,0.785398
2.325516,-0.000001,-0.804760,-0.000000,-2.409226,-0.000010,1.612380,0.785398
2.327536,-0.000001,-0.804760,-0.000000,-2.409226,-0.000010,1.612380,0.785398
2.329463,-0.000001,-0.804760,-0.000000,-2.409226,-0.000010,1.612380,0.785398
2.331476,-0.000001,-0.804760,-0.000000,-2.409226,-0.000010,1.612380,0.785398
2.333494,-0.000001,-0.804760,-0.000000,-2.409226,-0.000010,1.612380,0.785398
2.335448,-0.000001,-0.804760,-0.000000,-2.409226,-0.000010,1.612380,0.785398
2.337448,-0.000001,-0.804760,-0.000000,-2.409226,-0.000010,1.612380,0.785398
2.339450,-0.000001,-0.804760,-0.000000,-2.409226,-0.000010,1.612380,0.785398
2.341449,-0.000001,-0.804760,-0.000000,-2.409226,-0.000010,1.612380,0.785398
2.343456,-0.000001,-0.804760,-0.000000,-2.409226,-0.000010,1.612380,0.785398
2.345507,-0.000001,-0.804760,-0.000000,-2.409226,-0.000010,1.612380,0.785398
2.347438,-0.000001,-0.804760,-0.000000,-2.409226,-0.000010,1.612380,0.785398
2.349441,-0.000001,-0.804760,-0.000000,-2.409226,-0.000010,1.612380,0.785398
2.351499,-0.000001,-0.804760,-0.000000,-2.409226,-0.000010,1.612380,0.785398
2.353458,-0.000001,-0.804760,-0.000000,-2.409226,-0.000010,1.612380,0.785398
2.355513,-0.000001,-0.804760,-0.000000,-2.409226,-0.000010,1.612380,0.785398
2.357435,-0.000001,-0.804760,-0.000000,-2.409226,-0.000010,1.612380,0.785398
2.359465,-0.000001,-0.804760,-0.000000,-2.409226,-0.000010,1.612380,0.785398
2.361433,-0.000001,-0.804760,-0.000000,-2.409226,-0.000010,1.612380,0.785398
2.363466,-0.000001,-0.804760,-0.000000,-2.409226,-0.000010,1.612380,0.785398
2.365444,-0.000001,-0.804760,-0.000000,-2.409226,-0.000010,1.612380,0.785398
2.367440,-0.000001,-0.804760,-0.000000,-2.409226,-0.000010,1.612380,0.785398
2.369566,-0.000001,-0.804760,-0.000000,-2.409226,-0.000010,1.612380,0.785398
2.371507,-0.000001,-0.804760,-0.000000,-2.409226,-0.000010,1.612380,0.785398
2.373488,-0.000001,-0.804760,-0.000000,-2.409226,-0.000010,1.612380,0.785398
2.375465,-0.000001,-0.804760,-0.000000,-2.409226,-0.000010,1.612380,0.785398
2.377493,-0.000001,-0.804760,-0.000000,-2.409226,-0.000010,1.612380,0.785398
2.379479,-0.000001,-0.804760,-0.000000,-2.409226,-0.000010,1.612380,0.785398
2.381584,-0.000001,-0.804760,-0.000000,-2.409226,-0.000010,1.612380,0.785398
2.383476,-0.000001,-0.804760,-0.000000,-2.409226,-0.000010,1.612380,0.785398
2.385478,-0.000001,-0.804760,-0.000000,-2.409226,-0.000010,1.612380,0.785398
2.387507,-0.000001,-0.804760,-0.000000,-2.409226,-0.000010,1.612380,0.785398
2.389468,-0.000001,-0.804760,-0.000000,-2.409226,-0.000010,1.612380,0.785398
2.391550,-0.000001,-0.804760,-0.000000,-2.409226,-0.000010,1.612380,0.785398
2.393441,-0.000001,-0.804760,-0.000000,-2.409226,-0.000010,1.612380,0.785398
2.395423,-0.000001,-0.804760,-0.000000,-2.409226,-0.000010,1.612380,0.785398
2.397449,-0.000001,-0.804760,-0.000000,-2.409226,-0.000010,1.612380,0.785398
2.399426,-0.000001,-0.804760,-0.000000,-2.409226,-0.000010,1.612380,0.785398
2.401436,-0.000001,-0.804760,-0.000000,-2.409226,-0.000010,1.612380,0.785398
2.403474,-0.000001,-0.804760,-0.000000,-2.409226,-0.000010,1.612380,0.785398
2.405504,-0.000001,-0.804760,-0.000000,-2.409226,-0.000010,1.612380,0.785398
2.407483,-0.000001,-0.804760,-0.000000,-2.409226,-0.000010,1.612380,0.785398
2.409492,-0.000001,-0.804760,-0.000000,-2.409226,-0.000010,1.612379,0.785398
2.411441,-0.000001,-0.804760,-0.000000,-2.409226,-0.000010,1.612379,0.785398
2.413459,-0.000001,-0.804760,-0.000000,-2.409226,-0.000010,1.612378,0.785398
2.415452,-0.000001,-0.804760,-0.000000,-2.409226,-0.000010,1.612377,0.785398
2.417539,-0.000001,-0.804760,-0.000000,-2.409226,-0.000010,1.612375,0.785398
2.419631,-0.000001,-0.804760,-0.000000,-2.409226,-0.000010,1.612372,0.785398
2.421443,-0.000001,-0.804760,-0.000000,-2.409226,-0.000010,1.612368,0.785398
2.423472,-0.000001,-0.804760,-0.000000,-2.409226,-0.000010,1.612363,0.785398
2.425550,-0.000001,-0.804760,-0.000000,-2.409226,-0.000010,1.612357,0.785398
2.427507,-0.000001,-0.804760,-0.000000,-2.409226,-0.000010,1.612349,0.785398
2.429589,-0.000001,-0.804760,-0.000000,-2.409226,-0.000010,1.612340,0.785398
2.431602,-0.000001,-0.804760,-0.000000,-2.409226,-0.000010,1.612330,0.785398
2.433490,-0.000001,-0.804760,-0.000000,-2.409226,-0.000010,1.612318,0.785398
2.435486,-0.000001,-0.804760,-0.000000,-2.409226,-0.000010,1.612304,0.785398
2.437489,-0.000001,-0.804760,-0.000000,-2.409226,-0.000010,1.612288,0.785398
2.439481,-0.000001,-0.804760,-0.000000,-2.409226,-0.000010,1.612270,0.785398
2.441518,-0.000001,-0.804760,-0.000000,-2.409226,-0.000010,1.612250,0.785398
2.443477,-0.000001,-0.804760,-0.000000,-2.409226,-0.000010,1.612228,0.785398
2.445508,-0.000001,-0.804760,-0.000000,-2.409226,-0.000010,1.612203,0.785398
2.447447,-0.000001,-0.804760,-0.000000,-2.409226,-0.000010,1.612176,0.785398
2.449497,-0.000001,-0.804760,-0.000000,-2.409226,-0.000010,1.612147,0.785398
2.451444,-0.000001,-0.804760,-0.000000,-2.409226,-0.000010,1.612115,0.785398
2.453473,-0.000001,-0.804760,-0.000000,-2.409226,-0.000010,1.612080,0.785398
2.455470,-0.000001,-0.804760,-0.000000,-2.409226,-0.000010,1.612042,0.785398
2.457440,-0.000001,-0.804760,-0.000000,-2.409226,-0.000010,1.612002,0.785398
2.459443,-0.000001,-0.804760,-0.000000,-2.409226,-0.000010,1.611958,0.785398
2.461470,-0.000001,-0.804760,-0.000000,-2.409226,-0.000010,1.611912,0.785398
2.463439,-0.000001,-0.804760,-0.000000,-2.409226,-0.000010,1.611862,0.785398
2.465463,-0.000001,-0.804760,-0.000000,-2.409226,-0.000010,1.611809,0.785398
2.467468,-0.000001,-0.804760,-0.000000,-2.409226,-0.000010,1.611753,0.785398
2.469446,-0.000001,-0.804760,-0.000000,-2.409226,-0.000010,1.611694,0.785398
2.471485,-0.000001,-0.804760,-0.000000,-2.409226,-0.000010,1.611631,0.785398
2.473471,-0.000001,-0.804760,-0.000000,-2.409226,-0.000010,1.611565,0.785398
2.475447,-0.000001,-0.804760,-0.000000,-2.409226,-0.000010,1.611495,0.785398
2.477477,-0.000001,-0.804760,-0.000000,-2.409226,-0.000010,1.611422,0.785398
2.479476,-0.000001,-0.804760,-0.000000,-2.409226,-0.000010,1.611345,0.785398
2.481469,-0.000001,-0.804760,-0.000000,-2.409226,-0.000010,1.611264,0.785398
2.483472,-0.000001,-0.804760,-0.000000,-2.409226,-0.000010,1.611180,0.785398
2.485469,-0.000001,-0.804760,-0.000000,-2.409226,-0.000010,1.611092,0.785398
2.487503,-0.000001,-0.804760,-0.000000,-2.409226,-0.000010,1.611000,0.785398
2.489449,-0.000001,-0.804760,-0.000000,-2.409226,-0.000010,1.610904,0.785398
2.491531,-0.000001,-0.804760,-0.000000,-2.409226,-0.000010,1.610804,0.785398
2.493454,-0.000001,-0.804761,-0.000000,-2.409226,-0.000010,1.610701,0.785398
2.495435,-0.000001,-0.804761,-0.000000,-2.409226,-0.000010,1.610593,0.785398
2.497472,-0.000001,-0.804761,-0.000000,-2.409226,-0.000010,1.610481,0.785398
2.499478,-0.000001,-0.804761,-0.000000,-2.409226,-0.000010,1.610365,0.785398
2.501477,-0.000001,-0.804761,-0.000000,-2.409226,-0.000010,1.610245,0.785398
2.503475,-0.000001,-0.804762,-0.000000,-2.409226,-0.000010,1.610121,0.785398
2.505443,-0.000001,-0.804762,-0.000000,-2.409226,-0.000010,1.609993,0.785398
2.507476,-0.000001,-0.804762,-0.000000,-2.409226,-0.000010,1.609861,0.785398
2.509483,-0.000001,-0.804763,-0.000000,-2.409226,-0.000010,1.609725,0.785398
2.511521,-0.000001,-0.804763,-0.000000,-2.409226,-0.000010,1.609584,0.785398
2.513472,-0.000001,-0.804764,-0.000000,-2.409226,-0.000010,1.609440,0.785398
2.515469,-0.000001,-0.804764,-0.000000,-2.409226,-0.000010,1.609291,0.785398
2.517480,-0.000001,-0.804765,-0.000000,-2.409226,-0.000010,1.609138,0.785398
2.519444,-0.000001,-0.804765,-0.000000,-2.409226,-0.000010,1.608981,0.785398
2.521499,-0.000001,-0.804766,-0.000000,-2.409226,-0.000010,1.608819,0.785398
2.523524,-0.000001,-0.804767,-0.000000,-2.409226,-0.000010,1.608653,0.785398
2.525486,-0.000001,-0.804768,-0.000000,-2.409226,-0.000010,1.608484,0.785398
2.527433,-0.000001,-0.804769,-0.000000,-2.409226,-0.000010,1.608310,0.785398
2.529478,-0.000001,-0.804770,-0.000000,-2.409226,-0.000010,1.608132,0.785398
2.531474,-0.000001,-0.804771,-0.000000,-2.409226,-0.000010,1.607949,0.785398
2.533432,-0.000001,-0.804772,-0.000000,-2.409226,-0.000010,1.607763,0.785398
2.535437,-0.000001,-0.804773,-0.000000,-2.409226,-0.000010,1.607573,0.785398
2.537469,-0.000001,-0.804774,-0.000000,-2.409226,-0.000010,1.607378,0.785398
2.539480,-0.000001,-0.804776,-0.000000,-2.409226,-0.000010,1.607180,0.785398
2.541479,-0.000001,-0.804777,-0.000000,-2.409226,-0.000010,1.606977,0.785398
2.543456,-0.000001,-0.804778,-0.000000,-2.409226,-0.000010,1.606771,0.785398
2.545461,-0.000001,-0.804780,-0.000000,-2.409226,-0.000010,1.606560,0.785398
2.547476,-0.000001,-0.804782,-0.000000,-2.409226,-0.000010,1.606346,0.785398
2.549474,-0.000001,-0.804783,-0.000000,-2.409226,-0.000010,1.606127,0.785398
2.551479,-0.000001,-0.804785,-0.000000,-2.409226,-0.000010,1.605905,0.785398
2.553438,-0.000001,-0.804787,-0.000000,-2.409226,-0.000010,1.605679,0.785398
2.555472,-0.000001,-0.804789,-0.000000,-2.409226,-0.000010,1.605450,0.785398
2.557495,-0.000001,-0.804791,-0.000000,-2.409226,-0.000010,1.605216,0.785398
2.559494,-0.000001,-0.804793,-0.000000,-2.409226,-0.000010,1.604979,0.785398
2.561458,-0.000001,-0.804795,-0.000000,-2.409226,-0.000010,1.604738,0.785398
2.563461,-0.000001,-0.804797,-0.000000,-2.409226,-0.000010,1.604494,0.785398
2.565503,-0.000001,-0.804799,-0.000000,-2.409226,-0.000010,1.604246,0.785398
2.567436,-0.000001,-0.804801,-0.000000,-2.409226,-0.000010,1.603994,0.785398
2.569435,-0.000001,-0.804804,-0.000000,-2.409226,-0.000010,1.603740,0.785398
2.571434,-0.000001,-0.804806,-0.000000,-2.409226,-0.000010,1.603482,0.785398
2.573435,-0.000001,-0.804809,-0.000000,-2.409226,-0.000010,1.603220,0.785398
2.575523,-0.000001,-0.804811,-0.000000,-2.409226,-0.000010,1.602955,0.785398
2.577449,-0.000001,-0.804814,-0.000000,-2.409226,-0.000010,1.602687,0.785398
2.579564,-0.000001,-0.804816,-0.000000,-2.409226,-0.000010,1.602417,0.785398
2.581555,-0.000001,-0.804819,-0.000000,-2.409226,-0.000010,1.602142,0.785398
2.583476,-0.000001,-0.804822,-0.000000,-2.409226,-0.000010,1.601865,0.785398
2.585584,-0.000001,-0.804825,-0.000000,-2.409226,-0.000010,1.601586,0.785398
2.587565,-0.000001,-0.804827,-0.000000,-2.409226,-0.000010,1.601303,0.785398
2.589492,-0.000001,-0.804829,-0.000000,-2.409226,-0.000010,1.601160,0.785398
2.591566,-0.000001,-0.804833,-0.000000,-2.409226,-0.000010,1.600729,0.785398
2.593498,-0.000001,-0.804835,-0.000000,-2.409226,-0.000010,1.600584,0.785398
2.595432,-0.000001,-0.804838,-0.000000,-2.409226,-0.000010,1.600291,0.785398
2.597529,-0.000001,-0.804841,-0.000000,-2.409226,-0.000010,1.599996,0.785398
2.599499,-0.000001,-0.804844,-0.000000,-2.409226,-0.000010,1.599699,0.785398
2.601512,-0.000001,-0.804847,-0.000000,-2.409226,-0.000010,1.599399,0.785398
