VaruniBuereddy/KernelizedMovementPrimitives-LQR/V_results/franka_joint_positions.csv
time,q1,q2,q3,q4,q5,q6,q7
0.009041,-0.000001,-0.781006,0.000000,-2.436566,-0.000010,1.571040,0.785398
0.011050,-0.000001,-0.781006,0.000000,-2.436566,-0.000010,1.571040,0.785398
0.012997,-0.000001,-0.781006,0.000000,-2.436566,-0.000010,1.571047,0.785398
0.015052,-0.000001,-0.781006,0.000000,-2.436566,-0.000010,1.571079,0.785398
0.017073,-0.000001,-0.781006,0.000000,-2.436566,-0.000010,1.571138,0.785398
0.019028,-0.000001,-0.781006,0.000000,-2.436566,-0.000010,1.571222,0.785398
0.021096,-0.000001,-0.781006,-0.000000,-2.436566,-0.000010,1.571330,0.785398
0.023032,-0.000001,-0.781006,-0.000000,-2.436566,-0.000010,1.571463,0.785398
0.025032,-0.000001,-0.781006,-0.000000,-2.436566,-0.000010,1.571619,0.785398
0.027024,-0.000001,-0.781006,-0.000000,-2.436566,-0.000010,1.571799,0.785398
0.029029,-0.000001,-0.781006,-0.000000,-2.436566,-0.000010,1.572000,0.785398
0.031072,-0.000001,-0.781006,-0.000000,-2.436566,-0.000010,1.572224,0.785398
0.033005,-0.000001,-0.781006,-0.000000,-2.436565,-0.000010,1.572468,0.785398
0.035001,-0.000001,-0.781006,-0.000000,-2.436565,-0.000010,1.572733,0.785398
0.037044,-0.000001,-0.781006,-0.000000,-2.436564,-0.000010,1.573017,0.785398
0.039035,-0.000001,-0.781006,-0.000000,-2.436563,-0.000010,1.573320,0.785398
0.041033,-0.000001,-0.781006,-0.000000,-2.436561,-0.000010,1.573640,0.785398
0.043031,-0.000001,-0.781006,-0.000000,-2.436559,-0.000010,1.573977,0.785398
0.045028,-0.000001,-0.781006,-0.000000,-2.436557,-0.000010,1.574330,0.785398
0.047028,-0.000001,-0.781006,-0.000000,-2.436554,-0.000010,1.574697,0.785398
0.049012,-0.000001,-0.781006,-0.000000,-2.436550,-0.000010,1.575079,0.785398
0.051122,-0.000001,-0.781006,-0.000000,-2.436545,-0.000010,1.575474,0.785398
0.052992,-0.000001,-0.781006,-0.000000,-2.436540,-0.000010,1.575881,0.785398
0.054990,-0.000001,-0.781006,-0.000000,-2.436534,-0.000010,1.576300,0.785398
0.056990,-0.000001,-0.781006,-0.000000,-2.436527,-0.000010,1.576730,0.785398
0.058995,-0.000001,-0.781006,-0.000000,-2.436519,-0.000010,1.577170,0.785398
0.060993,-0.000001,-0.781006,-0.000000,-2.436510,-0.000010,1.577618,0.785398
0.062991,-0.000001,-0.781006,-0.000000,-2.436500,-0.000010,1.578075,0.785398
0.064991,-0.000001,-0.781006,-0.000000,-2.436488,-0.000010,1.578540,0.785398
0.067068,-0.000001,-0.781006,-0.000000,-2.436476,-0.000010,1.579011,0.785398
0.069030,-0.000001,-0.781006,-0.000000,-2.436462,-0.000010,1.579488,0.785398
0.070956,-0.000001,-0.781006,-0.000000,-2.436448,-0.000010,1.579970,0.785398
0.072994,-0.000001,-0.781006,-0.000000,-2.436431,-0.000010,1.580457,0.785398
0.074958,-0.000001,-0.781006,-0.000000,-2.436414,-0.000010,1.580948,0.785398
0.076985,-0.000001,-0.781006,-0.000000,-2.436395,-0.000010,1.581443,0.785398
0.078992,-0.000001,-0.781006,-0.000000,-2.436374,-0.000010,1.581940,0.785398
0.081047,-0.000001,-0.781006,-0.000000,-2.436352,-0.000010,1.582439,0.785398
0.082990,-0.000001,-0.781006,-0.000000,-2.436329,-0.000010,1.582940,0.785398
0.084951,-0.000001,-0.781006,-0.000000,-2.436303,-0.000010,1.583442,0.785398
0.087017,-0.000001,-0.781006,-0.000000,-2.436277,-0.000010,1.583945,0.785398
0.089022,-0.000001,-0.781006,-0.000000,-2.436248,-0.000010,1.584448,0.785398
0.091114,-0.000001,-0.781006,-0.000000,-2.436218,-0.000010,1.584950,0.785398
0.093249,-0.000001,-0.781006,-0.000000,-2.436186,-0.000010,1.585451,0.785398
0.095076,-0.000001,-0.781006,-0.000000,-2.436169,-0.000010,1.585700,0.785398
0.096992,-0.000001,-0.781006,-0.000000,-2.436135,-0.000010,1.586199,0.785398
0.099043,-0.000001,-0.781006,-0.000000,-2.436098,-0.000010,1.586695,0.785398
0.101017,-0.000001,-0.781006,-0.000000,-2.436060,-0.000010,1.587189,0.785398
0.103034,-0.000001,-0.781006,-0.000000,-2.436019,-0.000010,1.587679,0.785398
0.105058,-0.000001,-0.781006,-0.000000,-2.435977,-0.000010,1.588166,0.785398
0.107000,-0.000001,-0.781006,-0.000000,-2.435933,-0.000010,1.588649,0.785398
0.109032,-0.000001,-0.781006,-0.000000,-2.435887,-0.000010,1.589128,0.785398
0.111087,-0.000001,-0.781006,-0.000000,-2.435839,-0.000010,1.589601,0.785398
0.113096,-0.000001,-0.781006,-0.000000,-2.435789,-0.000010,1.590070,0.785398
0.114992,-0.000001,-0.781006,-0.000000,-2.435736,-0.000010,1.590532,0.785398
0.117045,-0.000001,-0.781006,-0.000000,-2.435682,-0.000010,1.590989,0.785398
0.119030,-0.000001,-0.781006,-0.000000,-2.435625,-0.000010,1.591439,0.785398
0.121041,-0.000001,-0.781006,-0.000000,-2.435566,-0.000010,1.591881,0.785398
0.123030,-0.000001,-0.781006,-0.000000,-2.435505,-0.000010,1.592317,0.785398
0.125028,-0.000001,-0.781006,-0.000000,-2.435442,-0.000010,1.592744,0.785398
0.127023,-0.000001,-0.781006,-0.000000,-2.435377,-0.000010,1.593164,0.785398
0.128999,-0.000001,-0.781006,-0.000000,-2.435309,-0.000010,1.593575,0.785398
0.130999,-0.000001,-0.781006,-0.000000,-2.435239,-0.000010,1.593977,0.785398
0.133020,-0.000001,-0.781006,-0.000000,-2.435166,-0.000010,1.594371,0.785398
0.135001,-0.000001,-0.781006,-0.000000,-2.435092,-0.000010,1.594755,0.785398
0.137113,-0.000001,-0.781006,-0.000000,-2.435015,-0.000010,1.595130,0.785398
0.139185,-0.000001,-0.781006,-0.000000,-2.434935,-0.000010,1.595495,0.785398
0.141057,-0.000001,-0.781006,-0.000000,-2.434854,-0.000010,1.595851,0.785398
0.143346,-0.000001,-0.781006,-0.000000,-2.434770,-0.000010,1.596196,0.785398
0.145082,-0.000001,-0.781006,-0.000000,-2.434727,-0.000010,1.596365,0.785398
0.146995,-0.000001,-0.781006,-0.000000,-2.434639,-0.000010,1.596694,0.785398
0.149039,-0.000001,-0.781006,-0.000000,-2.434549,-0.000010,1.597013,0.785398
0.151202,-0.000001,-0.781006,-0.000000,-2.434456,-0.000010,1.597321,0.785398
0.153080,-0.000001,-0.781006,-0.000000,-2.434361,-0.000010,1.597618,0.785398
0.155041,-0.000001,-0.781006,-0.000000,-2.434264,-0.000010,1.597904,0.785398
0.157024,-0.000001,-0.781006,-0.000000,-2.434164,-0.000010,1.598178,0.785398
0.159029,-0.000001,-0.781006,-0.000000,-2.434062,-0.000010,1.598441,0.785398
0.161022,-0.000001,-0.781006,-0.000000,-2.433957,-0.000010,1.598693,0.785398
0.163007,-0.000001,-0.781006,-0.000000,-2.433850,-0.000010,1.598932,0.785398
0.164999,-0.000001,-0.781006,-0.000000,-2.433740,-0.000010,1.599160,0.785398
0.166994,-0.000001,-0.781006,-0.000000,-2.433628,-0.000010,1.599375,0.785398
0.168991,-0.000001,-0.781006,-0.000000,-2.433514,-0.000010,1.599579,0.785398
0.170993,-0.000001,-0.781006,-0.000000,-2.433397,-0.000010,1.599770,0.785398
0.172995,-0.000001,-0.781006,-0.000000,-2.433277,-0.000010,1.599949,0.785398
0.175042,-0.000001,-0.781006,-0.000000,-2.433156,-0.000010,1.600116,0.785398
0.177026,-0.000001,-0.781006,-0.000000,-2.433031,-0.000010,1.600271,0.785398
0.179007,-0.000001,-0.781006,-0.000000,-2.432905,-0.000010,1.600414,0.785398
0.181019,-0.000001,-0.781006,-0.000000,-2.432776,-0.000010,1.600544,0.785398
0.183148,-0.000001,-0.781006,-0.000000,-2.432644,-0.000010,1.600663,0.785398
0.185037,-0.000001,-0.781006,-0.000000,-2.432510,-0.000010,1.600769,0.785398
0.187043,-0.000001,-0.781006,-0.000000,-2.432374,-0.000010,1.600863,0.785398
0.189097,-0.000001,-0.781006,-0.000000,-2.432235,-0.000010,1.600945,0.785398
0.191072,-0.000001,-0.781006,-0.000000,-2.432094,-0.000010,1.601016,0.785398
0.193119,-0.000001,-0.781006,-0.000000,-2.431951,-0.000010,1.601074,0.785398
0.195066,-0.000001,-0.781006,-0.000000,-2.431805,-0.000010,1.601120,0.785398
0.196997,-0.000001,-0.781006,-0.000000,-2.431657,-0.000010,1.601155,0.785398
0.198981,-0.000001,-0.781006,-0.000000,-2.431507,-0.000010,1.601178,0.785398
0.201069,-0.000001,-0.781006,-0.000000,-2.431354,-0.000010,1.601190,0.785398
0.203036,-0.000001,-0.781006,-0.000000,-2.431199,-0.000010,1.601191,0.785398
0.205266,-0.000001,-0.781006,-0.000000,-2.431044,-0.000010,1.601191,0.785398
0.207299,-0.000001,-0.781006,-0.000000,-2.430887,-0.000010,1.601191,0.785398
0.208977,-0.000001,-0.781006,-0.000000,-2.430808,-0.000010,1.601191,0.785398
0.211045,-0.000001,-0.781006,-0.000000,-2.430572,-0.000010,1.601191,0.785398
0.213142,-0.000001,-0.781006,-0.000000,-2.430413,-0.000010,1.601191,0.785398
0.215131,-0.000001,-0.781006,-0.000000,-2.430253,-0.000010,1.601191,0.785398
0.217170,-0.000001,-0.781006,-0.000000,-2.430092,-0.000010,1.601191,0.785398
0.219098,-0.000001,-0.781006,-0.000000,-2.429931,-0.000010,1.601191,0.785398
0.221161,-0.000001,-0.781006,-0.000000,-2.429769,-0.000010,1.601191,0.785398
0.223098,-0.000001,-0.781006,-0.000000,-2.429607,-0.000010,1.601191,0.785398
0.224953,-0.000001,-0.781006,-0.000000,-2.429443,-0.000010,1.601191,0.785398
0.227308,-0.000001,-0.781006,-0.000000,-2.429279,-0.000010,1.601191,0.785398
0.229050,-0.000001,-0.781006,-0.000000,-2.429197,-0.000010,1.601191,0.785398
0.231226,-0.000001,-0.781006,-0.000000,-2.428949,-0.000010,1.601191,0.785398
0.233222,-0.000001,-0.781006,-0.000000,-2.428783,-0.000010,1.601191,0.785398
0.235134,-0.000001,-0.781006,-0.000000,-2.428617,-0.000010,1.601191,0.785398
0.237080,-0.000001,-0.781006,-0.000000,-2.428450,-0.000010,1.601191,0.785398
0.239041,-0.000001,-0.781006,-0.000000,-2.428282,-0.000010,1.601191,0.785398
0.241048,-0.000001,-0.781006,-0.000000,-2.428113,-0.000010,1.601191,0.785398
0.242986,-0.000001,-0.781006,-0.000000,-2.428029,-0.000010,1.601191,0.785398
0.244977,-0.000001,-0.781006,-0.000000,-2.427860,-0.000010,1.601191,0.785398
0.247033,-0.000001,-0.781006,-0.000000,-2.427690,-0.000010,1.601191,0.785398
0.249036,-0.000001,-0.781006,-0.000000,-2.427519,-0.000010,1.601191,0.785398
0.251030,-0.000001,-0.781006,-0.000000,-2.427349,-0.000010,1.601191,0.785398
0.252998,-0.000001,-0.781006,-0.000000,-2.427177,-0.000010,1.601191,0.785398
0.255024,-0.000001,-0.781006,-0.000000,-2.427005,-0.000010,1.601191,0.785398
0.257026,-0.000001,-0.781006,-0.000000,-2.426833,-0.000010,1.601191,0.785398
0.259027,-0.000001,-0.781006,-0.000000,-2.426660,-0.000010,1.601191,0.785398
0.260995,-0.000001,-0.781006,-0.000000,-2.426487,-0.000010,1.601191,0.785398
0.263077,-0.000001,-0.781006,-0.000000,-2.426313,-0.000010,1.601191,0.785398
0.265007,-0.000001,-0.781006,-0.000000,-2.426138,-0.000010,1.601191,0.785398
0.267023,-0.000001,-0.781006,-0.000000,-2.425964,-0.000010,1.601191,0.785398
0.269023,-0.000001,-0.781006,-0.000000,-2.425789,-0.000010,1.601191,0.785398
0.271020,-0.000001,-0.781006,-0.000000,-2.425613,-0.000010,1.601191,0.785398
0.273022,-0.000001,-0.781006,-0.000000,-2.425437,-0.000010,1.601191,0.785398
0.275025,-0.000001,-0.781006,-0.000000,-2.425261,-0.000010,1.601191,0.785398
0.277004,-0.000001,-0.781006,-0.000000,-2.425084,-0.000010,1.601191,0.785398
0.279028,-0.000001,-0.781006,-0.000000,-2.424908,-0.000010,1.601191,0.785398
0.281064,-0.000001,-0.781006,-0.000000,-2.424730,-0.000010,1.601191,0.785398
0.283043,-0.000001,-0.781006,-0.000000,-2.424553,-0.000010,1.601191,0.785398
0.285033,-0.000001,-0.781006,-0.000000,-2.424464,-0.000010,1.601191,0.785398
0.287033,-0.000001,-0.781006,-0.000000,-2.424197,-0.000010,1.601191,0.785398
0.289076,-0.000001,-0.781006,-0.000000,-2.424018,-0.000010,1.601191,0.785398
0.291041,-0.000001,-0.781006,-0.000000,-2.423840,-0.000010,1.601191,0.785398
0.293037,-0.000001,-0.781006,-0.000000,-2.423661,-0.000010,1.601191,0.785398
0.295044,-0.000001,-0.781006,-0.000000,-2.423481,-0.000010,1.601191,0.785398
0.297035,-0.000001,-0.781006,-0.000000,-2.423302,-0.000010,1.601191,0.785398
0.299052,-0.000001,-0.781006,-0.000000,-2.423122,-0.000010,1.601191,0.785398
0.301025,-0.000001,-0.781006,-0.000000,-2.422942,-0.000010,1.601191,0.785398
0.303016,-0.000001,-0.781006,-0.000000,-2.422762,-0.000010,1.601191,0.785398
0.305035,-0.000001,-0.781006,-0.000000,-2.422582,-0.000010,1.601191,0.785398
0.307058,-0.000001,-0.781006,-0.000000,-2.422402,-0.000010,1.601191,0.785398
0.309032,-0.000001,-0.781006,-0.000000,-2.422221,-0.000010,1.601191,0.785398
0.311024,-0.000001,-0.781006,-0.000000,-2.422041,-0.000010,1.601191,0.785398
0.313024,-0.000001,-0.781006,-0.000000,-2.421860,-0.000010,1.601191,0.785398
0.315024,-0.000001,-0.781006,-0.000000,-2.421679,-0.000010,1.601191,0.785398
0.317076,-0.000001,-0.781006,-0.000000,-2.421498,-0.000010,1.601191,0.785398
0.319060,-0.000001,-0.781006,-0.000000,-2.421317,-0.000010,1.601191,0.785398
0.321063,-0.000001,-0.781006,-0.000000,-2.421136,-0.000010,1.601191,0.785398
0.323015,-0.000001,-0.781006,-0.000000,-2.420954,-0.000010,1.601191,0.785398
0.325029,-0.000001,-0.781006,-0.000000,-2.420773,-0.000010,1.601191,0.785398
0.326991,-0.000001,-0.781006,-0.000000,-2.420592,-0.000010,1.601191,0.785398
0.328999,-0.000001,-0.781006,-0.000000,-2.420410,-0.000010,1.601191,0.785398
0.331085,-0.000001,-0.781006,-0.000000,-2.420229,-0.000010,1.601191,0.785398
0.333052,-0.000001,-0.781006,-0.000000,-2.420048,-0.000010,1.601191,0.785398
0.335028,-0.000001,-0.781006,-0.000000,-2.419866,-0.000010,1.601191,0.785398
0.337052,-0.000001,-0.781006,-0.000000,-2.419685,-0.000010,1.601191,0.785398
0.339074,-0.000001,-0.781006,-0.000000,-2.419504,-0.000010,1.601191,0.785398
0.341013,-0.000001,-0.781006,-0.000000,-2.419322,-0.000010,1.601191,0.785398
0.343025,-0.000001,-0.781006,-0.000000,-2.419141,-0.000010,1.601191,0.785398
0.345003,-0.000001,-0.781006,-0.000000,-2.418960,-0.000010,1.601191,0.785398
0.347018,-0.000001,-0.781006,-0.000000,-2.418779,-0.000010,1.601191,0.785398
0.349105,-0.000001,-0.781006,-0.000000,-2.418598,-0.000010,1.601191,0.785398
0.351027,-0.000001,-0.781006,-0.000000,-2.418417,-0.000010,1.601191,0.785398
0.353057,-0.000001,-0.781006,-0.000000,-2.418236,-0.000010,1.601191,0.785398
0.355035,-0.000001,-0.781006,-0.000000,-2.418055,-0.000010,1.601191,0.785398
0.357011,-0.000001,-0.781006,-0.000000,-2.417874,-0.000010,1.601191,0.785398
0.359005,-0.000001,-0.781006,-0.000000,-2.417694,-0.000010,1.601191,0.785398
0.361065,-0.000001,-0.781006,-0.000000,-2.417514,-0.000010,1.601191,0.785398
0.362996,-0.000001,-0.781006,-0.000000,-2.417333,-0.000010,1.601191,0.785398
0.365087,-0.000001,-0.781006,-0.000000,-2.417153,-0.000010,1.601191,0.785398
0.367094,-0.000001,-0.781006,-0.000000,-2.416974,-0.000010,1.601191,0.785398
0.369028,-0.000001,-0.781006,-0.000000,-2.416794,-0.000010,1.601191,0.785398
0.371194,-0.000001,-0.781006,-0.000000,-2.416615,-0.000010,1.601191,0.785398
0.373004,-0.000001,-0.781006,-0.000000,-2.416435,-0.000010,1.601191,0.785398
0.375004,-0.000001,-0.781006,-0.000000,-2.416256,-0.000010,1.601191,0.785398
0.377122,-0.000001,-0.781006,-0.000000,-2.416078,-0.000010,1.601191,0.785398
0.379107,-0.000001,-0.781006,-0.000000,-2.415899,-0.000010,1.601191,0.785398
0.381098,-0.000001,-0.781006,-0.000000,-2.415721,-0.000010,1.601191,0.785398
0.382992,-0.000001,-0.781006,-0.000000,-2.415543,-0.000010,1.601191,0.785398
0.384999,-0.000001,-0.781006,-0.000000,-2.415454,-0.000010,1.601191,0.785398
0.387016,-0.000001,-0.781006,-0.000000,-2.415188,-0.000010,1.601191,0.785398
0.389195,-0.000001,-0.781006,-0.000000,-2.415011,-0.000010,1.601191,0.785398
0.391039,-0.000001,-0.781006,-0.000000,-2.414834,-0.000010,1.601191,0.785398
0.393004,-0.000001,-0.781006,-0.000000,-2.414745,-0.000010,1.601191,0.785398
0.395089,-0.000001,-0.781006,-0.000000,-2.414481,-0.000010,1.601191,0.785398
0.396990,-0.000001,-0.781006,-0.000000,-2.414305,-0.000010,1.601191,0.785398
0.399247,-0.000001,-0.781006,-0.000000,-2.414130,-0.000010,1.601191,0.785398
0.401198,-0.000001,-0.781006,-0.000000,-2.413955,-0.000010,1.601191,0.785398
0.403070,-0.000001,-0.781006,-0.000000,-2.413780,-0.000010,1.601191,0.785398
0.405000,-0.000001,-0.781006,-0.000000,-2.413692,-0.000010,1.601191,0.785398
0.407060,-0.000001,-0.781006,-0.000000,-2.413518,-0.000010,1.601191,0.785398
0.409020,-0.000001,-0.781006,-0.000000,-2.413344,-0.000010,1.601191,0.785398
0.411176,-0.000001,-0.781006,-0.000000,-2.413084,-0.000010,1.601191,0.785398
0.413026,-0.000001,-0.781006,-0.000000,-2.412998,-0.000010,1.601191,0.785398
0.415029,-0.000001,-0.781006,-0.000000,-2.412825,-0.000010,1.601191,0.785398
0.417027,-0.000001,-0.781006,-0.000000,-2.412653,-0.000010,1.601191,0.785398
0.419031,-0.000001,-0.781006,-0.000000,-2.412481,-0.000010,1.601191,0.785398
0.421043,-0.000001,-0.781006,-0.000000,-2.412310,-0.000010,1.601191,0.785398
0.423031,-0.000001,-0.781006,-0.000000,-2.412139,-0.000010,1.601191,0.785398
0.425072,-0.000001,-0.781006,-0.000000,-2.411969,-0.000010,1.601191,0.785398
0.427093,-0.000001,-0.781006,-0.000000,-2.411799,-0.000010,1.601191,0.785398
0.429089,-0.000001,-0.781006,-0.000000,-2.411629,-0.000010,1.601191,0.785398
0.431043,-0.000001,-0.781006,-0.000000,-2.411460,-0.000010,1.601191,0.785398
0.433036,-0.000001,-0.781006,-0.000000,-2.411292,-0.000010,1.601191,0.785398
0.435045,-0.000001,-0.781006,-0.000000,-2.411123,-0.000010,1.601191,0.785398
0.437048,-0.000001,-0.781006,-0.000000,-2.410956,-0.000010,1.601191,0.785398
0.439041,-0.000001,-0.781006,-0.000000,-2.410789,-0.000010,1.601191,0.785398
0.441026,-0.000001,-0.781006,-0.000000,-2.410622,-0.000010,1.601191,0.785398
0.443030,-0.000001,-0.781006,-0.000000,-2.410456,-0.000010,1.601191,0.785398
0.445005,-0.000001,-0.781006,-0.000000,-2.410291,-0.000010,1.601191,0.785398
0.447062,-0.000001,-0.781006,-0.000000,-2.410126,-0.000010,1.601191,0.785398
0.448998,-0.000001,-0.781006,-0.000000,-2.409962,-0.000010,1.601191,0.785398
0.451334,-0.000001,-0.781006,-0.000000,-2.409798,-0.000010,1.601191,0.785398
0.453021,-0.000001,-0.781006,-0.000000,-2.409635,-0.000010,1.601191,0.785398
0.455062,-0.000001,-0.781006,-0.000000,-2.409472,-0.000010,1.601191,0.785398
0.457012,-0.000001,-0.781006,-0.000000,-2.409310,-0.000010,1.601191,0.785398
0.459017,-0.000001,-0.781006,-0.000000,-2.409148,-0.000010,1.601191,0.785398
0.460994,-0.000001,-0.781007,-0.000000,-2.408988,-0.000010,1.601191,0.785398
0.462996,-0.000001,-0.781007,-0.000000,-2.408827,-0.000010,1.601191,0.785398
0.465023,-0.000001,-0.781007,-0.000000,-2.408668,-0.000010,1.601191,0.785398
0.467031,-0.000001,-0.781007,-0.000000,-2.408509,-0.000010,1.601191,0.785398
0.469038,-0.000001,-0.781008,-0.000000,-2.408351,-0.000010,1.601191,0.785398
0.471133,-0.000001,-0.781008,-0.000000,-2.408193,-0.000010,1.601191,0.785398
0.472988,-0.000001,-0.781009,-0.000000,-2.408036,-0.000010,1.601191,0.785398
0.474990,-0.000001,-0.781009,-0.000000,-2.407880,-0.000010,1.601191,0.785398
0.477007,-0.000001,-0.781010,-0.000000,-2.407725,-0.000010,1.601191,0.785398
0.479003,-0.000001,-0.781010,-0.000000,-2.407570,-0.000010,1.601191,0.785398
0.481041,-0.000001,-0.781011,-0.000000,-2.407416,-0.000010,1.601191,0.785398
0.483125,-0.000001,-0.781012,-0.000000,-2.407263,-0.000010,1.601191,0.785398
0.485105,-0.000001,-0.781013,-0.000000,-2.407110,-0.000010,1.601191,0.785398
0.487005,-0.000001,-0.781014,-0.000000,-2.406958,-0.000010,1.601191,0.785398
0.489063,-0.000001,-0.781015,-0.000000,-2.406807,-0.000010,1.601191,0.785398
0.491116,-0.000001,-0.781016,-0.000000,-2.406657,-0.000010,1.601191,0.785398
0.493091,-0.000001,-0.781017,-0.000000,-2.406507,-0.000010,1.601191,0.785398
0.495106,-0.000001,-0.781019,-0.000000,-2.406358,-0.000010,1.601191,0.785398
0.497059,-0.000001,-0.781020,-0.000000,-2.406210,-0.000010,1.601191,0.785398
0.499117,-0.000001,-0.781022,-0.000000,-2.406063,-0.000010,1.601191,0.785398
0.501027,-0.000001,-0.781023,-0.000000,-2.405990,-0.000010,1.601191,0.785398
0.502971,-0.000001,-0.781025,-0.000000,-2.405844,-0.000010,1.601191,0.785398
0.505064,-0.000001,-0.781027,-0.000000,-2.405627,-0.000010,1.601191,0.785398
0.506994,-0.000001,-0.781028,-0.000000,-2.405555,-0.000010,1.601191,0.785398
0.509005,-0.000001,-0.781031,-0.000000,-2.405411,-0.000010,1.601191,0.785398
0.511054,-0.000001,-0.781034,-0.000000,-2.405197,-0.000010,1.601191,0.785398
0.513001,-0.000001,-0.781035,-0.000000,-2.405127,-0.000010,1.601191,0.785398
0.515026,-0.000001,-0.781038,-0.000000,-2.404986,-0.000010,1.601191,0.785398
0.517043,-0.000001,-0.781041,-0.000000,-2.404845,-0.000010,1.601191,0.785398
0.519002,-0.000001,-0.781043,-0.000000,-2.404706,-0.000010,1.601191,0.785398
0.521054,-0.000001,-0.781046,-0.000000,-2.404568,-0.000010,1.601191,0.785398
0.523046,-0.000001,-0.781050,-0.000000,-2.404430,-0.000010,1.601191,0.785398
0.525042,-0.000001,-0.781053,-0.000000,-2.404294,-0.000010,1.601191,0.785398
0.527030,-0.000001,-0.781056,-0.000000,-2.404158,-0.000010,1.601191,0.785398
0.529040,-0.000001,-0.781060,-0.000000,-2.404023,-0.000010,1.601191,0.785398
0.531045,-0.000001,-0.781064,-0.000000,-2.403889,-0.000010,1.601191,0.785398
0.533029,-0.000001,-0.781068,-0.000000,-2.403756,-0.000010,1.601191,0.785398
0.535028,-0.000001,-0.781072,-0.000000,-2.403624,-0.000010,1.601191,0.785398
0.537023,-0.000001,-0.781076,-0.000000,-2.403493,-0.000010,1.601191,0.785398
0.539042,-0.000001,-0.781080,-0.000000,-2.403363,-0.000010,1.601191,0.785398
0.541054,-0.000001,-0.781085,-0.000000,-2.403234,-0.000010,1.601191,0.785398
0.543036,-0.000001,-0.781090,-0.000000,-2.403105,-0.000010,1.601191,0.785398
0.545026,-0.000001,-0.781095,-0.000000,-2.402978,-0.000010,1.601191,0.785398
0.547038,-0.000001,-0.781100,-0.000000,-2.402852,-0.000010,1.601191,0.785398
0.549023,-0.000001,-0.781105,-0.000000,-2.402726,-0.000010,1.601191,0.785398
0.551106,-0.000001,-0.781111,-0.000000,-2.402602,-0.000010,1.601191,0.785398
0.553059,-0.000001,-0.781117,-0.000000,-2.402478,-0.000010,1.601191,0.785398
0.555091,-0.000001,-0.781123,-0.000000,-2.402356,-0.000010,1.601191,0.785398
0.557079,-0.000001,-0.781129,-0.000000,-2.402234,-0.000010,1.601191,0.785398
0.559088,-0.000001,-0.781135,-0.000000,-2.402113,-0.000010,1.601191,0.785398
0.561066,-0.000001,-0.781142,-0.000000,-2.401994,-0.000010,1.601191,0.785398
0.563012,-0.000001,-0.781149,-0.000000,-2.401875,-0.000010,1.601191,0.785398
0.565029,-0.000001,-0.781155,-0.000000,-2.401758,-0.000010,1.601191,0.785398
0.567025,-0.000001,-0.781163,-0.000000,-2.401641,-0.000010,1.601191,0.785398
0.569016,-0.000001,-0.781170,-0.000000,-2.401526,-0.000010,1.601191,0.785398
0.571026,-0.000001,-0.781178,-0.000000,-2.401411,-0.000010,1.601191,0.785398
0.573025,-0.000001,-0.781185,-0.000000,-2.401298,-0.000010,1.601191,0.785398
0.575069,-0.000001,-0.781194,-0.000000,-2.401185,-0.000010,1.601191,0.785398
0.577004,-0.000001,-0.781202,-0.000000,-2.401074,-0.000010,1.601191,0.785398
0.579055,-0.000001,-0.781210,-0.000000,-2.400963,-0.000010,1.601191,0.785398
0.581067,-0.000001,-0.781219,-0.000000,-2.400854,-0.000010,1.601191,0.785398
0.583066,-0.000001,-0.781228,-0.000000,-2.400745,-0.000010,1.601191,0.785398
0.584991,-0.000001,-0.781237,-0.000000,-2.400638,-0.000010,1.601191,0.785398
0.587011,-0.000001,-0.781247,-0.000000,-2.400532,-0.000010,1.601191,0.785398
0.589009,-0.000001,-0.781256,-0.000000,-2.400427,-0.000010,1.601191,0.785398
0.591011,-0.000001,-0.781266,-0.000000,-2.400323,-0.000010,1.601191,0.785398
0.593013,-0.000001,-0.781276,-0.000000,-2.400220,-0.000010,1.601191,0.785398
0.595011,-0.000001,-0.781287,-0.000000,-2.400118,-0.000010,1.601191,0.785398
0.597066,-0.000001,-0.781297,-0.000000,-2.400017,-0.000010,1.601191,0.785398
0.599031,-0.000001,-0.781308,-0.000000,-2.399917,-0.000010,1.601191,0.785398
0.601093,-0.000001,-0.781319,-0.000000,-2.399818,-0.000010,1.601191,0.785398
0.602992,-0.000001,-0.781331,-0.000000,-2.399720,-0.000010,1.601191,0.785398
0.605017,-0.000001,-0.781342,-0.000000,-2.399624,-0.000010,1.601191,0.785398
0.607015,-0.000001,-0.781354,-0.000000,-2.399528,-0.000010,1.601191,0.785398
0.609014,-0.000001,-0.781366,-0.000000,-2.399433,-0.000010,1.601191,0.785398
0.611014,-0.000001,-0.781378,-0.000000,-2.399340,-0.000010,1.601191,0.785398
0.613008,-0.000001,-0.781391,-0.000000,-2.399248,-0.000010,1.601191,0.785398
0.615011,-0.000001,-0.781404,-0.000000,-2.399157,-0.000010,1.601191,0.785398
0.616982,-0.000001,-0.781417,-0.000000,-2.399066,-0.000010,1.601191,0.785398
0.618993,-0.000001,-0.781430,-0.000000,-2.398977,-0.000010,1.601191,0.785398
0.621003,-0.000001,-0.781444,-0.000000,-2.398889,-0.000010,1.601191,0.785398
0.623065,-0.000001,-0.781458,-0.000000,-2.398803,-0.000010,1.601191,0.785398
0.625031,-0.000001,-0.781472,-0.000000,-2.398717,-0.000010,1.601191,0.785398
0.627019,-0.000001,-0.781487,-0.000000,-2.398632,-0.000010,1.601191,0.785398
0.629021,-0.000001,-0.781501,-0.000000,-2.398549,-0.000010,1.601191,0.785398
0.631005,-0.000001,-0.781516,-0.000000,-2.398466,-0.000010,1.601191,0.785398
0.633073,-0.000001,-0.781532,-0.000000,-2.398385,-0.000010,1.601191,0.785398
0.635177,-0.000001,-0.781547,-0.000000,-2.398305,-0.000010,1.601191,0.785398
0.637000,-0.000001,-0.781563,-0.000000,-2.398226,-0.000010,1.601191,0.785398
0.639028,-0.000001,-0.781579,-0.000000,-2.398148,-0.000010,1.601191,0.785398
0.641171,-0.000001,-0.781595,-0.000000,-2.398071,-0.000010,1.601191,0.785398
0.643082,-0.000001,-0.781612,-0.000000,-2.397995,-0.000010,1.601191,0.785398
0.645028,-0.000001,-0.781620,-0.000000,-2.397957,-0.000010,1.601191,0.785398
0.647068,-0.000001,-0.781637,-0.000000,-2.397883,-0.000010,1.601191,0.785398
0.649047,-0.000001,-0.781655,-0.000000,-2.397810,-0.000010,1.601191,0.785398
0.651125,-0.000001,-0.781672,-0.000000,-2.397738,-0.000010,1.601191,0.785398
0.653116,-0.000001,-0.781690,-0.000000,-2.397668,-0.000010,1.601191,0.785398
0.655092,-0.000001,-0.781708,-0.000000,-2.397598,-0.000010,1.601191,0.785398
0.657029,-0.000001,-0.781726,-0.000000,-2.397529,-0.000010,1.601191,0.785398
0.659044,-0.000001,-0.781745,-0.000000,-2.397462,-0.000010,1.601191,0.785398
0.661013,-0.000001,-0.781764,-0.000000,-2.397396,-0.000010,1.601191,0.785398
0.663038,-0.000001,-0.781783,-0.000000,-2.397330,-0.000010,1.601191,0.785398
0.665186,-0.000001,-0.781803,-0.000000,-2.397266,-0.000010,1.601191,0.785398
0.667051,-0.000001,-0.781822,-0.000000,-2.397203,-0.000010,1.601191,0.785398
0.669015,-0.000001,-0.781842,-0.000000,-2.397141,-0.000010,1.601191,0.785398
0.671036,-0.000001,-0.781863,-0.000000,-2.397081,-0.000010,1.601191,0.785398
0.673030,-0.000001,-0.781883,-0.000000,-2.397021,-0.000010,1.601191,0.785398
0.675054,-0.000001,-0.781904,-0.000000,-2.396962,-0.000010,1.601191,0.785398
0.677040,-0.000001,-0.781925,-0.000000,-2.396905,-0.000010,1.601191,0.785398
0.679008,-0.000001,-0.781947,-0.000000,-2.396848,-0.000010,1.601191,0.785398
0.681066,-0.000001,-0.781969,-0.000000,-2.396793,-0.000010,1.601191,0.785398
0.682998,-0.000001,-0.781991,-0.000000,-2.396739,-0.000010,1.601191,0.785398
0.685031,-0.000001,-0.782002,-0.000000,-2.396712,-0.000010,1.601191,0.785398
0.687030,-0.000001,-0.782035,-0.000000,-2.396634,-0.000010,1.601191,0.785398
0.689037,-0.000001,-0.782058,-0.000000,-2.396583,-0.000010,1.601191,0.785398
0.691030,-0.000001,-0.782081,-0.000000,-2.396533,-0.000010,1.601191,0.785398
0.693031,-0.000001,-0.782105,-0.000000,-2.396485,-0.000010,1.601191,0.785398
0.695025,-0.000001,-0.782128,-0.000000,-2.396437,-0.000010,1.601191,0.785398
0.697035,-0.000001,-0.782152,-0.000000,-2.396391,-0.000010,1.601191,0.785398
0.699036,-0.000001,-0.782176,-0.000000,-2.396346,-0.000010,1.601191,0.785398
0.701042,-0.000001,-0.782201,-0.000000,-2.396301,-0.000010,1.601191,0.785398
0.703012,-0.000001,-0.782226,-0.000000,-2.396258,-0.000010,1.601191,0.785398
0.705000,-0.000001,-0.782251,-0.000000,-2.396216,-0.000010,1.601191,0.785398
0.707006,-0.000001,-0.782276,-0.000000,-2.396175,-0.000010,1.601191,0.785398
0.709030,-0.000001,-0.782302,-0.000000,-2.396135,-0.000010,1.601191,0.785398
0.711019,-0.000001,-0.782328,-0.000000,-2.396096,-0.000010,1.601191,0.785398
0.713029,-0.000001,-0.782354,-0.000000,-2.396059,-0.000010,1.601191,0.785398
0.715034,-0.000001,-0.782380,-0.000000,-2.396022,-0.000010,1.601191,0.785398
0.717026,-0.000001,-0.782407,-0.000000,-2.395986,-0.000010,1.601191,0.785398
0.719042,-0.000001,-0.782434,-0.000000,-2.395952,-0.000010,1.601191,0.785398
0.721024,-0.000001,-0.782461,-0.000000,-2.395918,-0.000010,1.601191,0.785398
0.722997,-0.000001,-0.782489,-0.000000,-2.395886,-0.000010,1.601191,0.785398
0.725071,-0.000001,-0.782516,-0.000000,-2.395855,-0.000010,1.601191,0.785398
0.727025,-0.000001,-0.782544,-0.000000,-2.395824,-0.000010,1.601191,0.785398
0.728996,-0.000001,-0.782573,-0.000000,-2.395795,-0.000010,1.601191,0.785398
0.731030,-0.000001,-0.782601,-0.000000,-2.395767,-0.000010,1.601191,0.785398
0.733047,-0.000001,-0.782630,-0.000000,-2.395740,-0.000010,1.601191,0.785398
0.735047,-0.000001,-0.782659,-0.000000,-2.395714,-0.000010,1.601191,0.785398
0.737046,-0.000001,-0.782689,-0.000000,-2.395689,-0.000010,1.601191,0.785398
0.739024,-0.000001,-0.782718,-0.000000,-2.395665,-0.000010,1.601191,0.785398
0.741015,-0.000001,-0.782748,-0.000000,-2.395642,-0.000010,1.601191,0.785398
0.743022,-0.000001,-0.782779,-0.000000,-2.395620,-0.000010,1.601191,0.785398
0.745036,-0.000001,-0.782809,-0.000000,-2.395599,-0.000010,1.601191,0.785398
0.747069,-0.000001,-0.782840,-0.000000,-2.395579,-0.000010,1.601191,0.785398
0.749035,-0.000001,-0.782871,-0.000000,-2.395561,-0.000010,1.601191,0.785398
0.750988,-0.000001,-0.782902,-0.000000,-2.395543,-0.000010,1.601191,0.785398
0.753030,-0.000001,-0.782933,-0.000000,-2.395526,-0.000010,1.601191,0.785398
0.754995,-0.000001,-0.782965,-0.000000,-2.395510,-0.000010,1.601191,0.785398
0.756989,-0.000001,-0.782997,-0.000000,-2.395496,-0.000010,1.601191,0.785398
0.759026,-0.000001,-0.783029,-0.000000,-2.395482,-0.000010,1.601191,0.785398
0.761012,-0.000001,-0.783062,-0.000000,-2.395469,-0.000010,1.601191,0.785398
0.763015,-0.000001,-0.783094,-0.000000,-2.395457,-0.000010,1.601191,0.785398
0.765009,-0.000001,-0.783127,-0.000000,-2.395447,-0.000010,1.601191,0.785398
0.767026,-0.000001,-0.783161,-0.000000,-2.395437,-0.000010,1.601191,0.785398
0.769016,-0.000001,-0.783194,-0.000000,-2.395428,-0.000010,1.601191,0.785398
0.771021,-0.000001,-0.783228,-0.000000,-2.395420,-0.000010,1.601191,0.785398
0.773011,-0.000001,-0.783262,-0.000000,-2.395414,-0.000010,1.601191,0.785398
0.775011,-0.000001,-0.783296,-0.000000,-2.395408,-0.000010,1.601191,0.785398
0.777009,-0.000001,-0.783330,-0.000000,-2.395403,-0.000010,1.601191,0.785398
0.778989,-0.000001,-0.783365,-0.000000,-2.395399,-0.000010,1.601191,0.785398
0.781115,-0.000001,-0.783400,-0.000000,-2.395396,-0.000010,1.601191,0.785398
0.783065,-0.000001,-0.783435,-0.000000,-2.395394,-0.000010,1.601191,0.785398
0.785019,-0.000001,-0.783470,-0.000000,-2.395393,-0.000010,1.601191,0.785398
0.787003,-0.000001,-0.783506,-0.000000,-2.395393,-0.000010,1.601191,0.785398
0.789120,-0.000001,-0.783541,-0.000000,-2.395393,-0.000010,1.601191,0.785398
0.791013,-0.000001,-0.783577,-0.000000,-2.395393,-0.000010,1.601191,0.785398
0.793033,-0.000001,-0.783612,-0.000000,-2.395393,-0.000010,1.601191,0.785398
0.794991,-0.000001,-0.783647,-0.000000,-2.395393,-0.000010,1.601191,0.785398
0.796996,-0.000001,-0.783681,-0.000000,-2.395393,-0.000010,1.601191,0.785398
0.798993,-0.000001,-0.783716,-0.000000,-2.395393,-0.000010,1.601191,0.785398
0.801013,-0.000001,-0.783750,-0.000000,-2.395393,-0.000010,1.601191,0.785398
0.802968,-0.000001,-0.783784,-0.000000,-2.395393,-0.000010,1.601191,0.785398
0.804997,-0.000001,-0.783818,-0.000000,-2.395393,-0.000010,1.601191,0.785398
0.807088,-0.000001,-0.783851,-0.000000,-2.395393,-0.000010,1.601191,0.785398
0.809039,-0.000001,-0.783885,-0.000000,-2.395393,-0.000010,1.601191,0.785398
0.810998,-0.000001,-0.783918,-0.000000,-2.395393,-0.000010,1.601191,0.785398
0.813087,-0.000001,-0.783951,-0.000000,-2.395393,-0.000010,1.601191,0.785398
0.815192,-0.000001,-0.783984,-0.000000,-2.395393,-0.000010,1.601191,0.785398
0.817001,-0.000001,-0.784000,-0.000000,-2.395393,-0.000010,1.601191,0.785398
0.819001,-0.000001,-0.784033,-0.000000,-2.395393,-0.000010,1.601191,0.785398
0.821038,-0.000001,-0.784065,-0.000000,-2.395393,-0.000010,1.601191,0.785398
0.823046,-0.000001,-0.784097,-0.000000,-2.395393,-0.000010,1.601191,0.785398
0.825001,-0.000001,-0.784129,-0.000000,-2.395393,-0.000010,1.601191,0.785398
0.827039,-0.000001,-0.784161,-0.000000,-2.395393,-0.000010,1.601191,0.785398
0.829036,-0.000001,-0.784192,-0.000000,-2.395393,-0.000010,1.601191,0.785398
0.831042,-0.000001,-0.784224,-0.000000,-2.395393,-0.000010,1.601191,0.785398
0.833009,-0.000001,-0.784255,-0.000000,-2.395393,-0.000010,1.601191,0.785398
0.835002,-0.000001,-0.784286,-0.000000,-2.395393,-0.000010,1.601191,0.785398
0.837029,-0.000001,-0.784316,-0.000000,-2.395393,-0.000010,1.601191,0.785398
0.838990,-0.000001,-0.784347,-0.000000,-2.395393,-0.000010,1.601191,0.785398
0.841021,-0.000001,-0.784377,-0.000000,-2.395393,-0.000010,1.601191,0.785398
0.843030,-0.000001,-0.784407,-0.000000,-2.395393,-0.000010,1.601191,0.785398
0.845002,-0.000001,-0.784437,-0.000000,-2.395393,-0.000010,1.601191,0.785398
0.847025,-0.000001,-0.784466,-0.000000,-2.395393,-0.000010,1.601191,0.785398
0.849021,-0.000001,-0.784496,-0.000000,-2.395393,-0.000010,1.601191,0.785398
0.850988,-0.000001,-0.784525,-0.000000,-2.395393,-0.000010,1.601191,0.785398
0.852995,-0.000001,-0.784554,-0.000000,-2.395393,-0.000010,1.601191,0.785398
0.855029,-0.000001,-0.784583,-0.000000,-2.395393,-0.000010,1.601191,0.785398
0.857038,-0.000001,-0.784611,-0.000000,-2.395393,-0.000010,1.601191,0.785398
0.859046,-0.000001,-0.784640,-0.000000,-2.395393,-0.000010,1.601191,0.785398
0.861014,-0.000001,-0.784668,-0.000000,-2.395393,-0.000010,1.601191,0.785398
0.862990,-0.000001,-0.784696,-0.000000,-2.395393,-0.000010,1.601191,0.785398
0.865027,-0.000001,-0.784723,-0.000000,-2.395393,-0.000010,1.601191,0.785398
0.866994,-0.000001,-0.784751,-0.000000,-2.395393,-0.000010,1.601191,0.785398
0.869026,-0.000001,-0.784778,-0.000000,-2.395393,-0.000010,1.601191,0.785398
0.871029,-0.000001,-0.784805,-0.000000,-2.395393,-0.000010,1.601191,0.785398
0.873034,-0.000001,-0.784832,-0.000000,-2.395393,-0.000010,1.601191,0.785398
0.875027,-0.000001,-0.784859,-0.000000,-2.395393,-0.000010,1.601191,0.785398
0.877017,-0.000001,-0.784885,-0.000000,-2.395393,-0.000010,1.601191,0.785398
0.879017,-0.000001,-0.784911,-0.000000,-2.395393,-0.000010,1.601191,0.785398
0.880988,-0.000001,-0.784937,-0.000000,-2.395393,-0.000010,1.601191,0.785398
0.883030,-0.000001,-0.784963,-0.000000,-2.395393,-0.000010,1.601191,0.785398
0.885047,-0.000001,-0.784989,-0.000000,-2.395393,-0.000010,1.601191,0.785398
0.887000,-0.000001,-0.785014,-0.000000,-2.395393,-0.000010,1.601191,0.785398
0.889116,-0.000001,-0.785039,-0.000000,-2.395393,-0.000010,1.601191,0.785398
0.891025,-0.000001,-0.785064,-0.000000,-2.395393,-0.000010,1.601191,0.785398
0.893061,-0.000001,-0.785089,-0.000000,-2.395393,-0.000010,1.601191,0.785398
0.895007,-0.000001,-0.785113,-0.000000,-2.395393,-0.000010,1.601191,0.785398
0.896998,-0.000001,-0.785137,-0.000000,-2.395393,-0.000010,1.601191,0.785398
0.898996,-0.000001,-0.785161,-0.000000,-2.395393,-0.000010,1.601191,0.785398
0.900991,-0.000001,-0.785185,-0.000000,-2.395393,-0.000010,1.601191,0.785398
0.903017,-0.000001,-0.785209,-0.000000,-2.395393,-0.000010,1.601191,0.785398
0.904999,-0.000001,-0.785232,-0.000000,-2.395393,-0.000010,1.601191,0.785398
0.907058,-0.000001,-0.785255,-0.000000,-2.395393,-0.000010,1.601191,0.785398
0.908988,-0.000001,-0.785278,-0.000000,-2.395393,-0.000010,1.601191,0.785398
0.910987,-0.000001,-0.785301,-0.000000,-2.395393,-0.000010,1.601191,0.785398
0.912988,-0.000001,-0.785324,-0.000000,-2.395393,-0.000010,1.601191,0.785398
0.915108,-0.000001,-0.785346,-0.000000,-2.395393,-0.000010,1.601191,0.785398
0.917144,-0.000001,-0.785368,-0.000000,-2.395393,-0.000010,1.601191,0.785398
0.919049,-0.000001,-0.785390,-0.000000,-2.395393,-0.000010,1.601191,0.785398
0.921059,-0.000001,-0.785411,-0.000000,-2.395393,-0.000010,1.601191,0.785398
0.922982,-0.000001,-0.785433,-0.000000,-2.395393,-0.000010,1.601191,0.785398
0.925021,-0.000001,-0.785454,-0.000000,-2.395393,-0.000010,1.601191,0.785398
0.927175,-0.000001,-0.785475,-0.000000,-2.395393,-0.000010,1.601191,0.785398
0.929156,-0.000001,-0.785495,-0.000000,-2.395393,-0.000010,1.601191,0.785398
0.931210,-0.000001,-0.785516,-0.000000,-2.395393,-0.000010,1.601191,0.785398
0.933193,-0.000001,-0.785536,-0.000000,-2.395393,-0.000010,1.601191,0.785398
0.935308,-0.000001,-0.785556,-0.000000,-2.395393,-0.000010,1.601191,0.785398
0.937142,-0.000001,-0.785576,-0.000000,-2.395393,-0.000010,1.601191,0.785398
0.939134,-0.000001,-0.785596,-0.000000,-2.395393,-0.000010,1.601191,0.785398
0.941112,-0.000001,-0.785615,-0.000000,-2.395393,-0.000010,1.601191,0.785398
0.943075,-0.000001,-0.785634,-0.000000,-2.395393,-0.000010,1.601191,0.785398
0.945110,-0.000001,-0.785653,-0.000000,-2.395393,-0.000010,1.601191,0.785398
0.947084,-0.000001,-0.785672,-0.000000,-2.395393,-0.000010,1.601191,0.785398
0.949071,-0.000001,-0.785690,-0.000000,-2.395393,-0.000010,1.601191,0.785398
0.951052,-0.000001,-0.785699,-0.000000,-2.395393,-0.000010,1.601191,0.785398
0.953042,-0.000001,-0.785717,-0.000000,-2.395393,-0.000010,1.601191,0.785398
0.955085,-0.000001,-0.785735,-0.000000,-2.395393,-0.000010,1.601191,0.785398
0.957026,-0.000001,-0.785753,-0.000000,-2.395393,-0.000010,1.601191,0.785398
0.959055,-0.000001,-0.785771,-0.000000,-2.395393,-0.000010,1.601191,0.785398
0.961026,-0.000001,-0.785788,-0.000000,-2.395393,-0.000010,1.601191,0.785398
0.962997,-0.000001,-0.785805,-0.000000,-2.395393,-0.000010,1.601191,0.785398
0.965031,-0.000001,-0.785822,-0.000000,-2.395393,-0.000010,1.601191,0.785398
0.967024,-0.000001,-0.785838,-0.000000,-2.395393,-0.000010,1.601191,0.785398
0.969095,-0.000001,-0.785854,-0.000000,-2.395393,-0.000010,1.601191,0.785398
0.971029,-0.000001,-0.785871,-0.000000,-2.395393,-0.000010,1.601191,0.785398
0.973021,-0.000001,-0.785886,-0.000000,-2.395393,-0.000010,1.601191,0.785398
0.975024,-0.000001,-0.785902,-0.000000,-2.395393,-0.000010,1.601191,0.785398
0.977074,-0.000001,-0.785918,-0.000000,-2.395393,-0.000010,1.601191,0.785398
0.979090,-0.000001,-0.785933,-0.000000,-2.395393,-0.000010,1.601191,0.785398
0.981033,-0.000001,-0.785948,-0.000000,-2.395393,-0.000010,1.601191,0.785398
0.983061,-0.000001,-0.785962,-0.000000,-2.395393,-0.000010,1.601191,0.785398
0.985068,-0.000001,-0.785970,-0.000000,-2.395393,-0.000010,1.601191,0.785398
0.987071,-0.000001,-0.785991,-0.000000,-2.395393,-0.000010,1.601191,0.785398
0.989065,-0.000001,-0.786005,-0.000000,-2.395393,-0.000010,1.601191,0.785398
0.991063,-0.000001,-0.786019,-0.000000,-2.395393,-0.000010,1.601191,0.785398
0.993116,-0.000001,-0.786033,-0.000000,-2.395393,-0.000010,1.601191,0.785398
0.995051,-0.000001,-0.786046,-0.000000,-2.395393,-0.000010,1.601191,0.785398
0.996995,-0.000001,-0.786059,-0.000000,-2.395393,-0.000010,1.601191,0.785398
0.999041,-0.000001,-0.786072,-0.000000,-2.395393,-0.000010,1.601191,0.785398
1.001038,-0.000001,-0.786085,-0.000000,-2.395393,-0.000010,1.601191,0.785398
1.003068,-0.000001,-0.786098,-0.000000,-2.395393,-0.000010,1.601191,0.785398
1.005055,-0.000001,-0.786110,-0.000000,-2.395393,-0.000010,1.601191,0.785398
1.007040,-0.000001,-0.786122,-0.000000,-2.395393,-0.000010,1.601191,0.785398
1.009051,-0.000001,-0.786134,-0.000000,-2.395393,-0.000010,1.601191,0.785398
1.011042,-0.000001,-0.786145,-0.000000,-2.395393,-0.000010,1.601191,0.785398
1.013036,-0.000001,-0.786157,-0.000000,-2.395393,-0.000010,1.601191,0.785398
1.015044,-0.000001,-0.786168,-0.000000,-2.395393,-0.000010,1.601191,0.785398
1.017034,-0.000001,-0.786179,-0.000000,-2.395393,-0.000010,1.601191,0.785398
1.019048,-0.000001,-0.786189,-0.000000,-2.395393,-0.000010,1.601191,0.785398
1.021070,-0.000001,-0.786200,-0.000000,-2.395393,-0.000010,1.601191,0.785398
1.023077,-0.000001,-0.786210,-0.000000,-2.395393,-0.000010,1.601191,0.785398
1.025007,-0.000001,-0.786220,-0.000000,-2.395393,-0.000010,1.601191,0.785398
1.027064,-0.000001,-0.786230,-0.000000,-2.395393,-0.000010,1.601191,0.785398
1.029037,-0.000001,-0.786239,-0.000000,-2.395393,-0.000010,1.601191,0.785398
1.031041,-0.000001,-0.786249,-0.000000,-2.395393,-0.000010,1.601191,0.785398
1.033032,-0.000001,-0.786258,-0.000000,-2.395393,-0.000010,1.601191,0.785398
1.035040,-0.000001,-0.786266,-0.000000,-2.395393,-0.000010,1.601191,0.785398
1.037033,-0.000001,-0.786275,-0.000000,-2.395393,-0.000010,1.601191,0.785398
1.038991,-0.000001,-0.786284,-0.000000,-2.395393,-0.000010,1.601191,0.785398
1.041059,-0.000001,-0.786292,-0.000000,-2.395393,-0.000010,1.601191,0.785398
1.043015,-0.000001,-0.786300,-0.000000,-2.395393,-0.000010,1.601191,0.785398
1.045015,-0.000001,-0.786307,-0.000000,-2.395393,-0.000010,1.601191,0.785398
1.047007,-0.000001,-0.786315,-0.000000,-2.395393,-0.000010,1.601191,0.785398
1.049009,-0.000001,-0.786322,-0.000000,-2.395393,-0.000010,1.601191,0.785398
1.051293,-0.000001,-0.786329,-0.000000,-2.395393,-0.000010,1.601191,0.785398
1.053055,-0.000001,-0.786336,-0.000000,-2.395393,-0.000010,1.601191,0.785398
1.055045,-0.000001,-0.786343,-0.000000,-2.395393,-0.000010,1.601191,0.785398
1.057085,-0.000001,-0.786349,-0.000000,-2.395393,-0.000010,1.601191,0.785398
1.059042,-0.000001,-0.786355,-0.000000,-2.395393,-0.000010,1.601191,0.785398
1.061049,-0.000001,-0.786361,-0.000000,-2.395393,-0.000010,1.601191,0.785398
1.062997,-0.000001,-0.786367,-0.000000,-2.395393,-0.000010,1.601191,0.785398
1.065076,-0.000001,-0.786372,-0.000000,-2.395393,-0.000010,1.601191,0.785398
1.067056,-0.000001,-0.786378,-0.000000,-2.395393,-0.000010,1.601191,0.785398
1.069008,-0.000001,-0.786383,-0.000000,-2.395393,-0.000010,1.601191,0.785398
1.071036,-0.000001,-0.786387,-0.000000,-2.395393,-0.000010,1.601191,0.785398
1.073038,-0.000001,-0.786392,-0.000000,-2.395393,-0.000010,1.601191,0.785398
1.075017,-0.000001,-0.786396,-0.000000,-2.395393,-0.000010,1.601191,0.785398
1.077068,-0.000001,-0.786400,-0.000000,-2.395393,-0.000010,1.601191,0.785398
1.079037,-0.000001,-0.786404,-0.000000,-2.395393,-0.000010,1.601191,0.785398
1.081026,-0.000001,-0.786408,-0.000000,-2.395393,-0.000010,1.601191,0.785398
1.083022,-0.000001,-0.786412,-0.000000,-2.395393,-0.000010,1.601191,0.785398
1.085028,-0.000001,-0.786413,-0.000000,-2.395393,-0.000010,1.601191,0.785398
1.087027,-0.000001,-0.786418,-0.000000,-2.395393,-0.000010,1.601191,0.785398
1.088988,-0.000001,-0.786421,-0.000000,-2.395393,-0.000010,1.601191,0.785398
1.091025,-0.000001,-0.786423,-0.000000,-2.395393,-0.000010,1.601191,0.785398
1.093003,-0.000001,-0.786425,-0.000000,-2.395393,-0.000010,1.601191,0.785398
1.095073,-0.000001,-0.786428,-0.000000,-2.395393,-0.000010,1.601191,0.785398
1.097008,-0.000001,-0.786429,-0.000000,-2.395393,-0.000010,1.601191,0.785398
1.099057,-0.000001,-0.786431,-0.000000,-2.395393,-0.000010,1.601191,0.785398
1.101010,-0.000001,-0.786433,-0.000000,-2.395393,-0.000010,1.601191,0.785398
1.103030,-0.000001,-0.786434,-0.000000,-2.395393,-0.000010,1.601191,0.785398
1.105024,-0.000001,-0.786435,-0.000000,-2.395393,-0.000010,1.601191,0.785398
1.107028,-0.000001,-0.786436,-0.000000,-2.395393,-0.000010,1.601191,0.785398
1.109032,-0.000001,-0.786436,-0.000000,-2.395393,-0.000010,1.601191,0.785398
1.111028,-0.000001,-0.786437,-0.000000,-2.395393,-0.000010,1.601191,0.785398
1.113031,-0.000001,-0.786437,-0.000000,-2.395393,-0.000010,1.601191,0.785398
1.115050,-0.000001,-0.786437,-0.000000,-2.395393,-0.000010,1.601191,0.785398
1.117037,-0.000001,-0.786437,-0.000000,-2.395393,-0.000010,1.601191,0.785398
1.119048,-0.000001,-0.786437,-0.000000,-2.395393,-0.000010,1.601191,0.785398
1.121005,-0.000001,-0.786437,-0.000000,-2.395393,-0.000010,1.601191,0.785398
1.123062,-0.000001,-0.786437,-0.000000,-2.395393,-0.000010,1.601191,0.785398
1.125037,-0.000001,-0.786437,-0.000000,-2.395393,-0.000010,1.601191,0.785398
1.127006,-0.000001,-0.786437,-0.000000,-2.395393,-0.000010,1.601191,0.785398
1.129038,-0.000001,-0.786437,-0.000000,-2.395393,-0.000010,1.601191,0.785398
1.131036,-0.000001,-0.786437,-0.000000,-2.395393,-0.000010,1.601191,0.785398
1.133025,-0.000001,-0.786437,-0.000000,-2.395393,-0.000010,1.601191,0.785398
1.135027,-0.000001,-0.786437,-0.000000,-2.395393,-0.000010,1.601191,0.785398
1.137020,-0.000001,-0.786437,-0.000000,-2.395393,-0.000010,1.601191,0.785398
1.139103,-0.000001,-0.786437,-0.000000,-2.395393,-0.000010,1.601191,0.785398
1.141030,-0.000001,-0.786437,-0.000000,-2.395393,-0.000010,1.601191,0.785398
1.143022,-0.000001,-0.786437,-0.000000,-2.395393,-0.000010,1.601191,0.785398
1.145038,-0.000001,-0.786437,-0.000000,-2.395393,-0.000010,1.601191,0.785398
1.147003,-0.000001,-0.786437,-0.000000,-2.395393,-0.000010,1.601191,0.785398
1.149046,-0.000001,-0.786437,-0.000000,-2.395393,-0.000010,1.601191,0.785398
1.151084,-0.000001,-0.786437,-0.000000,-2.395393,-0.000010,1.601191,0.785398
1.153063,-0.000001,-0.786437,-0.000000,-2.395393,-0.000010,1.601191,0.785398
1.155025,-0.000001,-0.786437,-0.000000,-2.395393,-0.000010,1.601191,0.785398
1.157161,-0.000001,-0.786437,-0.000000,-2.395393,-0.000010,1.601191,0.785398
1.159115,-0.000001,-0.786437,-0.000000,-2.395393,-0.000010,1.601191,0.785398
1.161094,-0.000001,-0.786437,-0.000000,-2.395393,-0.000010,1.601191,0.785398
1.163130,-0.000001,-0.786437,-0.000000,-2.395393,-0.000010,1.601191,0.785398
1.165028,-0.000001,-0.786437,-0.000000,-2.395393,-0.000010,1.601191,0.785398
1.167035,-0.000001,-0.786437,-0.000000,-2.395393,-0.000010,1.601191,0.785398
1.169033,-0.000001,-0.786437,-0.000000,-2.395393,-0.000010,1.601191,0.785398
1.171048,-0.000001,-0.786437,-0.000000,-2.395393,-0.000010,1.601191,0.785398
1.173018,-0.000001,-0.786437,-0.000000,-2.395393,-0.000010,1.601191,0.785398
1.175085,-0.000001,-0.786437,-0.000000,-2.395393,-0.000010,1.601191,0.785398
1.177017,-0.000001,-0.786437,-0.000000,-2.395393,-0.000010,1.601191,0.785398
1.179064,-0.000001,-0.786437,-0.000000,-2.395393,-0.000010,1.601191,0.785398
1.181009,-0.000001,-0.786437,-0.000000,-2.395393,-0.000010,1.601191,0.785398
1.183041,-0.000001,-0.786437,-0.000000,-2.395393,-0.000010,1.601191,0.785398
1.185042,-0.000001,-0.786437,-0.000000,-2.395393,-0.000010,1.601191,0.785398
1.187028,-0.000001,-0.786437,-0.000000,-2.395393,-0.000010,1.601191,0.785398
1.189029,-0.000001,-0.786437,-0.000000,-2.395393,-0.000010,1.601191,0.785398
1.191029,-0.000001,-0.786437,-0.000000,-2.395393,-0.000010,1.601191,0.785398
1.193010,-0.000001,-0.786437,-0.000000,-2.395393,-0.000010,1.601191,0.785398
1.195032,-0.000001,-0.786437,-0.000000,-2.395393,-0.000010,1.601191,0.785398
1.197068,-0.000001,-0.786437,-0.000000,-2.395393,-0.000010,1.601191,0.785398
1.199039,-0.000001,-0.786437,-0.000000,-2.395393,-0.000010,1.601191,0.785398
1.201034,-0.000001,-0.786437,-0.000000,-2.395393,-0.000010,1.601191,0.785398
1.203069,-0.000001,-0.786437,-0.000000,-2.395393,-0.000010,1.601191,0.785398
1.204993,-0.000001,-0.786437,-0.000000,-2.395393,-0.000010,1.601191,0.785398
1.207060,-0.000001,-0.786437,-0.000000,-2.395393,-0.000010,1.601191,0.785398
1.209016,-0.000001,-0.786437,-0.000000,-2.395393,-0.000010,1.601191,0.785398
1.211021,-0.000001,-0.786437,-0.000000,-2.395393,-0.000010,1.601191,0.785398
1.213010,-0.000001,-0.786437,-0.000000,-2.395393,-0.000010,1.601191,0.785398
1.215011,-0.000001,-0.786437,-0.000000,-2.395393,-0.000010,1.601191,0.785398
1.217024,-0.000001,-0.786437,-0.000000,-2.395393,-0.000010,1.601191,0.785398
1.219017,-0.000001,-0.786437,-0.000000,-2.395393,-0.000010,1.601191,0.785398
1.221035,-0.000001,-0.786437,-0.000000,-2.395393,-0.000010,1.601191,0.785398
1.222977,-0.000001,-0.786437,-0.000000,-2.395393,-0.000010,1.601191,0.785398
1.224995,-0.000001,-0.786437,-0.000000,-2.395393,-0.000010,1.601191,0.785398
1.226992,-0.000001,-0.786437,-0.000000,-2.395393,-0.000010,1.601191,0.785398
1.229209,-0.000001,-0.786437,-0.000000,-2.395393,-0.000010,1.601191,0.785398
1.231006,-0.000001,-0.786437,-0.000000,-2.395393,-0.000010,1.601191,0.785398
1.233002,-0.000001,-0.786437,-0.000000,-2.395393,-0.000010,1.601191,0.785398
1.235008,-0.000001,-0.786437,-0.000000,-2.395393,-0.000010,1.601191,0.785398
1.236998,-0.000001,-0.786437,-0.000000,-2.395393,-0.000010,1.601191,0.785398
1.239085,-0.000001,-0.786437,-0.000000,-2.395393,-0.000010,1.601191,0.785398
1.241090,-0.000001,-0.786437,-0.000000,-2.395393,-0.000010,1.601191,0.785398
1.243125,-0.000001,-0.786437,-0.000000,-2.395393,-0.000010,1.601191,0.785398
1.245250,-0.000001,-0.786437,-0.000000,-2.395393,-0.000010,1.601191,0.785398
1.247040,-0.000001,-0.786437,-0.000000,-2.395393,-0.000010,1.601191,0.785398
1.249046,-0.000001,-0.786437,-0.000000,-2.395393,-0.000010,1.601191,0.785398
1.251012,-0.000001,-0.786437,-0.000000,-2.395393,-0.000010,1.601191,0.785398
1.253010,-0.000001,-0.786437,-0.000000,-2.395393,-0.000010,1.601191,0.785398
1.255034,-0.000001,-0.786437,-0.000000,-2.395393,-0.000010,1.601191,0.785398
1.257033,-0.000001,-0.786437,-0.000000,-2.395393,-0.000010,1.601191,0.785398
1.259046,-0.000001,-0.786437,-0.000000,-2.395393,-0.000010,1.601191,0.785398
1.261039,-0.000001,-0.786437,-0.000000,-2.395393,-0.000010,1.601191,0.785398
1.263064,-0.000001,-0.786437,-0.000000,-2.395393,-0.000010,1.601191,0.785398
1.265019,-0.000001,-0.786437,-0.000000,-2.395393,-0.000010,1.601191,0.785398
1.267076,-0.000001,-0.786437,-0.000000,-2.395393,-0.000010,1.601191,0.785398
1.269084,-0.000001,-0.786437,-0.000000,-2.395393,-0.000010,1.601191,0.785398
1.271097,-0.000001,-0.786437,-0.000000,-2.395393,-0.000010,1.601191,0.785398
1.273065,-0.000001,-0.786437,-0.000000,-2.395393,-0.000010,1.601191,0.785398
1.275011,-0.000001,-0.786437,-0.000000,-2.395393,-0.000010,1.601191,0.785398
1.277050,-0.000001,-0.786437,-0.000000,-2.395393,-0.000010,1.601191,0.785398
1.279106,-0.000001,-0.786437,-0.000000,-2.395393,-0.000010,1.601191,0.785398
1.281035,-0.000001,-0.786437,-0.000000,-2.395393,-0.000010,1.601191,0.785398
1.283030,-0.000001,-0.786437,-0.000000,-2.395393,-0.000010,1.601191,0.785398
1.285005,-0.000001,-0.786437,-0.000000,-2.395393,-0.000010,1.601191,0.785398
1.287061,-0.000001,-0.786437,-0.000000,-2.395393,-0.000010,1.601191,0.785398
1.289045,-0.000001,-0.786437,-0.000000,-2.395393,-0.000010,1.601191,0.785398
1.291040,-0.000001,-0.786437,-0.000000,-2.395393,-0.000010,1.601191,0.785398
1.293018,-0.000001,-0.786437,-0.000000,-2.395393,-0.000010,1.601191,0.785398
1.295006,-0.000001,-0.786437,-0.000000,-2.395393,-0.000010,1.601191,0.785398
1.296999,-0.000001,-0.786437,-0.000000,-2.395393,-0.000010,1.601191,0.785398
1.299047,-0.000001,-0.786437,-0.000000,-2.395393,-0.000010,1.601191,0.785398
1.301005,-0.000001,-0.786437,-0.000000,-2.395393,-0.000010,1.601191,0.785398
1.303031,-0.000001,-0.786437,-0.000000,-2.395393,-0.000010,1.601191,0.785398
1.305024,-0.000001,-0.786437,-0.000000,-2.395393,-0.000010,1.601191,0.785398
1.307016,-0.000001,-0.786437,-0.000000,-2.395393,-0.000010,1.601191,0.785398
1.309075,-0.000001,-0.786437,-0.000000,-2.395393,-0.000010,1.601191,0.785398
1.311045,-0.000001,-0.786437,-0.000000,-2.395393,-0.000010,1.601191,0.785398
1.313156,-0.000001,-0.786437,-0.000000,-2.395393,-0.000010,1.601191,0.785398
1.315032,-0.000001,-0.786437,-0.000000,-2.395393,-0.000010,1.601191,0.785398
1.317035,-0.000001,-0.786437,-0.000000,-2.395393,-0.000010,1.601191,0.785398
1.319039,-0.000001,-0.786437,-0.000000,-2.395393,-0.000010,1.601191,0.785398
1.321037,-0.000001,-0.786437,-0.000000,-2.395393,-0.000010,1.601191,0.785398
1.322999,-0.000001,-0.786437,-0.000000,-2.395393,-0.000010,1.601191,0.785398
1.324997,-0.000001,-0.786437,-0.000000,-2.395393,-0.000010,1.601191,0.785398
1.327020,-0.000001,-0.786437,-0.000000,-2.395393,-0.000010,1.601191,0.785398
1.328993,-0.000001,-0.786437,-0.000000,-2.395393,-0.000010,1.601191,0.785398
1.330995,-0.000001,-0.786437,-0.000000,-2.395393,-0.000010,1.601191,0.785398
1.332993,-0.000001,-0.786437,-0.000000,-2.395393,-0.000010,1.601191,0.785398
1.334993,-0.000001,-0.786437,-0.000000,-2.395393,-0.000010,1.601191,0.785398
1.336992,-0.000001,-0.786437,-0.000000,-2.395393,-0.000010,1.601191,0.785398
1.339007,-0.000001,-0.786437,-0.000000,-2.395393,-0.000010,1.601191,0.785398
1.341018,-0.000001,-0.786437,-0.000000,-2.395393,-0.000010,1.601191,0.785398
1.343447,-0.000001,-0.786437,-0.000000,-2.395393,-0.000010,1.601191,0.785398
1.345047,-0.000001,-0.786437,-0.000000,-2.395393,-0.000010,1.601191,0.785398
1.347234,-0.000001,-0.786437,-0.000000,-2.395393,-0.000010,1.601191,0.785398
1.349205,-0.000001,-0.786437,-0.000000,-2.395393,-0.000010,1.601191,0.785398
1.351178,-0.000001,-0.786437,-0.000000,-2.395393,-0.000010,1.601191,0.785398
1.353251,-0.000001,-0.786437,-0.000000,-2.395393,-0.000010,1.601191,0.785398
1.355037,-0.000001,-0.786437,-0.000000,-2.395393,-0.000010,1.601191,0.785398
1.357038,-0.000001,-0.786437,-0.000000,-2.395393,-0.000010,1.601191,0.785398
1.359063,-0.000001,-0.786437,-0.000000,-2.395393,-0.000010,1.601191,0.785398
1.361136,-0.000001,-0.786437,-0.000000,-2.395393,-0.000010,1.601191,0.785398
1.363038,-0.000001,-0.786437,-0.000000,-2.395393,-0.000010,1.601191,0.785398
1.365140,-0.000001,-0.786437,-0.000000,-2.395393,-0.000010,1.601191,0.785398
1.367071,-0.000001,-0.786437,-0.000000,-2.395393,-0.000010,1.601191,0.785398
1.369044,-0.000001,-0.786437,-0.000000,-2.395393,-0.000010,1.601191,0.785398
1.371022,-0.000001,-0.786437,-0.000000,-2.395393,-0.000010,1.601191,0.785398
1.373032,-0.000001,-0.786437,-0.000000,-2.395393,-0.000010,1.601191,0.785398
1.375038,-0.000001,-0.786437,-0.000000,-2.395393,-0.000010,1.601191,0.785398
1.377036,-0.000001,-0.786437,-0.000000,-2.395393,-0.000010,1.601191,0.785398
1.379043,-0.000001,-0.786437,-0.000000,-2.395393,-0.000010,1.601191,0.785398
1.380997,-0.000001,-0.786437,-0.000000,-2.395393,-0.000010,1.601191,0.785398
1.382998,-0.000001,-0.786437,-0.000000,-2.395393,-0.000010,1.601191,0.785398
1.385045,-0.000001,-0.786437,-0.000000,-2.395393,-0.000010,1.601191,0.785398
1.387032,-0.000001,-0.786437,-0.000000,-2.395393,-0.000010,1.601191,0.785398
1.389030,-0.000001,-0.786437,-0.000000,-2.395393,-0.000010,1.601191,0.785398
1.391062,-0.000001,-0.786437,-0.000000,-2.395393,-0.000010,1.601191,0.785398
1.393037,-0.000001,-0.786437,-0.000000,-2.395393,-0.000010,1.601191,0.785398
1.395037,-0.000001,-0.786437,-0.000000,-2.395393,-0.000010,1.601191,0.785398
1.397114,-0.000001,-0.786437,-0.000000,-2.395393,-0.000010,1.601191,0.785398
1.399064,-0.000001,-0.786437,-0.000000,-2.395393,-0.000010,1.601191,0.785398
1.401032,-0.000001,-0.786437,-0.000000,-2.395393,-0.000010,1.601191,0.785398
1.403120,-0.000001,-0.786437,-0.000000,-2.395393,-0.000010,1.601191,0.785398
1.405164,-0.000001,-0.786437,-0.000000,-2.395393,-0.000010,1.601191,0.785398
1.407017,-0.000001,-0.786437,-0.000000,-2.395393,-0.000010,1.601191,0.785398
1.409015,-0.000001,-0.786437,-0.000000,-2.395393,-0.000010,1.601191,0.785398
1.411008,-0.000001,-0.786437,-0.000000,-2.395393,-0.000010,1.601191,0.785398
1.413008,-0.000001,-0.786437,-0.000000,-2.395393,-0.000010,1.601191,0.785398
1.415007,-0.000001,-0.786437,-0.000000,-2.395393,-0.000010,1.601191,0.785398
1.417131,-0.000001,-0.786437,-0.000000,-2.395393,-0.000010,1.601191,0.785398
1.419116,-0.000001,-0.786437,-0.000000,-2.395393,-0.000010,1.601191,0.785398
1.420990,-0.000001,-0.786437,-0.000000,-2.395393,-0.000010,1.601191,0.785398
1.422988,-0.000001,-0.786437,-0.000000,-2.395393,-0.000010,1.601191,0.785398
1.424988,-0.000001,-0.786437,-0.000000,-2.395393,-0.000010,1.601191,0.785398
1.426991,-0.000001,-0.786437,-0.000000,-2.395393,-0.000010,1.601191,0.785398
1.428988,-0.000001,-0.786437,-0.000000,-2.395393,-0.000010,1.601191,0.785398
1.430991,-0.000001,-0.786437,-0.000000,-2.395393,-0.000010,1.601191,0.785398
1.433087,-0.000001,-0.786437,-0.000000,-2.395393,-0.000010,1.601191,0.785398
1.435086,-0.000001,-0.786437,-0.000000,-2.395393,-0.000010,1.601191,0.785398
1.437213,-0.000001,-0.786437,-0.000000,-2.395393,-0.000010,1.601191,0.785398
1.439075,-0.000001,-0.786437,-0.000000,-2.395393,-0.000010,1.601191,0.785398
1.441367,-0.000001,-0.786437,-0.000000,-2.395393,-0.000010,1.601191,0.785398
1.443168,-0.000001,-0.786437,-0.000000,-2.395393,-0.000010,1.601191,0.785398
1.445133,-0.000001,-0.786437,-0.000000,-2.395393,-0.000010,1.601191,0.785398
1.447085,-0.000001,-0.786437,-0.000000,-2.395393,-0.000010,1.601191,0.785398
1.449007,-0.000001,-0.786437,-0.000000,-2.395393,-0.000010,1.601191,0.785398
1.451377,-0.000001,-0.786437,-0.000000,-2.395393,-0.000010,1.601191,0.785398
1.453072,-0.000001,-0.786437,-0.000000,-2.395393,-0.000010,1.601191,0.785398
1.455049,-0.000001,-0.786437,-0.000000,-2.395393,-0.000010,1.601191,0.785398
1.457030,-0.000001,-0.786437,-0.000000,-2.395393,-0.000010,1.601191,0.785398
1.459036,-0.000001,-0.786437,-0.000000,-2.395393,-0.000010,1.601191,0.785398
1.461056,-0.000001,-0.786437,-0.000000,-2.395393,-0.000010,1.601191,0.785398
1.463086,-0.000001,-0.786437,-0.000000,-2.395393,-0.000010,1.601191,0.785398
1.465005,-0.000001,-0.786437,-0.000000,-2.395393,-0.000010,1.601191,0.785398
1.467046,-0.000001,-0.786437,-0.000000,-2.395393,-0.000010,1.601191,0.785398
1.469079,-0.000001,-0.786437,-0.000000,-2.395393,-0.000010,1.601191,0.785398
1.471041,-0.000001,-0.786437,-0.000000,-2.395393,-0.000010,1.601191,0.785398
1.473009,-0.000001,-0.786437,-0.000000,-2.395393,-0.000010,1.601191,0.785398
1.475034,-0.000001,-0.786437,-0.000000,-2.395393,-0.000010,1.601191,0.785398
1.477038,-0.000001,-0.786437,-0.000000,-2.395393,-0.000010,1.601191,0.785398
1.479023,-0.000001,-0.786437,-0.000000,-2.395393,-0.000010,1.601191,0.785398
1.481031,-0.000001,-0.786437,-0.000000,-2.395393,-0.000010,1.601191,0.785398
1.483024,-0.000001,-0.786437,-0.000000,-2.395393,-0.000010,1.601191,0.785398
1.485058,-0.000001,-0.786437,-0.000000,-2.395393,-0.000010,1.601191,0.785398
1.487029,-0.000001,-0.786437,-0.000000,-2.395393,-0.000010,1.601191,0.785398
1.489028,-0.000001,-0.786437,-0.000000,-2.395393,-0.000010,1.601191,0.785398
1.491033,-0.000001,-0.786437,-0.000000,-2.395393,-0.000010,1.601191,0.785398
1.493025,-0.000001,-0.786437,-0.000000,-2.395393,-0.000010,1.601191,0.785398
1.495084,-0.000001,-0.786437,-0.000000,-2.395393,-0.000010,1.601191,0.785398
1.497073,-0.000001,-0.786437,-0.000000,-2.395393,-0.000010,1.601191,0.785398
1.499031,-0.000001,-0.786437,-0.000000,-2.395393,-0.000010,1.601191,0.785398
1.501031,-0.000001,-0.786437,-0.000000,-2.395393,-0.000010,1.601191,0.785398
1.503054,-0.000001,-0.786437,-0.000000,-2.395393,-0.000010,1.601191,0.785398
1.505016,-0.000001,-0.786437,-0.000000,-2.395393,-0.000010,1.601191,0.785398
1.507068,-0.000001,-0.786437,-0.000000,-2.395393,-0.000010,1.601191,0.785398
1.509045,-0.000001,-0.786437,-0.000000,-2.395393,-0.000010,1.601191,0.785398
1.511068,-0.000001,-0.786437,-0.000000,-2.395393,-0.000010,1.601191,0.785398
1.513008,-0.000001,-0.786437,-0.000000,-2.395393,-0.000010,1.601191,0.785398
1.515009,-0.000001,-0.786437,-0.000000,-2.395393,-0.000010,1.601191,0.785398
1.517006,-0.000001,-0.786437,-0.000000,-2.395393,-0.000010,1.601191,0.785398
1.519007,-0.000001,-0.786437,-0.000000,-2.395393,-0.000010,1.601191,0.785398
1.521017,-0.000001,-0.786437,-0.000000,-2.395393,-0.000010,1.601191,0.785398
1.522991,-0.000001,-0.786437,-0.000000,-2.395393,-0.000010,1.601191,0.785398
1.525024,-0.000001,-0.786437,-0.000000,-2.395393,-0.000010,1.601191,0.785398
1.526990,-0.000001,-0.786437,-0.000000,-2.395393,-0.000010,1.601191,0.785398
1.529043,-0.000001,-0.786437,-0.000000,-2.395393,-0.000010,1.601191,0.785398
1.530993,-0.000001,-0.786437,-0.000000,-2.395393,-0.000010,1.601191,0.785398
1.533044,-0.000001,-0.786437,-0.000000,-2.395393,-0.000010,1.601191,0.785398
1.535044,-0.000001,-0.786437,-0.000000,-2.395393,-0.000010,1.601191,0.785398
1.537133,-0.000001,-0.786437,-0.000000,-2.395393,-0.000010,1.601191,0.785398
1.539165,-0.000001,-0.786437,-0.000000,-2.395393,-0.000010,1.601191,0.785398
1.541089,-0.000001,-0.786437,-0.000000,-2.395393,-0.000010,1.601191,0.785398
1.543129,-0.000001,-0.786437,-0.000000,-2.395393,-0.000010,1.601191,0.785398
1.545077,-0.000001,-0.786437,-0.000000,-2.395393,-0.000010,1.601191,0.785398
1.547043,-0.000001,-0.786437,-0.000000,-2.395393,-0.000010,1.601191,0.785398
1.549212,-0.000001,-0.786437,-0.000000,-2.395393,-0.000010,1.601191,0.785398
1.551046,-0.000001,-0.786437,-0.000000,-2.395393,-0.000010,1.601191,0.785398
1.553093,-0.000001,-0.786437,-0.000000,-2.395393,-0.000010,1.601191,0.785398
1.555073,-0.000001,-0.786437,-0.000000,-2.395393,-0.000010,1.601191,0.785398
1.557037,-0.000001,-0.786437,-0.000000,-2.395393,-0.000010,1.601191,0.785398
1.559060,-0.000001,-0.786437,-0.000000,-2.395393,-0.000010,1.601191,0.785398
1.561110,-0.000001,-0.786437,-0.000000,-2.395393,-0.000010,1.601191,0.785398
1.562995,-0.000001,-0.786437,-0.000000,-2.395393,-0.000010,1.601191,0.785398
1.565032,-0.000001,-0.786437,-0.000000,-2.395393,-0.000010,1.601191,0.785398
1.567027,-0.000001,-0.786437,-0.000000,-2.395393,-0.000010,1.601191,0.785398
1.568993,-0.000001,-0.786437,-0.000000,-2.395393,-0.000010,1.601191,0.785398
1.571036,-0.000001,-0.786437,-0.000000,-2.395393,-0.000010,1.601191,0.785398
1.573027,-0.000001,-0.786437,-0.000000,-2.395393,-0.000010,1.601191,0.785398
1.575032,-0.000001,-0.786437,-0.000000,-2.395393,-0.000010,1.601191,0.785398
1.577040,-0.000001,-0.786437,-0.000000,-2.395393,-0.000010,1.601191,0.785398
1.579041,-0.000001,-0.786437,-0.000000,-2.395393,-0.000010,1.601191,0.785398
1.580999,-0.000001,-0.786437,-0.000000,-2.395393,-0.000010,1.601191,0.785398
1.583140,-0.000001,-0.786437,-0.000000,-2.395393,-0.000010,1.601191,0.785398
1.585037,-0.000001,-0.786437,-0.000000,-2.395393,-0.000010,1.601191,0.785398
1.587043,-0.000001,-0.786437,-0.000000,-2.395393,-0.000010,1.601191,0.785398
1.589024,-0.000001,-0.786437,-0.000000,-2.395393,-0.000010,1.601191,0.785398
1.590991,-0.000001,-0.786437,-0.000000,-2.395393,-0.000010,1.601191,0.785398
1.593056,-0.000001,-0.786437,-0.000000,-2.395393,-0.000010,1.601191,0.785398
1.595026,-0.000001,-0.786437,-0.000000,-2.395393,-0.000010,1.601191,0.785398
1.597033,-0.000001,-0.786437,-0.000000,-2.395393,-0.000010,1.601191,0.785398
1.599031,-0.000001,-0.786437,-0.000000,-2.395393,-0.000010,1.601191,0.785398
1.601045,-0.000001,-0.786437,-0.000000,-2.395393,-0.000010,1.601191,0.785398
1.603034,-0.000001,-0.786437,-0.000000,-2.395393,-0.000010,1.601191,0.785398
1.605028,-0.000001,-0.786437,-0.000000,-2.395393,-0.000010,1.601191,0.785398
1.607030,-0.000001,-0.786437,-0.000000,-2.395393,-0.000010,1.601191,0.785398
1.608994,-0.000001,-0.786437,-0.000000,-2.395393,-0.000010,1.601191,0.785398
1.611027,-0.000001,-0.786437,-0.000000,-2.395393,-0.000010,1.601191,0.785398
1.613024,-0.000001,-0.786437,-0.000000,-2.395393,-0.000010,1.601191,0.785398
1.615023,-0.000001,-0.786437,-0.000000,-2.395393,-0.000010,1.601191,0.785398
1.616989,-0.000001,-0.786437,-0.000000,-2.395393,-0.000010,1.601191,0.785398
1.619035,-0.000001,-0.786437,-0.000000,-2.395393,-0.000010,1.601191,0.785398
1.621032,-0.000001,-0.786437,-0.000000,-2.395393,-0.000010,1.601191,0.785398
1.623026,-0.000001,-0.786437,-0.000000,-2.395393,-0.000010,1.601191,0.785398
1.625020,-0.000001,-0.786437,-0.000000,-2.395393,-0.000010,1.601191,0.785398
1.627033,-0.000001,-0.786437,-0.000000,-2.395393,-0.000010,1.601191,0.785398
1.629045,-0.000001,-0.786437,-0.000000,-2.395393,-0.000010,1.601191,0.785398
1.631022,-0.000001,-0.786437,-0.000000,-2.395393,-0.000010,1.601191,0.785398
1.633065,-0.000001,-0.786437,-0.000000,-2.395393,-0.000010,1.601191,0.785398
1.635072,-0.000001,-0.786437,-0.000000,-2.395393,-0.000010,1.601191,0.785398
1.637027,-0.000001,-0.786437,-0.000000,-2.395393,-0.000010,1.601191,0.785398
1.639041,-0.000001,-0.786437,-0.000000,-2.395393,-0.000010,1.601191,0.785398
1.641046,-0.000001,-0.786437,-0.000000,-2.395393,-0.000010,1.601191,0.785398
1.643044,-0.000001,-0.786437,-0.000000,-2.395393,-0.000010,1.601191,0.785398
1.645069,-0.000001,-0.786437,-0.000000,-2.395393,-0.000010,1.601191,0.785398
1.647031,-0.000001,-0.786437,-0.000000,-2.395393,-0.000010,1.601191,0.785398
1.649026,-0.000001,-0.786437,-0.000000,-2.395393,-0.000010,1.601191,0.785398
1.650964,-0.000001,-0.786437,-0.000000,-2.395393,-0.000010,1.601191,0.785398
1.653050,-0.000001,-0.786437,-0.000000,-2.395393,-0.000010,1.601191,0.785398
1.654988,-0.000001,-0.786437,-0.000000,-2.395393,-0.000010,1.601191,0.785398
1.657043,-0.000001,-0.786437,-0.000000,-2.395393,-0.000010,1.601191,0.785398
1.659026,-0.000001,-0.786437,-0.000000,-2.395393,-0.000010,1.601191,0.785398
1.661015,-0.000001,-0.786437,-0.000000,-2.395393,-0.000010,1.601191,0.785398
1.663043,-0.000001,-0.786437,-0.000000,-2.395393,-0.000010,1.601191,0.785398
1.665036,-0.000001,-0.786437,-0.000000,-2.395393,-0.000010,1.601191,0.785398
1.667039,-0.000001,-0.786437,-0.000000,-2.395393,-0.000010,1.601191,0.785398
1.669033,-0.000001,-0.786437,-0.000000,-2.395393,-0.000010,1.601191,0.785398
1.671025,-0.000001,-0.786437,-0.000000,-2.395393,-0.000010,1.601191,0.785398
1.673005,-0.000001,-0.786437,-0.000000,-2.395393,-0.000010,1.601191,0.785398
1.675040,-0.000001,-0.786437,-0.000000,-2.395393,-0.000010,1.601191,0.785398
1.677035,-0.000001,-0.786437,-0.000000,-2.395393,-0.000010,1.601191,0.785398
1.679004,-0.000001,-0.786437,-0.000000,-2.395393,-0.000010,1.601191,0.785398
1.681045,-0.000001,-0.786437,-0.000000,-2.395393,-0.000010,1.601191,0.785398
1.683043,-0.000001,-0.786437,-0.000000,-2.395393,-0.000010,1.601191,0.785398
1.685060,-0.000001,-0.786437,-0.000000,-2.395393,-0.000010,1.601191,0.785398
1.686992,-0.000001,-0.786437,-0.000000,-2.395393,-0.000010,1.601191,0.785398
1.688997,-0.000001,-0.786437,-0.000000,-2.395393,-0.000010,1.601191,0.785398
1.690992,-0.000001,-0.786437,-0.000000,-2.395393,-0.000010,1.601191,0.785398
1.692988,-0.000001,-0.786437,-0.000000,-2.395393,-0.000010,1.601191,0.785398
1.694990,-0.000001,-0.786437,-0.000000,-2.395393,-0.000010,1.601191,0.785398
1.697032,-0.000001,-0.786437,-0.000000,-2.395393,-0.000010,1.601191,0.785398
1.698986,-0.000001,-0.786437,-0.000000,-2.395393,-0.000010,1.601191,0.785398
1.700991,-0.000001,-0.786437,-0.000000,-2.395393,-0.000010,1.601191,0.785398
1.702988,-0.000001,-0.786437,-0.000000,-2.395393,-0.000010,1.601191,0.785398
1.704990,-0.000001,-0.786437,-0.000000,-2.395393,-0.000010,1.601191,0.785398
1.706989,-0.000001,-0.786437,-0.000000,-2.395393,-0.000010,1.601191,0.785398
1.708972,-0.000001,-0.786437,-0.000000,-2.395393,-0.000010,1.601191,0.785398
1.710992,-0.000001,-0.786437,-0.000000,-2.395393,-0.000010,1.601191,0.785398
1.712948,-0.000001,-0.786437,-0.000000,-2.395393,-0.000010,1.601191,0.785398
1.715067,-0.000001,-0.786437,-0.000000,-2.395393,-0.000010,1.601191,0.785398
1.717028,-0.000001,-0.786437,-0.000000,-2.395393,-0.000010,1.601191,0.785398
1.719055,-0.000001,-0.786437,-0.000000,-2.395393,-0.000010,1.601191,0.785398
1.720994,-0.000001,-0.786437,-0.000000,-2.395393,-0.000010,1.601191,0.785398
1.723090,-0.000001,-0.786437,-0.000000,-2.395393,-0.000010,1.601191,0.785398
1.725035,-0.000001,-0.786437,-0.000000,-2.395393,-0.000010,1.601191,0.785398
1.727061,-0.000001,-0.786437,-0.000000,-2.395393,-0.000010,1.601191,0.785398
1.729054,-0.000001,-0.786437,-0.000000,-2.395393,-0.000010,1.601191,0.785398
1.731040,-0.000001,-0.786437,-0.000000,-2.395393,-0.000010,1.601191,0.785398
1.733021,-0.000001,-0.786437,-0.000000,-2.395393,-0.000010,1.601191,0.785398
1.735062,-0.000001,-0.786437,-0.000000,-2.395393,-0.000010,1.601191,0.785398
1.737035,-0.000001,-0.786437,-0.000000,-2.395393,-0.000010,1.601191,0.785398
1.739032,-0.000001,-0.786437,-0.000000,-2.395393,-0.000010,1.601191,0.785398
1.741059,-0.000001,-0.786437,-0.000000,-2.395393,-0.000010,1.601191,0.785398
1.743026,-0.000001,-0.786437,-0.000000,-2.395393,-0.000010,1.601191,0.785398
1.745032,-0.000001,-0.786437,-0.000000,-2.395393,-0.000010,1.601191,0.785398
1.747025,-0.000001,-0.786437,-0.000000,-2.395393,-0.000010,1.601191,0.785398
1.749012,-0.000001,-0.786437,-0.000000,-2.395393,-0.000010,1.601191,0.785398
1.751055,-0.000001,-0.786437,-0.000000,-2.395393,-0.000010,1.601191,0.785398
1.753046,-0.000001,-0.786437,-0.000000,-2.395393,-0.000010,1.601191,0.785398
1.755104,-0.000001,-0.786437,-0.000000,-2.395393,-0.000010,1.601191,0.785398
1.757030,-0.000001,-0.786437,-0.000000,-2.395393,-0.000010,1.601191,0.785398
1.759030,-0.000001,-0.786437,-0.000000,-2.395393,-0.000010,1.601191,0.785398
1.761032,-0.000001,-0.786437,-0.000000,-2.395393,-0.000010,1.601191,0.785398
1.763032,-0.000001,-0.786437,-0.000000,-2.395393,-0.000010,1.601191,0.785398
1.765019,-0.000001,-0.786437,-0.000000,-2.395393,-0.000010,1.601191,0.785398
1.767008,-0.000001,-0.786437,-0.000000,-2.395393,-0.000010,1.601191,0.785398
1.769079,-0.000001,-0.786437,-0.000000,-2.395393,-0.000010,1.601191,0.785398
1.770996,-0.000001,-0.786437,-0.000000,-2.395393,-0.000010,1.601191,0.785398
1.772996,-0.000001,-0.786437,-0.000000,-2.395393,-0.000010,1.601191,0.785398
1.775069,-0.000001,-0.786437,-0.000000,-2.395393,-0.000010,1.601191,0.785398
1.777103,-0.000001,-0.786437,-0.000000,-2.395393,-0.000010,1.601191,0.785398
1.779358,-0.000001,-0.786437,-0.000000,-2.395393,-0.000010,1.601191,0.785398
1.781050,-0.000001,-0.786437,-0.000000,-2.395393,-0.000010,1.601191,0.785398
1.782998,-0.000001,-0.786437,-0.000000,-2.395393,-0.000010,1.601191,0.785398
1.785000,-0.000001,-0.786437,-0.000000,-2.395393,-0.000010,1.601191,0.785398
1.787138,-0.000001,-0.786437,-0.000000,-2.395393,-0.000010,1.601191,0.785398
1.789007,-0.000001,-0.786437,-0.000000,-2.395393,-0.000010,1.601191,0.785398
1.791114,-0.000001,-0.786437,-0.000000,-2.395393,-0.000010,1.601191,0.785398
1.793051,-0.000001,-0.786437,-0.000000,-2.395393,-0.000010,1.601191,0.785398
1.795072,-0.000001,-0.786437,-0.000000,-2.395393,-0.000010,1.601191,0.785398
1.797099,-0.000001,-0.786437,-0.000000,-2.395393,-0.000010,1.601191,0.785398
1.799107,-0.000001,-0.786437,-0.000000,-2.395393,-0.000010,1.601191,0.785398
1.801058,-0.000001,-0.786437,-0.000000,-2.395393,-0.000010,1.601191,0.785398
1.803073,-0.000001,-0.786437,-0.000000,-2.395393,-0.000010,1.601191,0.785398
1.805033,-0.000001,-0.786437,-0.000000,-2.395393,-0.000010,1.601191,0.785398
1.807010,-0.000001,-0.786437,-0.000000,-2.395393,-0.000010,1.601191,0.785398
1.809035,-0.000001,-0.786437,-0.000000,-2.395393,-0.000010,1.601191,0.785398
1.811047,-0.000001,-0.786437,-0.000000,-2.395393,-0.000010,1.601191,0.785398
1.813035,-0.000001,-0.786437,-0.000000,-2.395393,-0.000010,1.601191,0.785398
1.814988,-0.000001,-0.786437,-0.000000,-2.395393,-0.000010,1.601191,0.785398
1.817025,-0.000001,-0.786437,-0.000000,-2.395393,-0.000010,1.601191,0.785398
1.819009,-0.000001,-0.786437,-0.000000,-2.395393,-0.000010,1.601191,0.785398
1.821007,-0.000001,-0.786437,-0.000000,-2.395393,-0.000010,1.601191,0.785398
1.823022,-0.000001,-0.786437,-0.000000,-2.395393,-0.000010,1.601191,0.785398
1.825051,-0.000001,-0.786437,-0.000000,-2.395393,-0.000010,1.601191,0.785398
1.827048,-0.000001,-0.786437,-0.000000,-2.395393,-0.000010,1.601191,0.785398
1.829055,-0.000001,-0.786437,-0.000000,-2.395393,-0.000010,1.601191,0.785398
1.831017,-0.000001,-0.786437,-0.000000,-2.395393,-0.000010,1.601191,0.785398
1.833036,-0.000001,-0.786437,-0.000000,-2.395393,-0.000010,1.601191,0.785398
1.835061,-0.000001,-0.786437,-0.000000,-2.395393,-0.000010,1.601191,0.785398
1.837017,-0.000001,-0.786437,-0.000000,-2.395393,-0.000010,1.601191,0.785398
1.839096,-0.000001,-0.786437,-0.000000,-2.395393,-0.000010,1.601191,0.785398
1.841038,-0.000001,-0.786437,-0.000000,-2.395393,-0.000010,1.601191,0.785398
1.843104,-0.000001,-0.786437,-0.000000,-2.395393,-0.000010,1.601191,0.785398
1.845039,-0.000001,-0.786437,-0.000000,-2.395393,-0.000010,1.601191,0.785398
1.847027,-0.000001,-0.786437,-0.000000,-2.395393,-0.000010,1.601191,0.785398
1.849063,-0.000001,-0.786437,-0.000000,-2.395393,-0.000010,1.601191,0.785398
1.851000,-0.000001,-0.786437,-0.000000,-2.395393,-0.000010,1.601191,0.785398
1.853012,-0.000001,-0.786437,-0.000000,-2.395393,-0.000010,1.601191,0.785398
1.855166,-0.000001,-0.786437,-0.000000,-2.395393,-0.000010,1.601191,0.785398
1.856996,-0.000001,-0.786437,-0.000000,-2.395393,-0.000010,1.601191,0.785398
1.858997,-0.000001,-0.786437,-0.000000,-2.395393,-0.000010,1.601191,0.785398
1.860984,-0.000001,-0.786437,-0.000000,-2.395393,-0.000010,1.601191,0.785398
1.863015,-0.000001,-0.786437,-0.000000,-2.395393,-0.000010,1.601191,0.785398
1.865015,-0.000001,-0.786437,-0.000000,-2.395393,-0.000010,1.601191,0.785398
1.867072,-0.000001,-0.786437,-0.000000,-2.395393,-0.000010,1.601191,0.785398
1.869017,-0.000001,-0.786437,-0.000000,-2.395393,-0.000010,1.601191,0.785398
1.871146,-0.000001,-0.786437,-0.000000,-2.395393,-0.000010,1.601191,0.785398
1.872984,-0.000001,-0.786437,-0.000000,-2.395393,-0.000010,1.601191,0.785398
1.875111,-0.000001,-0.786437,-0.000000,-2.395393,-0.000010,1.601191,0.785398
1.877159,-0.000001,-0.786437,-0.000000,-2.395393,-0.000010,1.601191,0.785398
1.879042,-0.000001,-0.786437,-0.000000,-2.395393,-0.000010,1.601191,0.785398
1.881002,-0.000001,-0.786437,-0.000000,-2.395393,-0.000010,1.601191,0.785398
1.883109,-0.000001,-0.786437,-0.000000,-2.395393,-0.000010,1.601191,0.785398
1.885102,-0.000001,-0.786437,-0.000000,-2.395393,-0.000010,1.601191,0.785398
1.887181,-0.000001,-0.786437,-0.000000,-2.395393,-0.000010,1.601191,0.785398
1.889221,-0.000001,-0.786437,-0.000000,-2.395393,-0.000010,1.601191,0.785398
1.891240,-0.000001,-0.786437,-0.000000,-2.395393,-0.000010,1.601191,0.785398
1.893039,-0.000001,-0.786437,-0.000000,-2.395393,-0.000010,1.601191,0.785398
1.895004,-0.000001,-0.786437,-0.000000,-2.395393,-0.000010,1.601191,0.785398
1.896982,-0.000001,-0.786437,-0.000000,-2.395393,-0.000010,1.601191,0.785398
1.899069,-0.000001,-0.786437,-0.000000,-2.395393,-0.000010,1.601191,0.785398
1.901035,-0.000001,-0.786437,-0.000000,-2.395393,-0.000010,1.601191,0.785398
1.903030,-0.000001,-0.786437,-0.000000,-2.395393,-0.000010,1.601191,0.785398
1.904999,-0.000001,-0.786437,-0.000000,-2.395393,-0.000010,1.601191,0.785398
1.907039,-0.000001,-0.786437,-0.000000,-2.395393,-0.000010,1.601191,0.785398
1.909030,-0.000001,-0.786437,-0.000000,-2.395393,-0.000010,1.601191,0.785398
1.911028,-0.000001,-0.786437,-0.000000,-2.395393,-0.000010,1.601191,0.785398
1.913017,-0.000001,-0.786437,-0.000000,-2.395393,-0.000010,1.601191,0.785398
1.915023,-0.000001,-0.786437,-0.000000,-2.395393,-0.000010,1.601191,0.785398
1.917030,-0.000001,-0.786437,-0.000000,-2.395393,-0.000010,1.601191,0.785398
1.919024,-0.000001,-0.786437,-0.000000,-2.395393,-0.000010,1.601191,0.785398
1.921038,-0.000001,-0.786437,-0.000000,-2.395393,-0.000010,1.601191,0.785398
1.923021,-0.000001,-0.786437,-0.000000,-2.395393,-0.000010,1.601191,0.785398
1.924999,-0.000001,-0.786437,-0.000000,-2.395393,-0.000010,1.601191,0.785398
1.926988,-0.000001,-0.786437,-0.000000,-2.395393,-0.000010,1.601191,0.785398
1.929031,-0.000001,-0.786437,-0.000000,-2.395393,-0.000010,1.601191,0.785398
1.931024,-0.000001,-0.786437,-0.000000,-2.395393,-0.000010,1.601191,0.785398
1.933028,-0.000001,-0.786437,-0.000000,-2.395393,-0.000010,1.601191,0.785398
1.935027,-0.000001,-0.786437,-0.000000,-2.395393,-0.000010,1.601191,0.785398
1.936990,-0.000001,-0.786437,-0.000000,-2.395393,-0.000010,1.601191,0.785398
1.938993,-0.000001,-0.786437,-0.000000,-2.395393,-0.000010,1.601191,0.785398
1.940990,-0.000001,-0.786437,-0.000000,-2.395393,-0.000010,1.601191,0.785398
1.943057,-0.000001,-0.786437,-0.000000,-2.395393,-0.000010,1.601191,0.785398
1.945035,-0.000001,-0.786437,-0.000000,-2.395393,-0.000010,1.601191,0.785398
1.946997,-0.000001,-0.786437,-0.000000,-2.395393,-0.000010,1.601191,0.785398
1.948993,-0.000001,-0.786437,-0.000000,-2.395393,-0.000010,1.601191,0.785398
1.951389,-0.000001,-0.786437,-0.000000,-2.395393,-0.000010,1.601191,0.785398
1.953077,-0.000001,-0.786437,-0.000000,-2.395393,-0.000010,1.601191,0.785398
1.955027,-0.000001,-0.786437,-0.000000,-2.395393,-0.000010,1.601191,0.785398
1.957035,-0.000001,-0.786437,-0.000000,-2.395393,-0.000010,1.601191,0.785398
1.958994,-0.000001,-0.786437,-0.000000,-2.395393,-0.000010,1.601191,0.785398
1.960992,-0.000001,-0.786437,-0.000000,-2.395393,-0.000010,1.601191,0.785398
1.963035,-0.000001,-0.786437,-0.000000,-2.395393,-0.000010,1.601191,0.785398
1.965025,-0.000001,-0.786437,-0.000000,-2.395393,-0.000010,1.601191,0.785398
1.967031,-0.000001,-0.786437,-0.000000,-2.395393,-0.000010,1.601191,0.785398
1.969020,-0.000001,-0.786437,-0.000000,-2.395393,-0.000010,1.601191,0.785398
1.971026,-0.000001,-0.786437,-0.000000,-2.395393,-0.000010,1.601191,0.785398
1.973027,-0.000001,-0.786437,-0.000000,-2.395393,-0.000010,1.601189,0.785398
1.975010,-0.000001,-0.786437,-0.000000,-2.395393,-0.000010,1.601186,0.785398
1.977035,-0.000001,-0.786437,-0.000000,-2.395393,-0.000010,1.601182,0.785398
1.979024,-0.000001,-0.786438,-0.000000,-2.395393,-0.000010,1.601177,0.785398
1.980989,-0.000001,-0.786438,-0.000000,-2.395393,-0.000010,1.601169,0.785398
1.983002,-0.000001,-0.786438,-0.000000,-2.395393,-0.000010,1.601159,0.785398
1.985034,-0.000001,-0.786439,-0.000000,-2.395393,-0.000010,1.601147,0.785398
1.987025,-0.000001,-0.786440,-0.000000,-2.395393,-0.000010,1.601131,0.785398
1.989028,-0.000001,-0.786441,-0.000000,-2.395393,-0.000010,1.601113,0.785398
1.991002,-0.000001,-0.786442,-0.000000,-2.395393,-0.000010,1.601091,0.785398
1.993000,-0.000001,-0.786443,-0.000000,-2.395393,-0.000010,1.601066,0.785398
1.995029,-0.000001,-0.786445,-0.000000,-2.395393,-0.000010,1.601036,0.785398
1.997133,-0.000001,-0.786447,-0.000000,-2.395393,-0.000010,1.601003,0.785398
1.998999,-0.000001,-0.786449,-0.000000,-2.395393,-0.000010,1.600965,0.785398
2.000991,-0.000001,-0.786451,-0.000000,-2.395393,-0.000010,1.600923,0.785398
2.002995,-0.000001,-0.786453,-0.000000,-2.395393,-0.000010,1.600877,0.785398
2.004992,-0.000001,-0.786456,-0.000000,-2.395393,-0.000010,1.600825,0.785398
2.006997,-0.000001,-0.786459,-0.000000,-2.395393,-0.000010,1.600768,0.785398
2.009059,-0.000001,-0.786462,-0.000000,-2.395393,-0.000010,1.600706,0.785398
2.011170,-0.000001,-0.786465,-0.000000,-2.395393,-0.000010,1.600638,0.785398
2.013168,-0.000001,-0.786469,-0.000000,-2.395393,-0.000010,1.600564,0.785398
2.014992,-0.000001,-0.786473,-0.000000,-2.395393,-0.000010,1.600485,0.785398
2.016995,-0.000001,-0.786478,-0.000000,-2.395393,-0.000010,1.600399,0.785398
2.019125,-0.000001,-0.786483,-0.000000,-2.395393,-0.000010,1.600307,0.785398
2.020995,-0.000001,-0.786488,-0.000000,-2.395393,-0.000010,1.600208,0.785398
2.023049,-0.000001,-0.786493,-0.000000,-2.395393,-0.000010,1.600103,0.785398
2.025104,-0.000001,-0.786499,-0.000000,-2.395393,-0.000010,1.599991,0.785398
2.027076,-0.000001,-0.786505,-0.000000,-2.395393,-0.000010,1.599872,0.785398
2.028996,-0.000001,-0.786512,-0.000000,-2.395393,-0.000010,1.599745,0.785398
2.031170,-0.000001,-0.786519,-0.000000,-2.395393,-0.000010,1.599612,0.785398
2.033170,-0.000001,-0.786526,-0.000000,-2.395393,-0.000010,1.599471,0.785398
2.035059,-0.000001,-0.786534,-0.000000,-2.395393,-0.000010,1.599323,0.785398
2.037019,-0.000001,-0.786538,-0.000000,-2.395393,-0.000010,1.599246,0.785398
2.039086,-0.000001,-0.786546,-0.000000,-2.395393,-0.000010,1.599087,0.785398
2.041046,-0.000001,-0.786555,-0.000000,-2.395393,-0.000010,1.598920,0.785398
2.043134,-0.000001,-0.786564,-0.000000,-2.395393,-0.000010,1.598745,0.785398
2.045049,-0.000001,-0.786574,-0.000000,-2.395393,-0.000010,1.598563,0.785398
2.047037,-0.000001,-0.786584,-0.000000,-2.395393,-0.000010,1.598372,0.785398
2.049001,-0.000001,-0.786595,-0.000000,-2.395393,-0.000010,1.598173,0.785398
2.051027,-0.000001,-0.786606,-0.000000,-2.395393,-0.000010,1.597967,0.785398
2.053012,-0.000001,-0.786617,-0.000000,-2.395393,-0.000010,1.597753,0.785398
2.055015,-0.000001,-0.786629,-0.000000,-2.395393,-0.000010,1.597530,0.785398
2.057034,-0.000001,-0.786641,-0.000000,-2.395393,-0.000010,1.597300,0.785398
2.059034,-0.000001,-0.786654,-0.000000,-2.395393,-0.000010,1.597061,0.785398
2.061021,-0.000001,-0.786667,-0.000000,-2.395393,-0.000010,1.596815,0.785398
2.063015,-0.000001,-0.786681,-0.000000,-2.395393,-0.000010,1.596560,0.785398
2.065062,-0.000001,-0.786695,-0.000000,-2.395393,-0.000010,1.596298,0.785398
2.067017,-0.000001,-0.786709,-0.000000,-2.395393,-0.000010,1.596027,0.785398
2.068991,-0.000001,-0.786724,-0.000000,-2.395393,-0.000010,1.595749,0.785398
2.071022,-0.000001,-0.786740,-0.000000,-2.395393,-0.000010,1.595463,0.785398
2.073029,-0.000001,-0.786755,-0.000000,-2.395393,-0.000010,1.595169,0.785398
2.075037,-0.000001,-0.786772,-0.000000,-2.395393,-0.000010,1.594869,0.785398
2.077048,-0.000001,-0.786788,-0.000000,-2.395393,-0.000010,1.594560,0.785398
2.078989,-0.000001,-0.786805,-0.000000,-2.395393,-0.000010,1.594245,0.785398
2.081022,-0.000001,-0.786823,-0.000000,-2.395393,-0.000010,1.593923,0.785398
2.083017,-0.000001,-0.786841,-0.000000,-2.395393,-0.000010,1.593594,0.785398
2.085211,-0.000001,-0.786859,-0.000000,-2.395393,-0.000010,1.593258,0.785398
2.087046,-0.000001,-0.786878,-0.000000,-2.395393,-0.000010,1.592916,0.785398
2.089032,-0.000001,-0.786897,-0.000000,-2.395393,-0.000010,1.592568,0.785398
2.091096,-0.000001,-0.786917,-0.000000,-2.395393,-0.000010,1.592213,0.785398
2.093002,-0.000001,-0.786936,-0.000000,-2.395393,-0.000010,1.591853,0.785398
2.095035,-0.000001,-0.786957,-0.000000,-2.395393,-0.000010,1.591486,0.785398
2.097028,-0.000001,-0.786977,-0.000000,-2.395393,-0.000010,1.591114,0.785398
2.099016,-0.000001,-0.786998,-0.000000,-2.395393,-0.000010,1.590737,0.785398
2.100989,-0.000001,-0.787019,-0.000000,-2.395393,-0.000010,1.590354,0.785398
2.102995,-0.000001,-0.787041,-0.000000,-2.395393,-0.000010,1.589967,0.785398
2.105093,-0.000001,-0.787063,-0.000000,-2.395393,-0.000010,1.589575,0.785398
2.107001,-0.000001,-0.787085,-0.000000,-2.395393,-0.000010,1.589180,0.785398
2.108991,-0.000001,-0.787107,-0.000000,-2.395393,-0.000010,1.588781,0.785398
2.110994,-0.000001,-0.787130,-0.000000,-2.395393,-0.000010,1.588378,0.785398
2.113153,-0.000001,-0.787152,-0.000000,-2.395393,-0.000010,1.587973,0.785398
2.115044,-0.000001,-0.787175,-0.000000,-2.395393,-0.000010,1.587565,0.785398
2.117021,-0.000001,-0.787199,-0.000000,-2.395393,-0.000010,1.587155,0.785398
2.119030,-0.000001,-0.787222,-0.000000,-2.395393,-0.000010,1.586743,0.785398
2.121031,-0.000001,-0.787245,-0.000000,-2.395393,-0.000010,1.586329,0.785398
2.123122,-0.000001,-0.787269,-0.000000,-2.395393,-0.000010,1.585913,0.785398
2.124994,-0.000001,-0.787293,-0.000000,-2.395393,-0.000010,1.585497,0.785398
2.126993,-0.000001,-0.787317,-0.000000,-2.395393,-0.000010,1.585080,0.785398
2.129064,-0.000001,-0.787341,-0.000000,-2.395393,-0.000010,1.584663,0.785398
2.130995,-0.000001,-0.787365,-0.000000,-2.395393,-0.000010,1.584246,0.785398
2.133000,-0.000001,-0.787389,-0.000000,-2.395393,-0.000010,1.583829,0.785398
2.135027,-0.000001,-0.787401,-0.000000,-2.395393,-0.000010,1.583621,0.785398
2.137198,-0.000001,-0.787437,-0.000000,-2.395393,-0.000010,1.582998,0.785398
2.139009,-0.000001,-0.787461,-0.000000,-2.395393,-0.000010,1.582585,0.785398
2.141268,-0.000001,-0.787485,-0.000000,-2.395393,-0.000010,1.582175,0.785398
2.143207,-0.000001,-0.787509,-0.000000,-2.395393,-0.000010,1.581768,0.785398
2.145144,-0.000001,-0.787532,-0.000000,-2.395393,-0.000010,1.581364,0.785398
2.147050,-0.000001,-0.787544,-0.000000,-2.395393,-0.000010,1.581163,0.785398
2.149119,-0.000001,-0.787580,-0.000000,-2.395393,-0.000010,1.580568,0.785398
2.151106,-0.000001,-0.787591,-0.000000,-2.395393,-0.000010,1.580372,0.785398
2.152986,-0.000001,-0.787614,-0.000000,-2.395393,-0.000010,1.579983,0.785398
2.155053,-0.000001,-0.787649,-0.000000,-2.395393,-0.000010,1.579411,0.785398
2.157096,-0.000001,-0.787671,-0.000000,-2.395393,-0.000010,1.579036,0.785398
2.159204,-0.000001,-0.787694,-0.000000,-2.395393,-0.000010,1.578669,0.785398
2.161191,-0.000001,-0.787716,-0.000000,-2.395393,-0.000010,1.578308,0.785398
2.163174,-0.000001,-0.787737,-0.000000,-2.395393,-0.000010,1.577954,0.785398
2.165033,-0.000001,-0.787748,-0.000000,-2.395393,-0.000010,1.577780,0.785398
2.167148,-0.000001,-0.787780,-0.000000,-2.395393,-0.000010,1.577269,0.785398
2.168994,-0.000001,-0.787790,-0.000000,-2.395393,-0.000010,1.577104,0.785398
2.170991,-0.000001,-0.787810,-0.000000,-2.395393,-0.000010,1.576779,0.785398
2.173008,-0.000001,-0.787830,-0.000000,-2.395393,-0.000010,1.576463,0.785398
2.175051,-0.000001,-0.787850,-0.000000,-2.395393,-0.000010,1.576158,0.785398
2.177030,-0.000001,-0.787868,-0.000000,-2.395393,-0.000010,1.575864,0.785398
2.178997,-0.000001,-0.787887,-0.000000,-2.395394,-0.000010,1.575582,0.785398
2.181037,-0.000001,-0.787905,-0.000000,-2.395395,-0.000010,1.575312,0.785398
2.183036,-0.000001,-0.787923,-0.000000,-2.395396,-0.000010,1.575055,0.785398
2.185034,-0.000001,-0.787931,-0.000000,-2.395397,-0.000010,1.574931,0.785398
2.187054,-0.000001,-0.787957,-0.000000,-2.395401,-0.000010,1.574582,0.785398
2.189046,-0.000001,-0.787973,-0.000000,-2.395404,-0.000010,1.574368,0.785398
2.191032,-0.000001,-0.787989,-0.000000,-2.395408,-0.000010,1.574169,0.785398
2.193025,-0.000001,-0.788005,-0.000000,-2.395413,-0.000010,1.573986,0.785398
2.195015,-0.000001,-0.788020,-0.000000,-2.395419,-0.000010,1.573819,0.785398
2.197053,-0.000001,-0.788035,-0.000000,-2.395426,-0.000010,1.573669,0.785398
2.199038,-0.000001,-0.788049,-0.000000,-2.395433,-0.000010,1.573536,0.785398
2.201034,-0.000001,-0.788063,-0.000000,-2.395442,-0.000010,1.573422,0.785398
2.203032,-0.000001,-0.788077,-0.000000,-2.395452,-0.000010,1.573325,0.785398
2.205051,-0.000001,-0.788090,-0.000000,-2.395463,-0.000010,1.573248,0.785398
2.207058,-0.000001,-0.788103,-0.000000,-2.395476,-0.000010,1.573191,0.785398
2.209011,-0.000001,-0.788116,-0.000000,-2.395490,-0.000010,1.573154,0.785398
2.211015,-0.000001,-0.788128,-0.000000,-2.395506,-0.000010,1.573137,0.785398
2.213041,-0.000001,-0.788139,-0.000000,-2.395522,-0.000010,1.573137,0.785398
2.215035,-0.000001,-0.788149,-0.000000,-2.395536,-0.000010,1.573137,0.785398
2.217037,-0.000001,-0.788158,-0.000000,-2.395549,-0.000010,1.573137,0.785398
2.219044,-0.000001,-0.788165,-0.000000,-2.395560,-0.000010,1.573137,0.785398
2.221047,-0.000001,-0.788171,-0.000000,-2.395569,-0.000010,1.573137,0.785398
2.223003,-0.000001,-0.788176,-0.000000,-2.395577,-0.000010,1.573137,0.785398
2.225060,-0.000001,-0.788179,-0.000000,-2.395582,-0.000010,1.573137,0.785398
2.227088,-0.000001,-0.788180,-0.000000,-2.395586,-0.000010,1.573137,0.785398
2.229032,-0.000001,-0.788180,-0.000000,-2.395588,-0.000010,1.573137,0.785398
2.231032,-0.000001,-0.788180,-0.000000,-2.395588,-0.000010,1.573137,0.785398
2.233030,-0.000001,-0.788180,-0.000000,-2.395588,-0.000010,1.573137,0.785398
2.235018,-0.000001,-0.788180,-0.000000,-2.395588,-0.000010,1.573137,0.785398
2.237028,-0.000001,-0.788180,-0.000000,-2.395588,-0.000010,1.573137,0.785398
2.239024,-0.000001,-0.788180,-0.000000,-2.395588,-0.000010,1.573137,0.785398
2.241019,-0.000001,-0.788180,-0.000000,-2.395588,-0.000010,1.573137,0.785398
2.243018,-0.000001,-0.788180,-0.000000,-2.395588,-0.000010,1.573137,0.785398
2.245085,-0.000001,-0.788180,-0.000000,-2.395588,-0.000010,1.573137,0.785398
2.247031,-0.000001,-0.788180,-0.000000,-2.395588,-0.000010,1.573137,0.785398
2.248993,-0.000001,-0.788180,-0.000000,-2.395588,-0.000010,1.573137,0.785398
2.251034,-0.000001,-0.788180,-0.000000,-2.395588,-0.000010,1.573137,0.785398
2.252990,-0.000001,-0.788180,-0.000000,-2.395588,-0.000010,1.573137,0.785398
2.255072,-0.000001,-0.788180,0.000000,-2.395588,-0.000010,1.573138,0.785398
2.256993,-0.000001,-0.788179,0.000000,-2.395588,-0.000010,1.573140,0.785398
2.258987,-0.000001,-0.788179,0.000000,-2.395588,-0.000010,1.573144,0.785398
2.261011,-0.000001,-0.788179,0.000000,-2.395588,-0.000010,1.573151,0.785398
2.263009,-0.000001,-0.788178,0.000000,-2.395588,-0.000010,1.573162,0.785398
2.265014,-0.000000,-0.788177,0.000001,-2.395588,-0.000010,1.573177,0.785398
2.267036,0.000000,-0.788176,0.000001,-2.395588,-0.000010,1.573199,0.785398
2.269073,0.000001,-0.788175,0.000002,-2.395588,-0.000010,1.573227,0.785398
2.271037,0.000002,-0.788173,0.000002,-2.395588,-0.000010,1.573262,0.785398
2.273084,0.000003,-0.788170,0.000003,-2.395588,-0.000010,1.573306,0.785398
2.275230,0.000005,-0.788167,0.000003,-2.395588,-0.000010,1.573358,0.785398
2.277875,0.000007,-0.788164,0.000004,-2.395588,-0.000010,1.573421,0.785398
2.279724,0.000007,-0.788164,0.000004,-2.395588,-0.000010,1.573421,0.785398
2.281338,0.000008,-0.788162,0.000005,-2.395588,-0.000010,1.573457,0.785398
2.283062,0.000010,-0.788158,0.000006,-2.395588,-0.000010,1.573535,0.785398
2.285147,0.000019,-0.788144,0.000009,-2.395588,-0.000010,1.573786,0.785398
2.287161,0.000023,-0.788137,0.000011,-2.395588,-0.000010,1.573910,0.785398
2.289154,0.000028,-0.788130,0.000013,-2.395588,-0.000010,1.574048,0.785398
2.291010,0.000034,-0.788121,0.000014,-2.395589,-0.000010,1.574201,0.785398
2.293169,0.000040,-0.788112,0.000017,-2.395589,-0.000010,1.574371,0.785398
2.295135,0.000047,-0.788102,0.000019,-2.395590,-0.000009,1.574557,0.785398
2.297161,0.000055,-0.788091,0.000021,-2.395591,-0.000006,1.574761,0.785398
2.299014,0.000059,-0.788086,0.000023,-2.395592,-0.000005,1.574870,0.785398
2.301094,0.000072,-0.788068,0.000027,-2.395596,0.000003,1.575225,0.785398
2.303032,0.000077,-0.788062,0.000029,-2.395597,0.000007,1.575353,0.785398
2.305062,0.000087,-0.788048,0.000032,-2.395601,0.000017,1.575625,0.785398
2.307026,0.000097,-0.788034,0.000035,-2.395606,0.000029,1.575918,0.785398
2.309036,0.000109,-0.788020,0.000039,-2.395612,0.000045,1.576234,0.785398
2.311049,0.000120,-0.788004,0.000043,-2.395619,0.000065,1.576571,0.785398
2.312995,0.000133,-0.787988,0.000047,-2.395628,0.000089,1.576933,0.785398
2.315125,0.000146,-0.787971,0.000052,-2.395638,0.000117,1.577318,0.785398
2.317061,0.000160,-0.787954,0.000056,-2.395649,0.000150,1.577727,0.785398
2.319069,0.000174,-0.787936,0.000061,-2.395662,0.000188,1.578161,0.785398
2.321060,0.000189,-0.787917,0.000067,-2.395677,0.000231,1.578621,0.785398
2.323086,0.000205,-0.787897,0.000072,-2.395693,0.000280,1.579107,0.785398
2.325024,0.000221,-0.787877,0.000078,-2.395712,0.000335,1.579619,0.785398
2.327033,0.000238,-0.787856,0.000084,-2.395732,0.000396,1.580157,0.785398
2.329027,0.000255,-0.787834,0.000090,-2.395754,0.000463,1.580722,0.785398
2.331029,0.000273,-0.787812,0.000097,-2.395778,0.000538,1.581315,0.785398
2.333059,0.000292,-0.787789,0.000104,-2.395804,0.000619,1.581935,0.785398
2.334995,0.000312,-0.787766,0.000112,-2.395832,0.000707,1.582582,0.785398
2.337021,0.000332,-0.787741,0.000119,-2.395863,0.000803,1.583258,0.785398
2.338995,0.000352,-0.787716,0.000127,-2.395896,0.000907,1.583962,0.785398
2.341133,0.000373,-0.787691,0.000136,-2.395931,0.001019,1.584695,0.785398
2.343063,0.000395,-0.787664,0.000144,-2.395968,0.001140,1.585456,0.785398
2.344994,0.000418,-0.787637,0.000153,-2.396008,0.001268,1.586246,0.785398
2.347002,0.000441,-0.787610,0.000163,-2.396050,0.001405,1.587065,0.785398
2.349024,0.000465,-0.787581,0.000172,-2.396095,0.001551,1.587913,0.785398
2.351064,0.000489,-0.787552,0.000182,-2.396143,0.001706,1.588789,0.785398
2.353005,0.000514,-0.787523,0.000193,-2.396193,0.001870,1.589695,0.785398
2.354994,0.000540,-0.787492,0.000204,-2.396245,0.002044,1.590629,0.785398
2.357038,0.000567,-0.787461,0.000215,-2.396300,0.002226,1.591593,0.785398
2.359038,0.000594,-0.787429,0.000226,-2.396358,0.002419,1.592585,0.785398
2.361033,0.000621,-0.787397,0.000238,-2.396419,0.002621,1.593607,0.785398
2.363056,0.000650,-0.787364,0.000251,-2.396482,0.002833,1.594656,0.785398
2.365153,0.000679,-0.787330,0.000263,-2.396548,0.003055,1.595735,0.785398
2.367043,0.000708,-0.787295,0.000276,-2.396616,0.003287,1.596841,0.785398
2.369025,0.000739,-0.787260,0.000290,-2.396688,0.003529,1.597976,0.785398
2.371033,0.000770,-0.787224,0.000304,-2.396762,0.003782,1.599140,0.785398
2.373028,0.000801,-0.787187,0.000318,-2.396839,0.004045,1.600330,0.785398
2.375022,0.000834,-0.787149,0.000333,-2.396919,0.004318,1.601549,0.785398
2.377060,0.000867,-0.787111,0.000348,-2.397001,0.004603,1.602795,0.785398
2.379017,0.000900,-0.787072,0.000364,-2.397087,0.004898,1.604068,0.785398
2.381041,0.000935,-0.787032,0.000380,-2.397175,0.005203,1.605368,0.785398
2.382988,0.000970,-0.786991,0.000396,-2.397266,0.005520,1.606694,0.785398
2.385111,0.001006,-0.786950,0.000413,-2.397360,0.005847,1.608047,0.785398
2.387119,0.001042,-0.786908,0.000430,-2.397457,0.006186,1.609425,0.785398
2.389021,0.001080,-0.786865,0.000448,-2.397556,0.006535,1.610829,0.785398
2.391088,0.001118,-0.786821,0.000467,-2.397658,0.006896,1.612258,0.785398
2.393033,0.001156,-0.786776,0.000485,-2.397763,0.007267,1.613711,0.785398
2.395027,0.001196,-0.786731,0.000504,-2.397871,0.007650,1.615190,0.785398
2.397022,0.001236,-0.786684,0.000524,-2.397982,0.008044,1.616692,0.785398
2.399004,0.001277,-0.786637,0.000544,-2.398095,0.008449,1.618218,0.785398
2.400995,0.001318,-0.786589,0.000565,-2.398212,0.008865,1.619767,0.785398
2.402990,0.001361,-0.786540,0.000586,-2.398330,0.009292,1.621338,0.785398
2.405028,0.001404,-0.786490,0.000608,-2.398452,0.009730,1.622932,0.785398
2.407115,0.001448,-0.786439,0.000630,-2.398576,0.010179,1.624547,0.785398
2.408992,0.001493,-0.786388,0.000652,-2.398703,0.010640,1.626184,0.785398
2.411002,0.001539,-0.786335,0.000675,-2.398833,0.011111,1.627842,0.785398
2.412997,0.001585,-0.786282,0.000699,-2.398965,0.011594,1.629520,0.785398
2.415104,0.001632,-0.786227,0.000723,-2.399100,0.012088,1.631217,0.785398
2.417174,0.001680,-0.786172,0.000748,-2.399237,0.012592,1.632934,0.785398
2.419100,0.001705,-0.786144,0.000760,-2.399307,0.012849,1.633800,0.785398
2.421064,0.001754,-0.786087,0.000786,-2.399448,0.013370,1.635545,0.785398
2.423283,0.001829,-0.786000,0.000825,-2.399665,0.014173,1.638198,0.785398
2.425131,0.001881,-0.785940,0.000852,-2.399813,0.014722,1.639991,0.785398
2.427068,0.001933,-0.785880,0.000879,-2.399963,0.015282,1.641800,0.785398
2.429044,0.001986,-0.785818,0.000907,-2.400116,0.015852,1.643626,0.785398
2.431016,0.002040,-0.785756,0.000935,-2.400271,0.016433,1.645467,0.785398
2.433071,0.002095,-0.785693,0.000964,-2.400428,0.017025,1.647324,0.785398
2.435047,0.002151,-0.785628,0.000994,-2.400588,0.017627,1.649195,0.785398
2.437122,0.002208,-0.785562,0.001024,-2.400750,0.018240,1.651080,0.785398
2.438990,0.002265,-0.785496,0.001054,-2.400914,0.018863,1.652979,0.785398
2.441039,0.002324,-0.785428,0.001085,-2.401081,0.019496,1.654891,0.785398
2.443171,0.002383,-0.785359,0.001117,-2.401249,0.020139,1.656816,0.785398
2.445148,0.002444,-0.785289,0.001150,-2.401420,0.020793,1.658753,0.785398
2.447084,0.002505,-0.785218,0.001182,-2.401593,0.021456,1.660702,0.785398
2.448999,0.002536,-0.785182,0.001199,-2.401681,0.021791,1.661681,0.785398
2.451015,0.002599,-0.785109,0.001233,-2.401857,0.022469,1.663646,0.785398
2.453031,0.002662,-0.785035,0.001267,-2.402035,0.023157,1.665623,0.785398
2.455033,0.002727,-0.784960,0.001302,-2.402216,0.023855,1.667610,0.785398
2.457098,0.002793,-0.784883,0.001338,-2.402398,0.024563,1.669608,0.785398
2.459047,0.002860,-0.784806,0.001374,-2.402583,0.025280,1.671615,0.785398
2.461030,0.002927,-0.784727,0.001411,-2.402769,0.026007,1.673633,0.785398
2.463000,0.002996,-0.784647,0.001448,-2.402958,0.026744,1.675659,0.785398
2.465035,0.003066,-0.784566,0.001486,-2.403149,0.027489,1.677693,0.785398
2.467051,0.003137,-0.784483,0.001525,-2.403341,0.028244,1.679735,0.785398
2.468999,0.003208,-0.784400,0.001564,-2.403535,0.029008,1.681785,0.785398
2.471044,0.003281,-0.784315,0.001603,-2.403732,0.029781,1.683841,0.785398
2.473126,0.003355,-0.784228,0.001644,-2.403930,0.030562,1.685904,0.785398
2.475071,0.003430,-0.784141,0.001685,-2.404129,0.031352,1.687973,0.785398
2.477029,0.003506,-0.784052,0.001727,-2.404331,0.032151,1.690047,0.785398
2.479001,0.003583,-0.783962,0.001769,-2.404534,0.032958,1.692127,0.785398
2.481033,0.003661,-0.783871,0.001812,-2.404739,0.033773,1.694211,0.785398
2.482997,0.003741,-0.783778,0.001855,-2.404945,0.034597,1.696299,0.785398
2.485031,0.003781,-0.783731,0.001877,-2.405049,0.035011,1.697344,0.785398
2.487025,0.003902,-0.783588,0.001944,-2.405363,0.036267,1.700486,0.785398
2.489034,0.003985,-0.783492,0.001989,-2.405575,0.037113,1.702584,0.785398
2.491027,0.004069,-0.783393,0.002035,-2.405787,0.037968,1.704686,0.785398
2.493027,0.004154,-0.783294,0.002082,-2.406002,0.038829,1.706790,0.785398
2.495022,0.004240,-0.783193,0.002129,-2.406217,0.039698,1.708895,0.785398
2.497023,0.004327,-0.783091,0.002177,-2.406435,0.040574,1.711001,0.785398
2.499048,0.004415,-0.782987,0.002225,-2.406653,0.041456,1.713109,0.785398
2.501035,0.004504,-0.782882,0.002275,-2.406873,0.042346,1.715217,0.785398
2.503043,0.004595,-0.782775,0.002324,-2.407094,0.043242,1.717325,0.785398
2.505020,0.004687,-0.782667,0.002375,-2.407317,0.044144,1.719433,0.785398
2.507032,0.004780,-0.782558,0.002426,-2.407540,0.045052,1.721541,0.785398
2.509031,0.004874,-0.782447,0.002477,-2.407765,0.045967,1.723649,0.785398
2.511024,0.004969,-0.782335,0.002529,-2.407991,0.046887,1.725755,0.785398
2.513034,0.005065,-0.782221,0.002582,-2.408219,0.047813,1.727860,0.785398
2.515029,0.005163,-0.782106,0.002636,-2.408447,0.048745,1.729963,0.785398
2.517038,0.005262,-0.781989,0.002690,-2.408677,0.049682,1.732065,0.785398
2.519028,0.005362,-0.781871,0.002745,-2.408908,0.050624,1.734164,0.785398
2.521035,0.005463,-0.781751,0.002800,-2.409140,0.051572,1.736262,0.785398
2.523007,0.005566,-0.781630,0.002856,-2.409373,0.052524,1.738356,0.785398
2.525030,0.005669,-0.781507,0.002912,-2.409607,0.053481,1.740448,0.785398
2.527010,0.005774,-0.781383,0.002970,-2.409842,0.054443,1.742537,0.785398
2.528991,0.005881,-0.781257,0.003027,-2.410078,0.055409,1.744623,0.785398
2.530998,0.005988,-0.781129,0.003086,-2.410315,0.056379,1.746705,0.785398
2.532990,0.006097,-0.781001,0.003145,-2.410553,0.057354,1.748784,0.785398
2.535031,0.006206,-0.780870,0.003204,-2.410792,0.058332,1.750859,0.785398
2.537024,0.006318,-0.780738,0.003265,-2.411032,0.059315,1.752930,0.785398
2.539029,0.006430,-0.780604,0.003325,-2.411273,0.060301,1.754997,0.785398
2.541127,0.006544,-0.780469,0.003387,-2.411515,0.061290,1.757059,0.785398
2.543025,0.006659,-0.780332,0.003449,-2.411758,0.062283,1.759118,0.785398
2.545034,0.006775,-0.780194,0.003511,-2.412001,0.063279,1.761172,0.785398
2.546986,0.006892,-0.780053,0.003575,-2.412246,0.064278,1.763223,0.785398
2.549027,0.007011,-0.779912,0.003638,-2.412491,0.065280,1.765268,0.785398
2.551060,0.007131,-0.779768,0.003703,-2.412738,0.066284,1.767309,0.785398
2.553082,0.007252,-0.779623,0.003768,-2.412985,0.067292,1.769345,0.785398
2.555015,0.007375,-0.779477,0.003833,-2.413233,0.068301,1.771377,0.785398
2.557010,0.007499,-0.779328,0.003899,-2.413482,0.069313,1.773404,0.785398
2.559007,0.007624,-0.779178,0.003966,-2.413731,0.070327,1.775426,0.785398
2.561010,0.007751,-0.779027,0.004034,-2.413982,0.071342,1.777443,0.785398
2.562996,0.007878,-0.778873,0.004101,-2.414233,0.072360,1.779455,0.785398
2.564990,0.008007,-0.778718,0.004170,-2.414486,0.073379,1.781462,0.785398
2.566989,0.008138,-0.778561,0.004239,-2.414739,0.074399,1.783465,0.785398
2.568989,0.008270,-0.778403,0.004309,-2.414993,0.075421,1.785462,0.785398
2.571029,0.008336,-0.778323,0.004344,-2.415120,0.075933,1.786459,0.785398
2.573005,0.008470,-0.778162,0.004414,-2.415375,0.076956,1.788450,0.785398
2.575079,0.008605,-0.777999,0.004485,-2.415631,0.077981,1.790436,0.785398
2.577096,0.008741,-0.777834,0.004557,-2.415888,0.079007,1.792419,0.785398
2.579031,0.008879,-0.777668,0.004629,-2.416146,0.080034,1.794398,0.785398
2.581075,0.009018,-0.777500,0.004702,-2.416405,0.081062,1.796374,0.785398
2.583017,0.009158,-0.777330,0.004775,-2.416665,0.082091,1.798346,0.785398
2.585016,0.009229,-0.777245,0.004812,-2.416795,0.082606,1.799331,0.785398
2.587032,0.009443,-0.776985,0.004924,-2.417187,0.084151,1.802280,0.785398
2.589052,0.009588,-0.776810,0.004999,-2.417450,0.085181,1.804243,0.785398
2.591071,0.009733,-0.776633,0.005075,-2.417714,0.086213,1.806202,0.785398
2.593077,0.009881,-0.776454,0.005151,-2.417978,0.087244,1.808158,0.785398
2.595067,0.010029,-0.776273,0.005228,-2.418244,0.088275,1.810111,0.785398
2.597033,0.010179,-0.776090,0.005305,-2.418511,0.089306,1.812062,0.785398
2.599027,0.010330,-0.775906,0.005383,-2.418778,0.090337,1.814009,0.785398
2.601002,0.010483,-0.775720,0.005461,-2.419047,0.091367,1.815953,0.785398
2.603018,0.010637,-0.775531,0.005541,-2.419316,0.092398,1.817895,0.785398
2.605072,0.010792,-0.775341,0.005620,-2.419587,0.093427,1.819835,0.785398
2.607026,0.010949,-0.775149,0.005700,-2.419859,0.094456,1.821772,0.785398
2.609024,0.011108,-0.774955,0.005781,-2.420131,0.095484,1.823707,0.785398
2.611032,0.011267,-0.774760,0.005862,-2.420405,0.096511,1.825641,0.785398
2.613024,0.011428,-0.774562,0.005944,-2.420680,0.097537,1.827573,0.785398
2.615021,0.011591,-0.774362,0.006027,-2.420956,0.098562,1.829503,0.785398
2.617041,0.011754,-0.774160,0.006110,-2.421233,0.099586,1.831432,0.785398
