VaruniBuereddy/KernelizedMovementPrimitives-LQR/W_results/franka_joint_positions.csv
time,q1,q2,q3,q4,q5,q6,q7
0.007332,-0.000001,-0.780700,0.000000,-2.448779,-0.000010,1.571040,0.785398
0.009436,-0.000001,-0.780700,0.000000,-2.448779,-0.000010,1.571040,0.785398
0.011330,-0.000001,-0.780700,0.000000,-2.448779,-0.000010,1.571053,0.785398
0.013366,-0.000001,-0.780699,0.000000,-2.448779,-0.000010,1.571116,0.785398
0.015362,-0.000001,-0.780698,0.000000,-2.448779,-0.000010,1.571228,0.785398
0.017357,-0.000001,-0.780697,0.000000,-2.448780,-0.000010,1.571389,0.785398
0.019397,-0.000001,-0.780695,0.000000,-2.448781,-0.000010,1.571598,0.785398
0.021499,-0.000001,-0.780692,0.000000,-2.448782,-0.000010,1.571852,0.785398
0.023347,-0.000001,-0.780689,0.000000,-2.448783,-0.000010,1.572151,0.785398
0.025334,-0.000001,-0.780685,0.000000,-2.448783,-0.000010,1.572493,0.785398
0.027391,-0.000001,-0.780681,0.000000,-2.448783,-0.000010,1.572877,0.785398
0.029410,-0.000001,-0.780676,0.000000,-2.448783,-0.000010,1.573301,0.785398
0.031413,-0.000001,-0.780671,0.000000,-2.448783,-0.000010,1.573766,0.785398
0.033344,-0.000001,-0.780666,0.000000,-2.448783,-0.000010,1.574269,0.785398
0.035334,-0.000001,-0.780660,0.000000,-2.448783,-0.000010,1.574810,0.785398
0.037360,-0.000001,-0.780654,0.000000,-2.448783,-0.000010,1.575388,0.785398
0.039347,-0.000001,-0.780648,0.000000,-2.448783,-0.000010,1.576000,0.785398
0.041349,-0.000001,-0.780642,0.000000,-2.448783,-0.000010,1.576645,0.785398
0.043337,-0.000001,-0.780635,0.000000,-2.448783,-0.000010,1.577323,0.785398
0.045330,-0.000001,-0.780628,0.000000,-2.448783,-0.000010,1.578031,0.785398
0.047328,-0.000001,-0.780622,0.000000,-2.448783,-0.000010,1.578769,0.785398
0.049295,-0.000001,-0.780615,0.000000,-2.448783,-0.000010,1.579535,0.785398
0.051309,-0.000001,-0.780608,0.000000,-2.448783,-0.000010,1.580327,0.785398
0.053380,-0.000001,-0.780602,0.000000,-2.448783,-0.000010,1.581145,0.785398
0.055311,-0.000001,-0.780595,0.000000,-2.448783,-0.000010,1.581988,0.785398
0.057469,-0.000001,-0.780592,0.000000,-2.448783,-0.000010,1.582418,0.785398
0.059404,-0.000001,-0.780582,0.000000,-2.448783,-0.000010,1.583740,0.785398
0.061440,-0.000001,-0.780576,0.000000,-2.448783,-0.000010,1.584648,0.785398
0.063363,-0.000001,-0.780573,0.000000,-2.448783,-0.000010,1.585109,0.785398
0.065364,-0.000001,-0.780567,0.000000,-2.448783,-0.000010,1.586045,0.785398
0.067712,-0.000001,-0.780562,0.000000,-2.448783,-0.000010,1.586999,0.785398
0.070835,-0.000001,-0.780562,0.000000,-2.448783,-0.000010,1.586999,0.785398
0.073021,-0.000001,-0.780559,0.000000,-2.448783,-0.000010,1.587482,0.785398
0.074032,-0.000001,-0.780559,0.000000,-2.448783,-0.000010,1.587482,0.785398
0.075375,-0.000001,-0.780543,0.000000,-2.448783,-0.000010,1.590975,0.785398
0.077400,-0.000001,-0.780539,0.000000,-2.448783,-0.000010,1.592006,0.785398
0.079380,-0.000001,-0.780535,0.000000,-2.448783,-0.000010,1.593049,0.785398
0.081361,-0.000001,-0.780532,0.000000,-2.448783,-0.000010,1.594102,0.785398
0.083436,-0.000001,-0.780530,0.000000,-2.448783,-0.000010,1.595164,0.785398
0.085406,-0.000001,-0.780528,0.000000,-2.448783,-0.000010,1.596233,0.785398
0.087406,-0.000001,-0.780527,0.000000,-2.448782,-0.000010,1.597308,0.785398
0.089382,-0.000001,-0.780526,0.000000,-2.448781,-0.000010,1.598388,0.785398
0.091384,-0.000001,-0.780525,0.000000,-2.448780,-0.000010,1.599471,0.785398
0.093357,-0.000001,-0.780525,0.000000,-2.448778,-0.000010,1.600557,0.785398
0.095376,-0.000001,-0.780525,0.000000,-2.448774,-0.000010,1.601643,0.785398
0.097379,-0.000001,-0.780525,0.000000,-2.448770,-0.000010,1.602729,0.785398
0.099352,-0.000001,-0.780525,0.000000,-2.448764,-0.000010,1.603813,0.785398
0.101363,-0.000001,-0.780525,0.000000,-2.448757,-0.000010,1.604895,0.785398
0.103352,-0.000001,-0.780525,0.000000,-2.448748,-0.000010,1.605972,0.785398
0.105327,-0.000001,-0.780525,0.000000,-2.448738,-0.000010,1.607046,0.785398
0.107362,-0.000001,-0.780525,0.000000,-2.448726,-0.000010,1.608113,0.785398
0.109361,-0.000001,-0.780525,0.000000,-2.448713,-0.000010,1.609173,0.785398
0.111359,-0.000001,-0.780525,0.000000,-2.448697,-0.000010,1.610225,0.785398
0.113327,-0.000001,-0.780525,0.000000,-2.448680,-0.000010,1.611269,0.785398
0.115325,-0.000001,-0.780525,0.000000,-2.448661,-0.000010,1.612303,0.785398
0.117324,-0.000001,-0.780525,0.000000,-2.448639,-0.000010,1.613326,0.785398
0.119362,-0.000001,-0.780525,0.000000,-2.448616,-0.000010,1.614338,0.785398
0.121330,-0.000001,-0.780525,0.000000,-2.448590,-0.000010,1.615338,0.785398
0.123417,-0.000001,-0.780525,0.000000,-2.448563,-0.000010,1.616325,0.785398
0.125392,-0.000001,-0.780525,0.000000,-2.448532,-0.000010,1.617299,0.785398
0.127363,-0.000001,-0.780525,0.000000,-2.448500,-0.000010,1.618258,0.785398
0.129349,-0.000001,-0.780525,0.000000,-2.448465,-0.000010,1.619203,0.785398
0.131346,-0.000001,-0.780525,0.000000,-2.448428,-0.000010,1.620132,0.785398
0.133397,-0.000001,-0.780525,0.000000,-2.448388,-0.000010,1.621045,0.785398
0.135327,-0.000001,-0.780525,0.000000,-2.448345,-0.000010,1.621940,0.785398
0.137365,-0.000001,-0.780525,0.000000,-2.448300,-0.000010,1.622818,0.785398
0.139430,-0.000001,-0.780525,0.000000,-2.448252,-0.000010,1.623678,0.785398
0.141326,-0.000001,-0.780525,0.000000,-2.448202,-0.000010,1.624520,0.785398
0.143379,-0.000001,-0.780525,0.000000,-2.448148,-0.000010,1.625342,0.785398
0.145486,-0.000001,-0.780525,0.000000,-2.448092,-0.000010,1.626145,0.785398
0.147392,-0.000001,-0.780525,0.000000,-2.448033,-0.000010,1.626927,0.785398
0.149505,-0.000001,-0.780525,0.000000,-2.447971,-0.000010,1.627689,0.785398
0.151365,-0.000001,-0.780525,0.000000,-2.447939,-0.000010,1.628063,0.785398
0.153490,-0.000001,-0.780525,0.000000,-2.447839,-0.000010,1.629151,0.785398
0.155300,-0.000001,-0.780525,0.000000,-2.447804,-0.000010,1.629503,0.785398
0.157362,-0.000001,-0.780525,0.000000,-2.447731,-0.000010,1.630191,0.785398
0.159399,-0.000001,-0.780525,0.000000,-2.447656,-0.000010,1.630857,0.785398
0.161404,-0.000001,-0.780525,0.000000,-2.447578,-0.000010,1.631500,0.785398
0.163403,-0.000001,-0.780525,0.000000,-2.447496,-0.000010,1.632122,0.785398
0.165344,-0.000001,-0.780525,0.000000,-2.447412,-0.000010,1.632721,0.785398
0.167372,-0.000001,-0.780525,0.000000,-2.447324,-0.000010,1.633296,0.785398
0.169349,-0.000001,-0.780525,0.000000,-2.447233,-0.000010,1.633849,0.785398
0.171384,-0.000001,-0.780525,0.000000,-2.447140,-0.000010,1.634379,0.785398
0.173404,-0.000001,-0.780525,0.000000,-2.447043,-0.000010,1.634886,0.785398
0.175377,-0.000001,-0.780525,0.000000,-2.446943,-0.000010,1.635369,0.785398
0.177350,-0.000001,-0.780525,0.000000,-2.446839,-0.000010,1.635829,0.785398
0.179346,-0.000001,-0.780525,0.000000,-2.446733,-0.000010,1.636265,0.785398
0.181349,-0.000001,-0.780525,0.000000,-2.446623,-0.000010,1.636678,0.785398
0.183399,-0.000001,-0.780525,0.000000,-2.446511,-0.000010,1.637067,0.785398
0.185361,-0.000001,-0.780525,0.000000,-2.446395,-0.000010,1.637433,0.785398
0.187393,-0.000001,-0.780525,0.000000,-2.446276,-0.000010,1.637776,0.785398
0.189405,-0.000001,-0.780525,0.000000,-2.446154,-0.000010,1.638095,0.785398
0.191359,-0.000001,-0.780525,0.000000,-2.446029,-0.000010,1.638391,0.785398
0.193348,-0.000001,-0.780525,0.000000,-2.445901,-0.000010,1.638664,0.785398
0.195351,-0.000001,-0.780525,0.000000,-2.445769,-0.000010,1.638914,0.785398
0.197362,-0.000001,-0.780525,0.000000,-2.445635,-0.000010,1.639141,0.785398
0.199372,-0.000001,-0.780525,0.000000,-2.445498,-0.000010,1.639345,0.785398
0.201404,-0.000001,-0.780525,0.000000,-2.445357,-0.000010,1.639527,0.785398
0.203348,-0.000001,-0.780525,0.000000,-2.445214,-0.000010,1.639687,0.785398
0.205338,-0.000001,-0.780525,0.000000,-2.445067,-0.000010,1.639824,0.785398
0.207332,-0.000001,-0.780525,0.000000,-2.444918,-0.000010,1.639940,0.785398
0.209339,-0.000001,-0.780525,0.000000,-2.444765,-0.000010,1.640034,0.785398
0.211330,-0.000001,-0.780525,0.000000,-2.444610,-0.000010,1.640107,0.785398
0.213628,-0.000001,-0.780525,0.000000,-2.444452,-0.000010,1.640159,0.785398
0.215328,-0.000001,-0.780525,0.000000,-2.444291,-0.000010,1.640190,0.785398
0.217358,-0.000001,-0.780525,0.000000,-2.444128,-0.000010,1.640200,0.785398
0.219343,-0.000001,-0.780525,0.000000,-2.443962,-0.000010,1.640200,0.785398
0.221336,-0.000001,-0.780525,0.000000,-2.443797,-0.000010,1.640200,0.785398
0.223422,-0.000001,-0.780525,0.000000,-2.443631,-0.000010,1.640200,0.785398
0.225347,-0.000001,-0.780525,0.000000,-2.443465,-0.000010,1.640200,0.785398
0.227417,-0.000001,-0.780525,0.000000,-2.443299,-0.000010,1.640200,0.785398
0.229354,-0.000001,-0.780525,0.000000,-2.443133,-0.000010,1.640200,0.785398
0.231381,-0.000001,-0.780525,0.000000,-2.442966,-0.000010,1.640200,0.785398
0.233476,-0.000001,-0.780525,0.000000,-2.442800,-0.000010,1.640200,0.785398
0.235288,-0.000001,-0.780525,0.000000,-2.442717,-0.000010,1.640200,0.785398
0.237315,-0.000001,-0.780525,0.000000,-2.442466,-0.000010,1.640200,0.785398
0.239450,-0.000001,-0.780525,0.000000,-2.442383,-0.000010,1.640200,0.785398
0.241314,-0.000001,-0.780525,0.000000,-2.442216,-0.000010,1.640200,0.785398
0.243481,-0.000001,-0.780525,0.000000,-2.441965,-0.000010,1.640200,0.785398
0.245301,-0.000001,-0.780525,0.000000,-2.441882,-0.000010,1.640200,0.785398
0.247317,-0.000001,-0.780525,0.000000,-2.441714,-0.000010,1.640200,0.785398
0.249454,-0.000001,-0.780525,0.000000,-2.441463,-0.000010,1.640200,0.785398
0.251321,-0.000001,-0.780525,0.000000,-2.441380,-0.000010,1.640200,0.785398
0.253373,-0.000001,-0.780525,0.000000,-2.441212,-0.000010,1.640200,0.785398
0.255346,-0.000001,-0.780525,0.000000,-2.441045,-0.000010,1.640200,0.785398
0.257400,-0.000001,-0.780525,0.000000,-2.440877,-0.000010,1.640200,0.785398
0.259372,-0.000001,-0.780525,0.000000,-2.440710,-0.000010,1.640200,0.785398
0.261333,-0.000001,-0.780525,0.000000,-2.440542,-0.000010,1.640200,0.785398
0.263386,-0.000001,-0.780525,0.000000,-2.440375,-0.000010,1.640200,0.785398
0.268592,-0.000001,-0.780525,0.000000,-2.440375,-0.000010,1.640200,0.785398
0.269328,-0.000001,-0.780525,0.000000,-2.440040,-0.000010,1.640200,0.785398
0.271383,-0.000001,-0.780525,0.000000,-2.439705,-0.000010,1.640200,0.785398
0.273416,-0.000001,-0.780525,0.000000,-2.439538,-0.000010,1.640200,0.785398
0.275415,-0.000001,-0.780525,0.000000,-2.439370,-0.000010,1.640200,0.785398
0.277401,-0.000001,-0.780525,0.000000,-2.439203,-0.000010,1.640200,0.785398
0.279395,-0.000001,-0.780525,0.000000,-2.439036,-0.000010,1.640200,0.785398
0.281327,-0.000001,-0.780525,0.000000,-2.438869,-0.000010,1.640200,0.785398
0.283354,-0.000001,-0.780525,0.000000,-2.438702,-0.000010,1.640200,0.785398
0.285365,-0.000001,-0.780525,0.000000,-2.438536,-0.000010,1.640200,0.785398
0.287378,-0.000001,-0.780525,0.000000,-2.438369,-0.000010,1.640200,0.785398
0.289407,-0.000001,-0.780525,0.000000,-2.438203,-0.000010,1.640200,0.785398
0.291329,-0.000001,-0.780525,0.000000,-2.438037,-0.000010,1.640200,0.785398
0.293329,-0.000001,-0.780525,0.000000,-2.437870,-0.000010,1.640200,0.785398
0.295343,-0.000001,-0.780525,0.000000,-2.437705,-0.000010,1.640200,0.785398
0.297344,-0.000001,-0.780525,0.000000,-2.437539,-0.000010,1.640200,0.785398
0.299356,-0.000001,-0.780525,0.000000,-2.437374,-0.000010,1.640200,0.785398
0.301347,-0.000001,-0.780525,0.000000,-2.437208,-0.000010,1.640200,0.785398
0.303422,-0.000001,-0.780525,0.000000,-2.437043,-0.000010,1.640200,0.785398
0.305334,-0.000001,-0.780525,0.000000,-2.436879,-0.000010,1.640200,0.785398
0.307328,-0.000001,-0.780525,0.000000,-2.436714,-0.000010,1.640200,0.785398
0.309330,-0.000001,-0.780525,0.000000,-2.436550,-0.000010,1.640200,0.785398
0.311328,-0.000001,-0.780525,0.000000,-2.436386,-0.000010,1.640200,0.785398
0.313355,-0.000001,-0.780525,0.000000,-2.436222,-0.000010,1.640200,0.785398
0.315402,-0.000001,-0.780525,0.000000,-2.436059,-0.000010,1.640200,0.785398
0.317469,-0.000001,-0.780525,0.000000,-2.435896,-0.000010,1.640200,0.785398
0.319333,-0.000001,-0.780525,0.000000,-2.435733,-0.000010,1.640200,0.785398
0.321328,-0.000001,-0.780525,0.000000,-2.435570,-0.000010,1.640200,0.785398
0.323333,-0.000001,-0.780525,0.000000,-2.435408,-0.000010,1.640200,0.785398
0.325327,-0.000001,-0.780525,0.000000,-2.435246,-0.000010,1.640200,0.785398
0.327328,-0.000001,-0.780525,0.000000,-2.435085,-0.000010,1.640200,0.785398
0.329325,-0.000001,-0.780525,0.000000,-2.434923,-0.000010,1.640200,0.785398
0.331345,-0.000001,-0.780525,0.000000,-2.434763,-0.000010,1.640200,0.785398
0.333325,-0.000001,-0.780525,0.000000,-2.434602,-0.000010,1.640200,0.785398
0.335346,-0.000001,-0.780525,0.000000,-2.434442,-0.000010,1.640200,0.785398
0.337337,-0.000001,-0.780525,0.000000,-2.434282,-0.000010,1.640200,0.785398
0.339328,-0.000001,-0.780525,0.000000,-2.434123,-0.000010,1.640200,0.785398
0.341318,-0.000001,-0.780525,0.000000,-2.433964,-0.000010,1.640200,0.785398
0.343391,-0.000001,-0.780525,0.000000,-2.433806,-0.000010,1.640200,0.785398
0.345420,-0.000001,-0.780525,0.000000,-2.433648,-0.000010,1.640200,0.785398
0.347366,-0.000001,-0.780525,0.000000,-2.433490,-0.000010,1.640200,0.785398
0.349345,-0.000001,-0.780526,0.000000,-2.433333,-0.000010,1.640200,0.785398
0.351351,-0.000001,-0.780526,0.000000,-2.433176,-0.000010,1.640200,0.785398
0.353312,-0.000001,-0.780526,0.000000,-2.433020,-0.000010,1.640200,0.785398
0.355304,-0.000001,-0.780526,0.000000,-2.432864,-0.000010,1.640200,0.785398
0.357334,-0.000001,-0.780526,0.000000,-2.432709,-0.000010,1.640200,0.785398
0.359311,-0.000001,-0.780526,0.000000,-2.432554,-0.000010,1.640200,0.785398
0.361301,-0.000001,-0.780526,0.000000,-2.432400,-0.000010,1.640200,0.785398
0.363342,-0.000001,-0.780527,0.000000,-2.432246,-0.000010,1.640200,0.785398
0.365324,-0.000001,-0.780527,0.000000,-2.432093,-0.000010,1.640200,0.785398
0.367324,-0.000001,-0.780527,0.000000,-2.431940,-0.000010,1.640200,0.785398
0.369331,-0.000001,-0.780528,0.000000,-2.431788,-0.000010,1.640200,0.785398
0.371333,-0.000001,-0.780528,0.000000,-2.431636,-0.000010,1.640200,0.785398
0.373313,-0.000001,-0.780529,0.000000,-2.431485,-0.000010,1.640200,0.785398
0.375309,-0.000001,-0.780529,0.000000,-2.431410,-0.000010,1.640200,0.785398
0.377349,-0.000001,-0.780530,0.000000,-2.431185,-0.000010,1.640200,0.785398
0.379303,-0.000001,-0.780531,0.000000,-2.431036,-0.000010,1.640200,0.785398
0.381351,-0.000001,-0.780531,0.000000,-2.430961,-0.000010,1.640200,0.785398
0.383370,-0.000001,-0.780532,0.000000,-2.430813,-0.000010,1.640200,0.785398
0.385396,-0.000001,-0.780534,0.000000,-2.430592,-0.000010,1.640200,0.785398
0.387402,-0.000001,-0.780534,0.000000,-2.430518,-0.000010,1.640200,0.785398
0.389344,-0.000001,-0.780535,0.000000,-2.430372,-0.000010,1.640200,0.785398
0.391310,-0.000001,-0.780537,0.000000,-2.430226,-0.000010,1.640200,0.785398
0.393343,-0.000001,-0.780538,0.000000,-2.430081,-0.000010,1.640200,0.785398
0.395455,-0.000001,-0.780539,0.000000,-2.429937,-0.000010,1.640200,0.785398
0.397350,-0.000001,-0.780541,0.000000,-2.429793,-0.000010,1.640200,0.785398
0.399372,-0.000001,-0.780543,0.000000,-2.429650,-0.000010,1.640200,0.785398
0.401364,-0.000001,-0.780545,0.000000,-2.429507,-0.000010,1.640200,0.785398
0.403396,-0.000001,-0.780547,0.000000,-2.429366,-0.000010,1.640200,0.785398
0.405366,-0.000001,-0.780549,0.000000,-2.429225,-0.000010,1.640200,0.785398
0.407424,-0.000001,-0.780551,0.000000,-2.429085,-0.000010,1.640200,0.785398
0.409353,-0.000001,-0.780553,0.000000,-2.428945,-0.000010,1.640200,0.785398
0.411379,-0.000001,-0.780556,0.000000,-2.428806,-0.000010,1.640200,0.785398
0.413331,-0.000001,-0.780558,0.000000,-2.428668,-0.000010,1.640200,0.785398
0.415380,-0.000001,-0.780561,0.000000,-2.428531,-0.000010,1.640200,0.785398
0.417328,-0.000001,-0.780564,0.000000,-2.428395,-0.000010,1.640200,0.785398
0.419416,-0.000001,-0.780567,0.000000,-2.428259,-0.000010,1.640200,0.785398
0.421334,-0.000001,-0.780570,0.000000,-2.428124,-0.000010,1.640200,0.785398
0.423348,-0.000001,-0.780573,0.000000,-2.427990,-0.000010,1.640200,0.785398
0.425399,-0.000001,-0.780577,0.000000,-2.427856,-0.000010,1.640200,0.785398
0.427360,-0.000001,-0.780580,0.000000,-2.427724,-0.000010,1.640200,0.785398
0.429356,-0.000001,-0.780584,0.000000,-2.427592,-0.000010,1.640200,0.785398
0.431398,-0.000001,-0.780588,0.000000,-2.427461,-0.000010,1.640200,0.785398
0.433390,-0.000001,-0.780592,0.000000,-2.427331,-0.000010,1.640200,0.785398
0.435347,-0.000001,-0.780595,0.000000,-2.427266,-0.000010,1.640200,0.785398
0.437394,-0.000001,-0.780601,0.000000,-2.427073,-0.000010,1.640200,0.785398
0.439390,-0.000001,-0.780606,0.000000,-2.426946,-0.000010,1.640200,0.785398
0.441378,-0.000001,-0.780611,0.000000,-2.426819,-0.000010,1.640200,0.785398
0.443327,-0.000001,-0.780616,0.000000,-2.426693,-0.000010,1.640200,0.785398
0.445362,-0.000001,-0.780621,0.000000,-2.426568,-0.000010,1.640200,0.785398
0.447365,-0.000001,-0.780627,0.000000,-2.426444,-0.000010,1.640200,0.785398
0.449419,-0.000001,-0.780632,0.000000,-2.426321,-0.000010,1.640200,0.785398
0.451363,-0.000001,-0.780638,0.000000,-2.426198,-0.000010,1.640200,0.785398
0.453359,-0.000001,-0.780644,0.000000,-2.426077,-0.000010,1.640200,0.785398
0.455382,-0.000001,-0.780650,0.000000,-2.425956,-0.000010,1.640200,0.785398
0.457346,-0.000001,-0.780657,0.000000,-2.425836,-0.000010,1.640200,0.785398
0.459376,-0.000001,-0.780663,0.000000,-2.425718,-0.000010,1.640200,0.785398
0.461393,-0.000001,-0.780670,0.000000,-2.425600,-0.000010,1.640200,0.785398
0.463327,-0.000001,-0.780677,0.000000,-2.425483,-0.000010,1.640200,0.785398
0.465364,-0.000001,-0.780685,0.000000,-2.425367,-0.000010,1.640200,0.785398
0.467341,-0.000001,-0.780692,0.000000,-2.425252,-0.000010,1.640200,0.785398
0.469348,-0.000001,-0.780700,0.000000,-2.425137,-0.000010,1.640200,0.785398
0.471328,-0.000001,-0.780708,0.000000,-2.425024,-0.000010,1.640200,0.785398
0.473330,-0.000001,-0.780716,0.000000,-2.424912,-0.000010,1.640200,0.785398
0.475327,-0.000001,-0.780724,0.000000,-2.424800,-0.000010,1.640200,0.785398
0.477327,-0.000001,-0.780733,0.000000,-2.424690,-0.000010,1.640200,0.785398
0.479331,-0.000001,-0.780742,0.000000,-2.424581,-0.000010,1.640200,0.785398
0.481347,-0.000001,-0.780751,0.000000,-2.424472,-0.000010,1.640200,0.785398
0.483314,-0.000001,-0.780760,0.000000,-2.424364,-0.000010,1.640200,0.785398
0.485326,-0.000001,-0.780770,0.000000,-2.424258,-0.000010,1.640200,0.785398
0.487326,-0.000001,-0.780779,0.000000,-2.424152,-0.000010,1.640200,0.785398
0.489308,-0.000001,-0.780789,0.000000,-2.424048,-0.000010,1.640200,0.785398
0.491326,-0.000001,-0.780800,0.000000,-2.423944,-0.000010,1.640200,0.785398
0.493351,-0.000001,-0.780810,0.000000,-2.423842,-0.000010,1.640200,0.785398
0.495394,-0.000001,-0.780821,0.000000,-2.423740,-0.000010,1.640200,0.785398
0.497549,-0.000001,-0.780832,0.000000,-2.423639,-0.000010,1.640200,0.785398
0.499337,-0.000001,-0.780843,0.000000,-2.423540,-0.000010,1.640200,0.785398
0.501376,-0.000001,-0.780855,0.000000,-2.423441,-0.000010,1.640200,0.785398
0.503521,-0.000001,-0.780867,0.000000,-2.423343,-0.000010,1.640200,0.785398
0.505402,-0.000001,-0.780879,0.000000,-2.423247,-0.000010,1.640200,0.785398
0.507412,-0.000001,-0.780885,0.000000,-2.423199,-0.000010,1.640200,0.785398
0.509371,-0.000001,-0.780897,0.000000,-2.423104,-0.000010,1.640200,0.785398
0.511353,-0.000001,-0.780910,0.000000,-2.423010,-0.000010,1.640200,0.785398
0.513339,-0.000001,-0.780923,0.000000,-2.422917,-0.000010,1.640200,0.785398
0.515380,-0.000001,-0.780936,0.000000,-2.422825,-0.000010,1.640200,0.785398
0.517374,-0.000001,-0.780950,0.000000,-2.422734,-0.000010,1.640200,0.785398
0.519365,-0.000001,-0.780964,0.000000,-2.422644,-0.000010,1.640200,0.785398
0.521374,-0.000001,-0.780978,0.000000,-2.422555,-0.000010,1.640200,0.785398
0.523454,-0.000001,-0.780992,0.000000,-2.422467,-0.000010,1.640200,0.785398
0.525344,-0.000001,-0.781006,0.000000,-2.422380,-0.000010,1.640200,0.785398
0.527388,-0.000001,-0.781021,0.000000,-2.422294,-0.000010,1.640200,0.785398
0.529355,-0.000001,-0.781036,0.000000,-2.422210,-0.000010,1.640200,0.785398
0.531334,-0.000001,-0.781052,0.000000,-2.422126,-0.000010,1.640200,0.785398
0.533334,-0.000001,-0.781067,0.000000,-2.422043,-0.000010,1.640200,0.785398
0.535392,-0.000001,-0.781075,0.000000,-2.422002,-0.000010,1.640200,0.785398
0.537365,-0.000001,-0.781100,0.000000,-2.421881,-0.000010,1.640200,0.785398
0.539446,-0.000001,-0.781116,0.000000,-2.421801,-0.000010,1.640200,0.785398
0.541388,-0.000001,-0.781133,0.000000,-2.421723,-0.000010,1.640200,0.785398
0.543379,-0.000001,-0.781150,0.000000,-2.421645,-0.000010,1.640200,0.785398
0.545379,-0.000001,-0.781167,0.000000,-2.421569,-0.000010,1.640200,0.785398
0.547352,-0.000001,-0.781185,0.000000,-2.421494,-0.000010,1.640200,0.785398
0.549362,-0.000001,-0.781203,0.000000,-2.421419,-0.000010,1.640200,0.785398
0.551360,-0.000001,-0.781221,0.000000,-2.421346,-0.000010,1.640200,0.785398
0.553360,-0.000001,-0.781240,0.000000,-2.421274,-0.000010,1.640200,0.785398
0.555328,-0.000001,-0.781258,0.000000,-2.421203,-0.000010,1.640200,0.785398
0.557360,-0.000001,-0.781277,0.000000,-2.421133,-0.000010,1.640200,0.785398
0.559364,-0.000001,-0.781297,0.000000,-2.421064,-0.000010,1.640200,0.785398
0.561331,-0.000001,-0.781316,0.000000,-2.420996,-0.000010,1.640200,0.785398
0.563344,-0.000001,-0.781336,0.000000,-2.420929,-0.000010,1.640200,0.785398
0.565362,-0.000001,-0.781357,0.000000,-2.420863,-0.000010,1.640200,0.785398
0.567337,-0.000001,-0.781377,0.000000,-2.420799,-0.000010,1.640200,0.785398
0.569364,-0.000001,-0.781398,0.000000,-2.420735,-0.000010,1.640200,0.785398
0.571363,-0.000001,-0.781419,0.000000,-2.420673,-0.000010,1.640200,0.785398
0.573374,-0.000001,-0.781440,0.000000,-2.420611,-0.000010,1.640200,0.785398
0.575358,-0.000001,-0.781462,0.000000,-2.420551,-0.000010,1.640200,0.785398
0.577361,-0.000001,-0.781484,0.000000,-2.420491,-0.000010,1.640200,0.785398
0.579387,-0.000001,-0.781506,0.000000,-2.420433,-0.000010,1.640200,0.785398
0.581379,-0.000001,-0.781529,0.000000,-2.420376,-0.000010,1.640200,0.785398
0.583418,-0.000001,-0.781551,0.000000,-2.420319,-0.000010,1.640200,0.785398
0.585363,-0.000001,-0.781575,0.000000,-2.420264,-0.000010,1.640200,0.785398
0.587331,-0.000001,-0.781598,0.000000,-2.420210,-0.000010,1.640200,0.785398
0.589348,-0.000001,-0.781622,0.000000,-2.420157,-0.000010,1.640200,0.785398
0.591427,-0.000001,-0.781646,0.000000,-2.420105,-0.000010,1.640200,0.785398
0.593496,-0.000001,-0.781670,0.000000,-2.420054,-0.000010,1.640200,0.785398
0.595416,-0.000001,-0.781695,0.000000,-2.420004,-0.000010,1.640200,0.785398
0.597434,-0.000001,-0.781719,0.000000,-2.419956,-0.000010,1.640200,0.785398
0.599333,-0.000001,-0.781745,0.000000,-2.419908,-0.000010,1.640200,0.785398
0.601363,-0.000001,-0.781770,0.000000,-2.419861,-0.000010,1.640200,0.785398
0.603360,-0.000001,-0.781796,0.000000,-2.419816,-0.000010,1.640200,0.785398
0.605361,-0.000001,-0.781822,0.000000,-2.419771,-0.000010,1.640200,0.785398
0.607363,-0.000001,-0.781848,0.000000,-2.419728,-0.000010,1.640200,0.785398
0.609375,-0.000001,-0.781875,0.000000,-2.419685,-0.000010,1.640200,0.785398
0.611360,-0.000001,-0.781902,0.000000,-2.419644,-0.000010,1.640200,0.785398
0.613332,-0.000001,-0.781929,0.000000,-2.419603,-0.000010,1.640200,0.785398
0.615358,-0.000001,-0.781956,0.000000,-2.419564,-0.000010,1.640200,0.785398
0.617361,-0.000001,-0.781984,0.000000,-2.419526,-0.000010,1.640200,0.785398
0.619357,-0.000001,-0.782012,0.000000,-2.419488,-0.000010,1.640200,0.785398
0.621366,-0.000001,-0.782040,0.000000,-2.419452,-0.000010,1.640200,0.785398
0.623329,-0.000001,-0.782069,0.000000,-2.419417,-0.000010,1.640200,0.785398
0.625362,-0.000001,-0.782098,0.000000,-2.419383,-0.000010,1.640200,0.785398
0.627326,-0.000001,-0.782127,0.000000,-2.419350,-0.000010,1.640200,0.785398
0.629364,-0.000001,-0.782157,0.000000,-2.419318,-0.000010,1.640200,0.785398
0.631359,-0.000001,-0.782186,0.000000,-2.419287,-0.000010,1.640200,0.785398
0.633380,-0.000001,-0.782216,0.000000,-2.419257,-0.000010,1.640200,0.785398
0.635340,-0.000001,-0.782247,0.000000,-2.419228,-0.000010,1.640200,0.785398
0.637326,-0.000001,-0.782277,0.000000,-2.419200,-0.000010,1.640200,0.785398
0.639331,-0.000001,-0.782308,0.000000,-2.419173,-0.000010,1.640200,0.785398
0.641388,-0.000001,-0.782340,0.000000,-2.419147,-0.000010,1.640200,0.785398
0.643351,-0.000001,-0.782371,0.000000,-2.419122,-0.000010,1.640200,0.785398
0.645343,-0.000001,-0.782403,0.000000,-2.419098,-0.000010,1.640200,0.785398
0.647375,-0.000001,-0.782419,0.000000,-2.419087,-0.000010,1.640200,0.785398
0.649442,-0.000001,-0.782467,0.000000,-2.419053,-0.000010,1.640200,0.785398
0.651436,-0.000001,-0.782500,0.000000,-2.419033,-0.000010,1.640200,0.785398
0.653360,-0.000001,-0.782516,0.000000,-2.419022,-0.000010,1.640200,0.785398
0.655400,-0.000001,-0.782549,0.000000,-2.419003,-0.000010,1.640200,0.785398
0.657367,-0.000001,-0.782582,0.000000,-2.418985,-0.000010,1.640200,0.785398
0.659379,-0.000001,-0.782616,0.000000,-2.418967,-0.000010,1.640200,0.785398
0.661415,-0.000001,-0.782649,0.000000,-2.418951,-0.000010,1.640200,0.785398
0.663392,-0.000001,-0.782683,0.000000,-2.418935,-0.000010,1.640200,0.785398
0.665351,-0.000001,-0.782718,0.000000,-2.418921,-0.000010,1.640200,0.785398
0.667428,-0.000001,-0.782752,0.000000,-2.418907,-0.000010,1.640200,0.785398
0.669356,-0.000001,-0.782787,0.000000,-2.418895,-0.000010,1.640200,0.785398
0.671347,-0.000001,-0.782822,0.000000,-2.418883,-0.000010,1.640200,0.785398
0.673396,-0.000001,-0.782858,0.000000,-2.418873,-0.000010,1.640200,0.785398
0.675353,-0.000001,-0.782893,0.000000,-2.418863,-0.000010,1.640200,0.785398
0.677405,-0.000001,-0.782929,0.000000,-2.418854,-0.000010,1.640200,0.785398
0.679355,-0.000001,-0.782965,0.000000,-2.418847,-0.000010,1.640200,0.785398
0.681361,-0.000001,-0.783002,0.000000,-2.418840,-0.000010,1.640200,0.785398
0.683463,-0.000001,-0.783038,0.000000,-2.418834,-0.000010,1.640200,0.785398
0.685389,-0.000001,-0.783075,0.000000,-2.418829,-0.000010,1.640200,0.785398
0.687372,-0.000001,-0.783112,0.000000,-2.418825,-0.000010,1.640200,0.785398
0.689353,-0.000001,-0.783150,0.000000,-2.418822,-0.000010,1.640200,0.785398
0.691381,-0.000001,-0.783187,0.000000,-2.418820,-0.000010,1.640200,0.785398
0.693378,-0.000001,-0.783225,0.000000,-2.418819,-0.000010,1.640200,0.785398
0.695323,-0.000001,-0.783263,0.000000,-2.418819,-0.000010,1.640200,0.785398
0.697324,-0.000001,-0.783301,0.000000,-2.418819,-0.000010,1.640200,0.785398
0.699365,-0.000001,-0.783339,0.000000,-2.418819,-0.000010,1.640200,0.785398
0.701362,-0.000001,-0.783377,0.000000,-2.418819,-0.000010,1.640200,0.785398
0.703359,-0.000001,-0.783414,0.000000,-2.418819,-0.000010,1.640200,0.785398
0.705362,-0.000001,-0.783452,0.000000,-2.418819,-0.000010,1.640200,0.785398
0.707394,-0.000001,-0.783489,0.000000,-2.418819,-0.000010,1.640200,0.785398
0.709356,-0.000001,-0.783526,0.000000,-2.418819,-0.000010,1.640200,0.785398
0.711396,-0.000001,-0.783563,0.000000,-2.418819,-0.000010,1.640200,0.785398
0.713374,-0.000001,-0.783600,0.000000,-2.418819,-0.000010,1.640200,0.785398
0.715360,-0.000001,-0.783636,0.000000,-2.418819,-0.000010,1.640200,0.785398
0.717358,-0.000001,-0.783672,0.000000,-2.418819,-0.000010,1.640200,0.785398
0.719358,-0.000001,-0.783708,0.000000,-2.418819,-0.000010,1.640200,0.785398
0.721363,-0.000001,-0.783744,0.000000,-2.418819,-0.000010,1.640200,0.785398
0.723353,-0.000001,-0.783780,0.000000,-2.418819,-0.000010,1.640200,0.785398
0.725361,-0.000001,-0.783816,0.000000,-2.418819,-0.000010,1.640200,0.785398
0.727358,-0.000001,-0.783851,0.000000,-2.418819,-0.000010,1.640200,0.785398
0.729357,-0.000001,-0.783886,0.000000,-2.418819,-0.000010,1.640200,0.785398
0.731358,-0.000001,-0.783921,0.000000,-2.418819,-0.000010,1.640200,0.785398
0.733356,-0.000001,-0.783956,0.000000,-2.418819,-0.000010,1.640200,0.785398
0.735358,-0.000001,-0.783991,0.000000,-2.418819,-0.000010,1.640200,0.785398
0.737357,-0.000001,-0.784025,0.000000,-2.418819,-0.000010,1.640200,0.785398
0.739358,-0.000001,-0.784060,0.000000,-2.418819,-0.000010,1.640200,0.785398
0.741334,-0.000001,-0.784094,0.000000,-2.418819,-0.000010,1.640200,0.785398
0.743366,-0.000001,-0.784128,0.000000,-2.418819,-0.000010,1.640200,0.785398
0.745362,-0.000001,-0.784162,0.000000,-2.418819,-0.000010,1.640200,0.785398
0.747349,-0.000001,-0.784195,0.000000,-2.418819,-0.000010,1.640200,0.785398
0.749346,-0.000001,-0.784228,0.000000,-2.418819,-0.000010,1.640200,0.785398
0.751362,-0.000001,-0.784262,0.000000,-2.418819,-0.000010,1.640200,0.785398
0.753359,-0.000001,-0.784295,0.000000,-2.418819,-0.000010,1.640200,0.785398
0.755326,-0.000001,-0.784327,0.000000,-2.418819,-0.000010,1.640200,0.785398
0.757693,-0.000001,-0.784360,0.000000,-2.418819,-0.000010,1.640200,0.785398
0.759371,-0.000001,-0.784392,0.000000,-2.418819,-0.000010,1.640200,0.785398
0.761326,-0.000001,-0.784425,0.000000,-2.418819,-0.000010,1.640200,0.785398
0.763325,-0.000001,-0.784457,0.000000,-2.418819,-0.000010,1.640200,0.785398
0.765323,-0.000001,-0.784488,0.000000,-2.418819,-0.000010,1.640200,0.785398
0.767334,-0.000001,-0.784520,0.000000,-2.418819,-0.000010,1.640200,0.785398
0.769324,-0.000001,-0.784552,0.000000,-2.418819,-0.000010,1.640200,0.785398
0.771330,-0.000001,-0.784583,0.000000,-2.418819,-0.000010,1.640200,0.785398
0.773324,-0.000001,-0.784614,0.000000,-2.418819,-0.000010,1.640200,0.785398
0.775323,-0.000001,-0.784645,0.000000,-2.418819,-0.000010,1.640200,0.785398
0.777323,-0.000001,-0.784675,0.000000,-2.418819,-0.000010,1.640200,0.785398
0.779322,-0.000001,-0.784706,0.000000,-2.418819,-0.000010,1.640200,0.785398
0.781335,-0.000001,-0.784736,0.000000,-2.418819,-0.000010,1.640200,0.785398
0.783324,-0.000001,-0.784766,0.000000,-2.418819,-0.000010,1.640200,0.785398
0.785323,-0.000001,-0.784796,0.000000,-2.418819,-0.000010,1.640200,0.785398
0.787324,-0.000001,-0.784826,0.000000,-2.418819,-0.000010,1.640200,0.785398
0.789273,-0.000001,-0.784855,0.000000,-2.418819,-0.000010,1.640200,0.785398
0.791407,-0.000001,-0.784884,0.000000,-2.418819,-0.000010,1.640200,0.785398
0.793363,-0.000001,-0.784914,0.000000,-2.418819,-0.000010,1.640200,0.785398
0.795365,-0.000001,-0.784942,0.000000,-2.418819,-0.000010,1.640200,0.785398
0.797290,-0.000001,-0.784957,0.000000,-2.418819,-0.000010,1.640200,0.785398
0.799338,-0.000001,-0.785000,0.000000,-2.418819,-0.000010,1.640200,0.785398
0.801388,-0.000001,-0.785028,0.000000,-2.418819,-0.000010,1.640200,0.785398
0.803326,-0.000001,-0.785042,0.000000,-2.418819,-0.000010,1.640200,0.785398
0.805401,-0.000001,-0.785084,0.000000,-2.418819,-0.000010,1.640200,0.785398
0.807372,-0.000001,-0.785098,0.000000,-2.418819,-0.000010,1.640200,0.785398
0.809381,-0.000001,-0.785125,0.000000,-2.418819,-0.000010,1.640200,0.785398
0.811350,-0.000001,-0.785153,0.000000,-2.418819,-0.000010,1.640200,0.785398
0.813358,-0.000001,-0.785180,0.000000,-2.418819,-0.000010,1.640200,0.785398
0.815373,-0.000001,-0.785207,0.000000,-2.418819,-0.000010,1.640200,0.785398
0.817331,-0.000001,-0.785233,0.000000,-2.418819,-0.000010,1.640200,0.785398
0.819379,-0.000001,-0.785260,0.000000,-2.418819,-0.000010,1.640200,0.785398
0.821364,-0.000001,-0.785286,0.000000,-2.418819,-0.000010,1.640200,0.785398
0.823324,-0.000001,-0.785312,0.000000,-2.418819,-0.000010,1.640200,0.785398
0.825326,-0.000001,-0.785338,0.000000,-2.418819,-0.000010,1.640200,0.785398
0.827358,-0.000001,-0.785364,0.000000,-2.418819,-0.000010,1.640200,0.785398
0.829359,-0.000001,-0.785389,0.000000,-2.418819,-0.000010,1.640200,0.785398
0.831405,-0.000001,-0.785415,0.000000,-2.418819,-0.000010,1.640200,0.785398
0.833355,-0.000001,-0.785440,0.000000,-2.418819,-0.000010,1.640200,0.785398
0.835348,-0.000001,-0.785452,0.000000,-2.418819,-0.000010,1.640200,0.785398
0.837390,-0.000001,-0.785489,0.000000,-2.418819,-0.000010,1.640200,0.785398
0.839384,-0.000001,-0.785514,0.000000,-2.418819,-0.000010,1.640200,0.785398
0.841451,-0.000001,-0.785538,0.000000,-2.418819,-0.000010,1.640200,0.785398
0.843396,-0.000001,-0.785562,0.000000,-2.418819,-0.000010,1.640200,0.785398
0.845365,-0.000001,-0.785586,0.000000,-2.418819,-0.000010,1.640200,0.785398
0.847362,-0.000001,-0.785610,0.000000,-2.418819,-0.000010,1.640200,0.785398
0.849363,-0.000001,-0.785633,0.000000,-2.418819,-0.000010,1.640200,0.785398
0.851356,-0.000001,-0.785656,0.000000,-2.418819,-0.000010,1.640200,0.785398
0.853332,-0.000001,-0.785679,0.000000,-2.418819,-0.000010,1.640200,0.785398
0.855333,-0.000001,-0.785702,0.000000,-2.418819,-0.000010,1.640200,0.785398
0.857336,-0.000001,-0.785725,0.000000,-2.418819,-0.000010,1.640200,0.785398
0.859461,-0.000001,-0.785747,0.000000,-2.418819,-0.000010,1.640200,0.785398
0.861352,-0.000001,-0.785769,0.000000,-2.418819,-0.000010,1.640200,0.785398
0.863369,-0.000001,-0.785791,0.000000,-2.418819,-0.000010,1.640200,0.785398
0.865374,-0.000001,-0.785813,0.000000,-2.418819,-0.000010,1.640200,0.785398
0.867326,-0.000001,-0.785834,0.000000,-2.418819,-0.000010,1.640200,0.785398
0.869329,-0.000001,-0.785855,0.000000,-2.418819,-0.000010,1.640200,0.785398
0.871417,-0.000001,-0.785876,0.000000,-2.418819,-0.000010,1.640200,0.785398
0.873418,-0.000001,-0.785897,0.000000,-2.418819,-0.000010,1.640200,0.785398
0.875392,-0.000001,-0.785918,0.000000,-2.418819,-0.000010,1.640200,0.785398
0.877358,-0.000001,-0.785938,0.000000,-2.418819,-0.000010,1.640200,0.785398
0.879466,-0.000001,-0.785959,0.000000,-2.418819,-0.000010,1.640200,0.785398
0.881478,-0.000001,-0.785979,0.000000,-2.418819,-0.000010,1.640200,0.785398
0.883350,-0.000001,-0.785998,0.000000,-2.418819,-0.000010,1.640200,0.785398
0.885355,-0.000001,-0.786018,0.000000,-2.418819,-0.000010,1.640200,0.785398
0.887327,-0.000001,-0.786037,0.000000,-2.418819,-0.000010,1.640200,0.785398
0.889325,-0.000001,-0.786056,0.000000,-2.418819,-0.000010,1.640200,0.785398
0.891328,-0.000001,-0.786075,0.000000,-2.418819,-0.000010,1.640200,0.785398
0.893321,-0.000001,-0.786094,0.000000,-2.418819,-0.000010,1.640200,0.785398
0.895276,-0.000001,-0.786112,0.000000,-2.418819,-0.000010,1.640200,0.785398
0.897448,-0.000001,-0.786131,0.000000,-2.418819,-0.000010,1.640200,0.785398
0.899408,-0.000001,-0.786149,0.000000,-2.418819,-0.000010,1.640200,0.785398
0.901423,-0.000001,-0.786166,0.000000,-2.418819,-0.000010,1.640200,0.785398
0.903309,-0.000001,-0.786184,0.000000,-2.418819,-0.000010,1.640200,0.785398
0.905447,-0.000001,-0.786201,0.000000,-2.418819,-0.000010,1.640200,0.785398
0.907427,-0.000001,-0.786219,0.000000,-2.418819,-0.000010,1.640200,0.785398
0.909424,-0.000001,-0.786236,0.000000,-2.418819,-0.000010,1.640200,0.785398
0.911350,-0.000001,-0.786252,0.000000,-2.418819,-0.000010,1.640200,0.785398
0.913381,-0.000001,-0.786261,0.000000,-2.418819,-0.000010,1.640200,0.785398
0.915323,-0.000001,-0.786277,0.000000,-2.418819,-0.000010,1.640200,0.785398
0.917301,-0.000001,-0.786293,0.000000,-2.418819,-0.000010,1.640200,0.785398
0.919309,-0.000001,-0.786309,0.000000,-2.418819,-0.000010,1.640200,0.785398
0.921305,-0.000001,-0.786325,0.000000,-2.418819,-0.000010,1.640200,0.785398
0.923337,-0.000001,-0.786340,0.000000,-2.418819,-0.000010,1.640200,0.785398
0.925327,-0.000001,-0.786356,0.000000,-2.418819,-0.000010,1.640200,0.785398
0.927357,-0.000001,-0.786371,0.000000,-2.418819,-0.000010,1.640200,0.785398
0.929358,-0.000001,-0.786386,0.000000,-2.418819,-0.000010,1.640200,0.785398
0.931342,-0.000001,-0.786400,0.000000,-2.418819,-0.000010,1.640200,0.785398
0.933422,-0.000001,-0.786415,0.000000,-2.418819,-0.000010,1.640200,0.785398
0.935326,-0.000001,-0.786429,0.000000,-2.418819,-0.000010,1.640200,0.785398
0.937364,-0.000001,-0.786443,0.000000,-2.418819,-0.000010,1.640200,0.785398
0.939371,-0.000001,-0.786456,0.000000,-2.418819,-0.000010,1.640200,0.785398
0.941360,-0.000001,-0.786470,0.000000,-2.418819,-0.000010,1.640200,0.785398
0.943377,-0.000001,-0.786483,0.000000,-2.418819,-0.000010,1.640200,0.785398
0.945426,-0.000001,-0.786496,0.000000,-2.418819,-0.000010,1.640200,0.785398
0.947402,-0.000001,-0.786509,0.000000,-2.418819,-0.000010,1.640200,0.785398
0.949397,-0.000001,-0.786522,0.000000,-2.418819,-0.000010,1.640200,0.785398
0.951443,-0.000001,-0.786534,0.000000,-2.418819,-0.000010,1.640200,0.785398
0.953361,-0.000001,-0.786546,0.000000,-2.418819,-0.000010,1.640200,0.785398
0.955361,-0.000001,-0.786558,0.000000,-2.418819,-0.000010,1.640200,0.785398
0.957359,-0.000001,-0.786570,0.000000,-2.418819,-0.000010,1.640200,0.785398
0.959361,-0.000001,-0.786582,0.000000,-2.418819,-0.000010,1.640200,0.785398
0.961365,-0.000001,-0.786593,0.000000,-2.418819,-0.000010,1.640200,0.785398
0.963331,-0.000001,-0.786604,0.000000,-2.418819,-0.000010,1.640200,0.785398
0.965388,-0.000001,-0.786615,0.000000,-2.418819,-0.000010,1.640200,0.785398
0.967365,-0.000001,-0.786626,0.000000,-2.418819,-0.000010,1.640200,0.785398
0.969430,-0.000001,-0.786636,0.000000,-2.418819,-0.000010,1.640200,0.785398
0.971408,-0.000001,-0.786646,0.000000,-2.418819,-0.000010,1.640200,0.785398
0.973360,-0.000001,-0.786656,0.000000,-2.418819,-0.000010,1.640200,0.785398
0.975357,-0.000001,-0.786666,0.000000,-2.418819,-0.000010,1.640200,0.785398
0.977357,-0.000001,-0.786675,0.000000,-2.418819,-0.000010,1.640200,0.785398
0.979357,-0.000001,-0.786685,0.000000,-2.418819,-0.000010,1.640200,0.785398
0.981327,-0.000001,-0.786694,0.000000,-2.418819,-0.000010,1.640200,0.785398
0.983356,-0.000001,-0.786703,0.000000,-2.418819,-0.000010,1.640200,0.785398
0.985373,-0.000001,-0.786711,0.000000,-2.418819,-0.000010,1.640200,0.785398
0.987409,-0.000001,-0.786720,0.000000,-2.418819,-0.000010,1.640200,0.785398
0.989348,-0.000001,-0.786728,0.000000,-2.418819,-0.000010,1.640200,0.785398
0.991344,-0.000001,-0.786736,0.000000,-2.418819,-0.000010,1.640200,0.785398
0.993369,-0.000001,-0.786744,0.000000,-2.418819,-0.000010,1.640200,0.785398
0.995396,-0.000001,-0.786751,0.000000,-2.418819,-0.000010,1.640200,0.785398
0.997330,-0.000001,-0.786759,0.000000,-2.418819,-0.000010,1.640200,0.785398
0.999363,-0.000001,-0.786766,0.000000,-2.418819,-0.000010,1.640200,0.785398
1.001389,-0.000001,-0.786772,0.000000,-2.418819,-0.000010,1.640200,0.785398
1.003343,-0.000001,-0.786779,0.000000,-2.418819,-0.000010,1.640200,0.785398
1.005359,-0.000001,-0.786786,0.000000,-2.418819,-0.000010,1.640200,0.785398
1.007336,-0.000001,-0.786792,0.000000,-2.418819,-0.000010,1.640200,0.785398
1.009334,-0.000001,-0.786798,0.000000,-2.418819,-0.000010,1.640200,0.785398
1.011332,-0.000001,-0.786803,0.000000,-2.418819,-0.000010,1.640200,0.785398
1.013440,-0.000001,-0.786809,0.000000,-2.418819,-0.000010,1.640200,0.785398
1.015296,-0.000001,-0.786814,0.000000,-2.418819,-0.000010,1.640200,0.785398
1.017328,-0.000001,-0.786819,0.000000,-2.418819,-0.000010,1.640200,0.785398
1.019327,-0.000001,-0.786824,0.000000,-2.418819,-0.000010,1.640200,0.785398
1.021328,-0.000001,-0.786829,0.000000,-2.418819,-0.000010,1.640200,0.785398
1.023334,-0.000001,-0.786833,0.000000,-2.418819,-0.000010,1.640200,0.785398
1.025344,-0.000001,-0.786837,0.000000,-2.418819,-0.000010,1.640200,0.785398
1.027389,-0.000001,-0.786841,0.000000,-2.418819,-0.000010,1.640200,0.785398
1.029329,-0.000001,-0.786845,0.000000,-2.418819,-0.000010,1.640200,0.785398
1.031330,-0.000001,-0.786849,0.000000,-2.418819,-0.000010,1.640200,0.785398
1.033332,-0.000001,-0.786852,0.000000,-2.418819,-0.000010,1.640200,0.785398
1.035326,-0.000001,-0.786855,0.000000,-2.418819,-0.000010,1.640200,0.785398
1.037362,-0.000001,-0.786858,0.000000,-2.418819,-0.000010,1.640200,0.785398
1.039314,-0.000001,-0.786861,0.000000,-2.418819,-0.000010,1.640200,0.785398
1.041364,-0.000001,-0.786863,0.000000,-2.418819,-0.000010,1.640200,0.785398
1.043526,-0.000001,-0.786865,0.000000,-2.418819,-0.000010,1.640200,0.785398
1.045616,-0.000001,-0.786867,0.000000,-2.418819,-0.000010,1.640200,0.785398
1.047394,-0.000001,-0.786869,0.000000,-2.418819,-0.000010,1.640200,0.785398
1.049332,-0.000001,-0.786870,0.000000,-2.418819,-0.000010,1.640200,0.785398
1.051334,-0.000001,-0.786871,0.000000,-2.418819,-0.000010,1.640200,0.785398
1.053337,-0.000001,-0.786872,0.000000,-2.418819,-0.000010,1.640200,0.785398
1.055439,-0.000001,-0.786873,0.000000,-2.418819,-0.000010,1.640200,0.785398
1.057470,-0.000001,-0.786874,0.000000,-2.418819,-0.000010,1.640200,0.785398
1.059404,-0.000001,-0.786875,0.000000,-2.418819,-0.000010,1.640200,0.785398
1.061354,-0.000001,-0.786875,0.000000,-2.418819,-0.000010,1.640200,0.785398
1.063343,-0.000001,-0.786875,0.000000,-2.418819,-0.000010,1.640200,0.785398
1.065394,-0.000001,-0.786875,0.000000,-2.418819,-0.000010,1.640200,0.785398
1.067413,-0.000001,-0.786875,0.000000,-2.418819,-0.000010,1.640200,0.785398
1.069340,-0.000001,-0.786875,0.000000,-2.418819,-0.000010,1.640200,0.785398
1.071376,-0.000001,-0.786875,0.000000,-2.418819,-0.000010,1.640200,0.785398
1.073367,-0.000001,-0.786875,0.000000,-2.418819,-0.000010,1.640200,0.785398
1.075393,-0.000001,-0.786875,0.000000,-2.418819,-0.000010,1.640200,0.785398
1.077366,-0.000001,-0.786875,0.000000,-2.418819,-0.000010,1.640200,0.785398
1.079375,-0.000001,-0.786875,0.000000,-2.418819,-0.000010,1.640200,0.785398
1.081329,-0.000001,-0.786875,0.000000,-2.418819,-0.000010,1.640200,0.785398
1.083385,-0.000001,-0.786875,0.000000,-2.418819,-0.000010,1.640200,0.785398
1.085328,-0.000001,-0.786875,0.000000,-2.418819,-0.000010,1.640200,0.785398
1.087497,-0.000001,-0.786875,0.000000,-2.418819,-0.000010,1.640200,0.785398
1.089414,-0.000001,-0.786875,0.000000,-2.418819,-0.000010,1.640200,0.785398
1.091344,-0.000001,-0.786875,0.000000,-2.418819,-0.000010,1.640200,0.785398
1.093427,-0.000001,-0.786875,0.000000,-2.418819,-0.000010,1.640200,0.785398
1.095341,-0.000001,-0.786875,0.000000,-2.418819,-0.000010,1.640200,0.785398
1.097333,-0.000001,-0.786875,0.000000,-2.418819,-0.000010,1.640200,0.785398
1.099364,-0.000001,-0.786875,0.000000,-2.418819,-0.000010,1.640200,0.785398
1.101422,-0.000001,-0.786875,0.000000,-2.418819,-0.000010,1.640200,0.785398
1.103380,-0.000001,-0.786875,0.000000,-2.418819,-0.000010,1.640200,0.785398
1.105414,-0.000001,-0.786875,0.000000,-2.418819,-0.000010,1.640200,0.785398
1.107386,-0.000001,-0.786875,0.000000,-2.418819,-0.000010,1.640200,0.785398
1.109378,-0.000001,-0.786875,0.000000,-2.418819,-0.000010,1.640200,0.785398
1.111365,-0.000001,-0.786875,0.000000,-2.418819,-0.000010,1.640200,0.785398
1.113414,-0.000001,-0.786875,0.000000,-2.418819,-0.000010,1.640200,0.785398
1.115349,-0.000001,-0.786875,0.000000,-2.418819,-0.000010,1.640200,0.785398
1.117356,-0.000001,-0.786875,0.000000,-2.418819,-0.000010,1.640200,0.785398
1.119345,-0.000001,-0.786875,0.000000,-2.418819,-0.000010,1.640200,0.785398
1.121378,-0.000001,-0.786875,0.000000,-2.418819,-0.000010,1.640200,0.785398
1.123383,-0.000001,-0.786875,0.000000,-2.418819,-0.000010,1.640200,0.785398
1.125366,-0.000001,-0.786875,0.000000,-2.418819,-0.000010,1.640200,0.785398
1.127392,-0.000001,-0.786875,0.000000,-2.418819,-0.000010,1.640200,0.785398
1.129419,-0.000001,-0.786875,0.000000,-2.418819,-0.000010,1.640200,0.785398
1.131363,-0.000001,-0.786875,0.000000,-2.418819,-0.000010,1.640200,0.785398
1.133360,-0.000001,-0.786875,0.000000,-2.418819,-0.000010,1.640200,0.785398
1.135359,-0.000001,-0.786875,0.000000,-2.418819,-0.000010,1.640200,0.785398
1.137365,-0.000001,-0.786875,0.000000,-2.418819,-0.000010,1.640200,0.785398
1.139359,-0.000001,-0.786875,0.000000,-2.418819,-0.000010,1.640200,0.785398
1.141359,-0.000001,-0.786875,0.000000,-2.418819,-0.000010,1.640200,0.785398
1.143363,-0.000001,-0.786875,0.000000,-2.418819,-0.000010,1.640200,0.785398
1.145341,-0.000001,-0.786875,0.000000,-2.418819,-0.000010,1.640200,0.785398
1.147335,-0.000001,-0.786875,0.000000,-2.418819,-0.000010,1.640200,0.785398
1.149360,-0.000001,-0.786875,0.000000,-2.418819,-0.000010,1.640200,0.785398
1.151366,-0.000001,-0.786875,0.000000,-2.418819,-0.000010,1.640200,0.785398
1.153372,-0.000001,-0.786875,0.000000,-2.418819,-0.000010,1.640200,0.785398
1.155360,-0.000001,-0.786875,0.000000,-2.418819,-0.000010,1.640200,0.785398
1.157364,-0.000001,-0.786875,0.000000,-2.418819,-0.000010,1.640200,0.785398
1.159365,-0.000001,-0.786875,0.000000,-2.418819,-0.000010,1.640200,0.785398
1.161363,-0.000001,-0.786875,0.000000,-2.418819,-0.000010,1.640200,0.785398
1.163361,-0.000001,-0.786875,0.000000,-2.418819,-0.000010,1.640200,0.785398
1.165360,-0.000001,-0.786875,0.000000,-2.418819,-0.000010,1.640200,0.785398
1.167358,-0.000001,-0.786875,0.000000,-2.418819,-0.000010,1.640200,0.785398
1.169359,-0.000001,-0.786875,0.000000,-2.418819,-0.000010,1.640200,0.785398
1.171343,-0.000001,-0.786875,0.000000,-2.418819,-0.000010,1.640200,0.785398
1.173379,-0.000001,-0.786875,0.000000,-2.418819,-0.000010,1.640200,0.785398
1.175366,-0.000001,-0.786875,0.000000,-2.418819,-0.000010,1.640200,0.785398
1.177372,-0.000001,-0.786875,0.000000,-2.418819,-0.000010,1.640200,0.785398
1.179353,-0.000001,-0.786875,0.000000,-2.418819,-0.000010,1.640200,0.785398
1.181360,-0.000001,-0.786875,0.000000,-2.418819,-0.000010,1.640200,0.785398
1.183358,-0.000001,-0.786875,0.000000,-2.418819,-0.000010,1.640200,0.785398
1.185358,-0.000001,-0.786875,0.000000,-2.418819,-0.000010,1.640200,0.785398
1.187358,-0.000001,-0.786875,0.000000,-2.418819,-0.000010,1.640200,0.785398
1.189356,-0.000001,-0.786875,0.000000,-2.418819,-0.000010,1.640200,0.785398
1.191357,-0.000001,-0.786875,0.000000,-2.418819,-0.000010,1.640200,0.785398
1.193327,-0.000001,-0.786875,0.000000,-2.418819,-0.000010,1.640200,0.785398
1.195453,-0.000001,-0.786875,0.000000,-2.418819,-0.000010,1.640200,0.785398
1.197381,-0.000001,-0.786875,0.000000,-2.418819,-0.000010,1.640200,0.785398
1.199357,-0.000001,-0.786875,0.000000,-2.418819,-0.000010,1.640200,0.785398
1.201357,-0.000001,-0.786875,0.000000,-2.418819,-0.000010,1.640200,0.785398
1.203355,-0.000001,-0.786875,0.000000,-2.418819,-0.000010,1.640200,0.785398
1.205337,-0.000001,-0.786875,0.000000,-2.418819,-0.000010,1.640200,0.785398
1.207498,-0.000001,-0.786875,0.000000,-2.418819,-0.000010,1.640200,0.785398
1.209353,-0.000001,-0.786875,0.000000,-2.418819,-0.000010,1.640200,0.785398
1.211347,-0.000001,-0.786875,0.000000,-2.418819,-0.000010,1.640200,0.785398
1.213361,-0.000001,-0.786875,0.000000,-2.418819,-0.000010,1.640200,0.785398
1.215543,-0.000001,-0.786875,0.000000,-2.418819,-0.000010,1.640200,0.785398
1.217335,-0.000001,-0.786875,0.000000,-2.418819,-0.000010,1.640200,0.785398
1.219366,-0.000001,-0.786875,0.000000,-2.418819,-0.000010,1.640200,0.785398
1.221326,-0.000001,-0.786875,0.000000,-2.418819,-0.000010,1.640200,0.785398
1.223449,-0.000001,-0.786875,0.000000,-2.418819,-0.000010,1.640200,0.785398
1.225330,-0.000001,-0.786875,0.000000,-2.418819,-0.000010,1.640200,0.785398
1.227333,-0.000001,-0.786875,0.000000,-2.418819,-0.000010,1.640200,0.785398
1.229352,-0.000001,-0.786875,0.000000,-2.418819,-0.000010,1.640200,0.785398
1.231389,-0.000001,-0.786875,0.000000,-2.418819,-0.000010,1.640200,0.785398
1.233324,-0.000001,-0.786875,0.000000,-2.418819,-0.000010,1.640200,0.785398
1.235325,-0.000001,-0.786875,0.000000,-2.418819,-0.000010,1.640200,0.785398
1.237464,-0.000001,-0.786875,0.000000,-2.418819,-0.000010,1.640200,0.785398
1.239326,-0.000001,-0.786875,0.000000,-2.418819,-0.000010,1.640200,0.785398
1.241346,-0.000001,-0.786875,0.000000,-2.418819,-0.000010,1.640200,0.785398
1.243329,-0.000001,-0.786875,0.000000,-2.418819,-0.000010,1.640200,0.785398
1.245359,-0.000001,-0.786875,0.000000,-2.418819,-0.000010,1.640200,0.785398
1.247325,-0.000001,-0.786875,0.000000,-2.418819,-0.000010,1.640200,0.785398
1.249361,-0.000001,-0.786875,0.000000,-2.418819,-0.000010,1.640200,0.785398
1.251432,-0.000001,-0.786875,0.000000,-2.418819,-0.000010,1.640200,0.785398
1.253393,-0.000001,-0.786875,0.000000,-2.418819,-0.000010,1.640200,0.785398
1.255431,-0.000001,-0.786875,0.000000,-2.418819,-0.000010,1.640200,0.785398
1.257307,-0.000001,-0.786875,0.000000,-2.418819,-0.000010,1.640200,0.785398
1.259317,-0.000001,-0.786875,0.000000,-2.418819,-0.000010,1.640200,0.785398
1.261362,-0.000001,-0.786875,0.000000,-2.418819,-0.000010,1.640200,0.785398
1.263354,-0.000001,-0.786875,0.000000,-2.418819,-0.000010,1.640200,0.785398
1.265355,-0.000001,-0.786875,0.000000,-2.418819,-0.000010,1.640200,0.785398
1.267364,-0.000001,-0.786875,0.000000,-2.418819,-0.000010,1.640200,0.785398
1.269409,-0.000001,-0.786875,0.000000,-2.418819,-0.000010,1.640200,0.785398
1.271518,-0.000001,-0.786875,0.000000,-2.418819,-0.000010,1.640200,0.785398
1.273327,-0.000001,-0.786875,0.000000,-2.418819,-0.000010,1.640200,0.785398
1.275400,-0.000001,-0.786875,0.000000,-2.418819,-0.000010,1.640200,0.785398
1.277405,-0.000001,-0.786875,0.000000,-2.418819,-0.000010,1.640200,0.785398
1.279395,-0.000001,-0.786875,0.000000,-2.418819,-0.000010,1.640200,0.785398
1.281382,-0.000001,-0.786875,0.000000,-2.418819,-0.000010,1.640200,0.785398
1.283394,-0.000001,-0.786875,0.000000,-2.418819,-0.000010,1.640200,0.785398
1.285387,-0.000001,-0.786875,0.000000,-2.418819,-0.000010,1.640200,0.785398
1.287389,-0.000001,-0.786875,0.000000,-2.418819,-0.000010,1.640200,0.785398
1.289381,-0.000001,-0.786875,0.000000,-2.418819,-0.000010,1.640200,0.785398
1.291377,-0.000001,-0.786875,0.000000,-2.418819,-0.000010,1.640200,0.785398
1.293416,-0.000001,-0.786875,0.000000,-2.418819,-0.000010,1.640200,0.785398
1.295363,-0.000001,-0.786875,0.000000,-2.418819,-0.000010,1.640200,0.785398
1.297390,-0.000001,-0.786875,0.000000,-2.418819,-0.000010,1.640200,0.785398
1.299362,-0.000001,-0.786875,0.000000,-2.418819,-0.000010,1.640200,0.785398
1.301372,-0.000001,-0.786875,0.000000,-2.418819,-0.000010,1.640200,0.785398
1.303366,-0.000001,-0.786875,0.000000,-2.418819,-0.000010,1.640200,0.785398
1.305409,-0.000001,-0.786875,0.000000,-2.418819,-0.000010,1.640200,0.785398
1.307362,-0.000001,-0.786875,0.000000,-2.418819,-0.000010,1.640200,0.785398
1.309359,-0.000001,-0.786875,0.000000,-2.418819,-0.000010,1.640200,0.785398
1.311326,-0.000001,-0.786875,0.000000,-2.418819,-0.000010,1.640200,0.785398
1.313362,-0.000001,-0.786875,0.000000,-2.418819,-0.000010,1.640200,0.785398
1.315362,-0.000001,-0.786875,0.000000,-2.418819,-0.000010,1.640200,0.785398
1.317361,-0.000001,-0.786875,0.000000,-2.418819,-0.000010,1.640200,0.785398
1.319360,-0.000001,-0.786875,0.000000,-2.418819,-0.000010,1.640200,0.785398
1.321357,-0.000001,-0.786875,0.000000,-2.418819,-0.000010,1.640200,0.785398
1.323355,-0.000001,-0.786875,0.000000,-2.418819,-0.000010,1.640200,0.785398
1.325359,-0.000001,-0.786875,0.000000,-2.418819,-0.000010,1.640200,0.785398
1.327338,-0.000001,-0.786875,0.000000,-2.418819,-0.000010,1.640200,0.785398
1.329347,-0.000001,-0.786875,0.000000,-2.418819,-0.000010,1.640200,0.785398
1.331340,-0.000001,-0.786875,0.000000,-2.418819,-0.000010,1.640200,0.785398
1.333380,-0.000001,-0.786875,0.000000,-2.418819,-0.000010,1.640200,0.785398
1.335425,-0.000001,-0.786875,0.000000,-2.418819,-0.000010,1.640200,0.785398
1.337382,-0.000001,-0.786875,0.000000,-2.418819,-0.000010,1.640200,0.785398
1.339363,-0.000001,-0.786875,0.000000,-2.418819,-0.000010,1.640200,0.785398
1.341342,-0.000001,-0.786875,0.000000,-2.418819,-0.000010,1.640200,0.785398
1.343344,-0.000001,-0.786875,0.000000,-2.418819,-0.000010,1.640200,0.785398
1.345333,-0.000001,-0.786875,0.000000,-2.418819,-0.000010,1.640200,0.785398
1.347335,-0.000001,-0.786875,0.000000,-2.418819,-0.000010,1.640200,0.785398
1.349340,-0.000001,-0.786875,0.000000,-2.418819,-0.000010,1.640200,0.785398
1.351505,-0.000001,-0.786875,0.000000,-2.418819,-0.000010,1.640200,0.785398
1.353365,-0.000001,-0.786875,0.000000,-2.418819,-0.000010,1.640200,0.785398
1.355377,-0.000001,-0.786875,0.000000,-2.418819,-0.000010,1.640200,0.785398
1.357366,-0.000001,-0.786875,0.000000,-2.418819,-0.000010,1.640200,0.785398
1.359360,-0.000001,-0.786875,0.000000,-2.418819,-0.000010,1.640200,0.785398
1.361364,-0.000001,-0.786875,0.000000,-2.418819,-0.000010,1.640200,0.785398
1.363361,-0.000001,-0.786875,0.000000,-2.418819,-0.000010,1.640200,0.785398
1.365329,-0.000001,-0.786875,0.000000,-2.418819,-0.000010,1.640200,0.785398
1.367362,-0.000001,-0.786875,0.000000,-2.418819,-0.000010,1.640200,0.785398
1.369322,-0.000001,-0.786875,0.000000,-2.418819,-0.000010,1.640200,0.785398
1.371364,-0.000001,-0.786875,0.000000,-2.418819,-0.000010,1.640200,0.785398
1.373360,-0.000001,-0.786875,0.000000,-2.418819,-0.000010,1.640200,0.785398
1.375407,-0.000001,-0.786875,0.000000,-2.418819,-0.000010,1.640200,0.785398
1.377365,-0.000001,-0.786875,0.000000,-2.418819,-0.000010,1.640200,0.785398
1.379365,-0.000001,-0.786875,0.000000,-2.418819,-0.000010,1.640200,0.785398
1.381324,-0.000001,-0.786875,0.000000,-2.418819,-0.000010,1.640200,0.785398
1.383356,-0.000001,-0.786875,0.000000,-2.418819,-0.000010,1.640200,0.785398
1.385327,-0.000001,-0.786875,0.000000,-2.418819,-0.000010,1.640200,0.785398
1.387337,-0.000001,-0.786875,0.000000,-2.418819,-0.000010,1.640200,0.785398
1.389324,-0.000001,-0.786875,0.000000,-2.418819,-0.000010,1.640200,0.785398
1.391333,-0.000001,-0.786875,0.000000,-2.418819,-0.000010,1.640200,0.785398
1.393362,-0.000001,-0.786875,0.000000,-2.418819,-0.000010,1.640200,0.785398
1.395322,-0.000001,-0.786875,0.000000,-2.418819,-0.000010,1.640200,0.785398
1.397357,-0.000001,-0.786875,0.000000,-2.418819,-0.000010,1.640200,0.785398
1.399323,-0.000001,-0.786875,0.000000,-2.418819,-0.000010,1.640200,0.785398
1.401323,-0.000001,-0.786875,0.000000,-2.418819,-0.000010,1.640200,0.785398
1.403322,-0.000001,-0.786875,0.000000,-2.418819,-0.000010,1.640200,0.785398
1.405331,-0.000001,-0.786875,0.000000,-2.418819,-0.000010,1.640200,0.785398
1.407335,-0.000001,-0.786875,0.000000,-2.418819,-0.000010,1.640200,0.785398
1.409325,-0.000001,-0.786875,0.000000,-2.418819,-0.000010,1.640200,0.785398
1.411345,-0.000001,-0.786875,0.000000,-2.418819,-0.000010,1.640200,0.785398
1.413326,-0.000001,-0.786875,0.000000,-2.418819,-0.000010,1.640200,0.785398
1.415324,-0.000001,-0.786875,0.000000,-2.418819,-0.000010,1.640200,0.785398
1.417324,-0.000001,-0.786875,0.000000,-2.418819,-0.000010,1.640200,0.785398
1.419429,-0.000001,-0.786875,0.000000,-2.418819,-0.000010,1.640200,0.785398
1.421427,-0.000001,-0.786875,0.000000,-2.418819,-0.000010,1.640200,0.785398
1.423374,-0.000001,-0.786875,0.000000,-2.418819,-0.000010,1.640200,0.785398
1.425352,-0.000001,-0.786875,0.000000,-2.418819,-0.000010,1.640200,0.785398
1.427469,-0.000001,-0.786875,0.000000,-2.418819,-0.000010,1.640200,0.785398
1.429478,-0.000001,-0.786875,0.000000,-2.418819,-0.000010,1.640200,0.785398
1.431463,-0.000001,-0.786875,0.000000,-2.418819,-0.000010,1.640200,0.785398
1.433321,-0.000001,-0.786875,0.000000,-2.418819,-0.000010,1.640200,0.785398
1.435335,-0.000001,-0.786875,0.000001,-2.418819,-0.000010,1.640200,0.785398
1.437358,-0.000001,-0.786875,0.000001,-2.418819,-0.000010,1.640200,0.785398
1.439355,-0.000001,-0.786875,0.000001,-2.418819,-0.000010,1.640200,0.785398
1.441359,-0.000001,-0.786875,0.000001,-2.418819,-0.000010,1.640200,0.785398
1.443342,-0.000001,-0.786875,0.000001,-2.418819,-0.000010,1.640200,0.785398
1.445364,-0.000001,-0.786875,0.000001,-2.418819,-0.000010,1.640200,0.785398
1.447324,-0.000001,-0.786875,0.000001,-2.418819,-0.000010,1.640200,0.785398
1.449410,-0.000001,-0.786875,0.000001,-2.418819,-0.000010,1.640200,0.785398
1.451349,-0.000001,-0.786875,0.000001,-2.418819,-0.000010,1.640200,0.785398
1.453391,-0.000001,-0.786875,0.000001,-2.418819,-0.000010,1.640200,0.785398
1.455341,-0.000001,-0.786875,0.000001,-2.418819,-0.000010,1.640200,0.785398
1.457400,-0.000001,-0.786875,0.000002,-2.418819,-0.000010,1.640200,0.785398
1.459345,-0.000001,-0.786875,0.000002,-2.418819,-0.000010,1.640200,0.785398
1.461362,-0.000001,-0.786875,0.000002,-2.418819,-0.000010,1.640200,0.785398
1.463343,-0.000001,-0.786875,0.000002,-2.418819,-0.000010,1.640200,0.785398
1.465327,-0.000001,-0.786875,0.000002,-2.418819,-0.000010,1.640200,0.785398
1.467331,-0.000001,-0.786875,0.000002,-2.418819,-0.000010,1.640200,0.785398
1.469337,-0.000001,-0.786875,0.000002,-2.418819,-0.000010,1.640200,0.785398
1.471394,-0.000000,-0.786875,0.000003,-2.418819,-0.000010,1.640200,0.785398
1.473418,-0.000000,-0.786875,0.000003,-2.418819,-0.000010,1.640200,0.785398
1.475333,-0.000000,-0.786875,0.000003,-2.418819,-0.000010,1.640200,0.785398
1.477362,-0.000000,-0.786875,0.000003,-2.418819,-0.000010,1.640200,0.785398
1.479352,-0.000000,-0.786875,0.000003,-2.418819,-0.000010,1.640200,0.785398
1.481329,-0.000000,-0.786875,0.000004,-2.418819,-0.000010,1.640200,0.785398
1.483393,-0.000000,-0.786875,0.000004,-2.418819,-0.000010,1.640200,0.785398
1.485393,-0.000000,-0.786875,0.000004,-2.418819,-0.000010,1.640200,0.785398
1.487345,0.000000,-0.786875,0.000004,-2.418819,-0.000010,1.640200,0.785398
1.489390,0.000000,-0.786875,0.000004,-2.418819,-0.000010,1.640200,0.785398
1.491388,0.000000,-0.786875,0.000005,-2.418819,-0.000010,1.640200,0.785398
1.493339,0.000000,-0.786875,0.000005,-2.418819,-0.000010,1.640200,0.785398
1.495351,0.000000,-0.786875,0.000005,-2.418819,-0.000010,1.640200,0.785398
1.497329,0.000001,-0.786875,0.000005,-2.418819,-0.000010,1.640200,0.785398
1.499332,0.000001,-0.786875,0.000006,-2.418819,-0.000010,1.640200,0.785398
1.501350,0.000001,-0.786875,0.000006,-2.418819,-0.000010,1.640200,0.785398
1.503349,0.000001,-0.786875,0.000006,-2.418819,-0.000010,1.640200,0.785398
1.505308,0.000001,-0.786875,0.000006,-2.418819,-0.000010,1.640200,0.785398
1.507424,0.000001,-0.786875,0.000007,-2.418819,-0.000010,1.640200,0.785398
1.509329,0.000001,-0.786875,0.000007,-2.418819,-0.000010,1.640200,0.785398
1.511330,0.000002,-0.786875,0.000007,-2.418819,-0.000010,1.640200,0.785398
1.513329,0.000002,-0.786875,0.000008,-2.418819,-0.000010,1.640200,0.785398
1.515403,0.000002,-0.786875,0.000008,-2.418819,-0.000010,1.640200,0.785398
1.517355,0.000002,-0.786875,0.000008,-2.418819,-0.000010,1.640200,0.785398
1.519302,0.000002,-0.786875,0.000008,-2.418819,-0.000010,1.640200,0.785398
1.521373,0.000003,-0.786875,0.000009,-2.418819,-0.000010,1.640200,0.785398
1.523288,0.000003,-0.786875,0.000009,-2.418819,-0.000010,1.640200,0.785398
1.525332,0.000003,-0.786875,0.000009,-2.418819,-0.000010,1.640200,0.785398
1.527338,0.000003,-0.786875,0.000010,-2.418819,-0.000010,1.640200,0.785398
1.529306,0.000003,-0.786875,0.000010,-2.418819,-0.000010,1.640200,0.785398
1.531306,0.000004,-0.786875,0.000010,-2.418819,-0.000010,1.640200,0.785398
1.533381,0.000004,-0.786875,0.000011,-2.418819,-0.000010,1.640200,0.785398
1.535350,0.000004,-0.786875,0.000011,-2.418819,-0.000010,1.640200,0.785398
1.537388,0.000004,-0.786875,0.000011,-2.418819,-0.000010,1.640200,0.785398
1.539327,0.000005,-0.786875,0.000012,-2.418819,-0.000010,1.640200,0.785398
1.541396,0.000005,-0.786875,0.000012,-2.418819,-0.000010,1.640200,0.785398
1.543364,0.000005,-0.786875,0.000013,-2.418819,-0.000010,1.640200,0.785398
1.545335,0.000006,-0.786875,0.000013,-2.418819,-0.000010,1.640200,0.785398
1.547355,0.000006,-0.786875,0.000013,-2.418819,-0.000010,1.640200,0.785398
1.549360,0.000006,-0.786875,0.000014,-2.418819,-0.000010,1.640200,0.785398
1.551380,0.000006,-0.786875,0.000014,-2.418819,-0.000010,1.640200,0.785398
1.553496,0.000007,-0.786875,0.000015,-2.418819,-0.000010,1.640200,0.785398
1.555380,0.000007,-0.786875,0.000015,-2.418819,-0.000010,1.640200,0.785398
1.557380,0.000007,-0.786875,0.000016,-2.418819,-0.000010,1.640200,0.785398
1.559389,0.000008,-0.786875,0.000016,-2.418819,-0.000010,1.640200,0.785398
1.561363,0.000008,-0.786875,0.000016,-2.418819,-0.000010,1.640200,0.785398
1.563419,0.000009,-0.786875,0.000017,-2.418819,-0.000010,1.640200,0.785398
1.565509,0.000009,-0.786875,0.000017,-2.418819,-0.000010,1.640200,0.785398
1.567343,0.000009,-0.786875,0.000018,-2.418819,-0.000010,1.640200,0.785398
1.569377,0.000010,-0.786875,0.000018,-2.418819,-0.000010,1.640200,0.785398
1.571375,0.000010,-0.786875,0.000019,-2.418819,-0.000010,1.640200,0.785398
1.573372,0.000010,-0.786875,0.000019,-2.418819,-0.000010,1.640200,0.785398
1.575349,0.000011,-0.786875,0.000020,-2.418819,-0.000010,1.640200,0.785398
1.577402,0.000011,-0.786875,0.000020,-2.418819,-0.000010,1.640200,0.785398
1.579360,0.000012,-0.786875,0.000021,-2.418819,-0.000010,1.640200,0.785398
1.581340,0.000012,-0.786875,0.000021,-2.418819,-0.000010,1.640200,0.785398
1.583342,0.000013,-0.786875,0.000022,-2.418819,-0.000010,1.640200,0.785398
1.585361,0.000013,-0.786875,0.000022,-2.418819,-0.000010,1.640200,0.785398
1.587365,0.000013,-0.786875,0.000023,-2.418819,-0.000010,1.640200,0.785398
1.589429,0.000014,-0.786875,0.000023,-2.418819,-0.000010,1.640200,0.785398
1.591364,0.000014,-0.786875,0.000024,-2.418819,-0.000010,1.640200,0.785398
1.593366,0.000015,-0.786875,0.000025,-2.418819,-0.000010,1.640200,0.785398
1.595387,0.000015,-0.786875,0.000025,-2.418819,-0.000010,1.640200,0.785398
1.597328,0.000016,-0.786875,0.000026,-2.418819,-0.000010,1.640200,0.785398
1.599360,0.000016,-0.786875,0.000026,-2.418819,-0.000010,1.640200,0.785398
1.601364,0.000017,-0.786875,0.000027,-2.418819,-0.000010,1.640200,0.785398
1.603358,0.000017,-0.786875,0.000027,-2.418819,-0.000010,1.640200,0.785398
1.605361,0.000018,-0.786875,0.000028,-2.418819,-0.000010,1.640200,0.785398
1.607356,0.000018,-0.786875,0.000029,-2.418819,-0.000010,1.640200,0.785398
1.609329,0.000019,-0.786875,0.000029,-2.418819,-0.000010,1.640200,0.785398
1.611359,0.000019,-0.786875,0.000030,-2.418819,-0.000010,1.640200,0.785398
1.613360,0.000020,-0.786875,0.000030,-2.418819,-0.000010,1.640200,0.785398
1.615358,0.000020,-0.786875,0.000031,-2.418819,-0.000010,1.640200,0.785398
1.617360,0.000021,-0.786875,0.000032,-2.418819,-0.000010,1.640200,0.785398
1.619362,0.000021,-0.786875,0.000032,-2.418819,-0.000010,1.640200,0.785398
1.621361,0.000022,-0.786875,0.000033,-2.418819,-0.000010,1.640200,0.785398
1.623360,0.000022,-0.786875,0.000034,-2.418819,-0.000010,1.640200,0.785398
1.625356,0.000022,-0.786875,0.000034,-2.418819,-0.000010,1.640200,0.785398
1.627360,0.000023,-0.786875,0.000035,-2.418819,-0.000010,1.640200,0.785398
1.629360,0.000023,-0.786875,0.000036,-2.418819,-0.000010,1.640200,0.785398
1.631332,0.000024,-0.786875,0.000036,-2.418819,-0.000010,1.640200,0.785398
1.633359,0.000024,-0.786875,0.000037,-2.418819,-0.000010,1.640200,0.785398
1.635307,0.000025,-0.786875,0.000037,-2.418819,-0.000010,1.640200,0.785398
1.637359,0.000025,-0.786875,0.000038,-2.418819,-0.000010,1.640200,0.785398
1.639342,0.000026,-0.786875,0.000039,-2.418819,-0.000010,1.640200,0.785398
1.641337,0.000026,-0.786875,0.000040,-2.418819,-0.000010,1.640200,0.785398
1.643333,0.000027,-0.786875,0.000040,-2.418819,-0.000010,1.640200,0.785398
1.645327,0.000027,-0.786875,0.000041,-2.418819,-0.000010,1.640200,0.785398
1.647325,0.000028,-0.786875,0.000042,-2.418819,-0.000010,1.640200,0.785398
1.649323,0.000028,-0.786875,0.000042,-2.418819,-0.000010,1.640200,0.785398
1.651341,0.000029,-0.786875,0.000043,-2.418819,-0.000010,1.640200,0.785398
1.653394,0.000029,-0.786875,0.000044,-2.418819,-0.000010,1.640200,0.785398
1.655326,0.000029,-0.786875,0.000044,-2.418819,-0.000010,1.640200,0.785398
1.657326,0.000030,-0.786875,0.000045,-2.418819,-0.000010,1.640200,0.785398
1.659326,0.000030,-0.786875,0.000046,-2.418819,-0.000010,1.640200,0.785398
1.661325,0.000031,-0.786875,0.000047,-2.418819,-0.000010,1.640200,0.785398
1.663372,0.000031,-0.786875,0.000047,-2.418819,-0.000010,1.640200,0.785398
1.665361,0.000031,-0.786875,0.000048,-2.418819,-0.000010,1.640200,0.785398
1.667334,0.000032,-0.786875,0.000049,-2.418819,-0.000010,1.640200,0.785398
1.669501,0.000032,-0.786875,0.000050,-2.418819,-0.000010,1.640200,0.785398
1.671440,0.000033,-0.786875,0.000050,-2.418819,-0.000010,1.640200,0.785398
1.673317,0.000033,-0.786875,0.000051,-2.418819,-0.000010,1.640200,0.785398
1.675327,0.000033,-0.786875,0.000052,-2.418819,-0.000010,1.640200,0.785398
1.677503,0.000033,-0.786875,0.000053,-2.418819,-0.000010,1.640200,0.785398
1.679441,0.000034,-0.786875,0.000053,-2.418819,-0.000010,1.640200,0.785398
1.681342,0.000034,-0.786875,0.000054,-2.418819,-0.000010,1.640200,0.785398
1.683386,0.000034,-0.786875,0.000055,-2.418819,-0.000010,1.640200,0.785398
1.685357,0.000034,-0.786875,0.000055,-2.418819,-0.000010,1.640200,0.785398
1.687425,0.000035,-0.786875,0.000056,-2.418819,-0.000010,1.640200,0.785398
1.689361,0.000035,-0.786875,0.000057,-2.418819,-0.000010,1.640200,0.785398
1.691333,0.000035,-0.786875,0.000058,-2.418819,-0.000010,1.640200,0.785398
1.693395,0.000035,-0.786875,0.000058,-2.418819,-0.000010,1.640200,0.785398
1.695372,0.000035,-0.786875,0.000059,-2.418819,-0.000010,1.640200,0.785398
1.697366,0.000035,-0.786875,0.000060,-2.418819,-0.000010,1.640200,0.785398
1.699392,0.000035,-0.786875,0.000061,-2.418819,-0.000010,1.640200,0.785398
1.701401,0.000036,-0.786875,0.000062,-2.418819,-0.000010,1.640200,0.785398
1.703396,0.000036,-0.786875,0.000062,-2.418819,-0.000010,1.640200,0.785398
1.705388,0.000036,-0.786875,0.000063,-2.418819,-0.000010,1.640200,0.785398
1.707375,0.000036,-0.786875,0.000064,-2.418819,-0.000010,1.640200,0.785398
1.709400,0.000036,-0.786875,0.000065,-2.418819,-0.000010,1.640200,0.785398
1.711384,0.000036,-0.786875,0.000065,-2.418819,-0.000010,1.640200,0.785398
1.713409,0.000036,-0.786875,0.000066,-2.418819,-0.000010,1.640200,0.785398
1.715359,0.000036,-0.786875,0.000067,-2.418819,-0.000010,1.640200,0.785398
1.717359,0.000036,-0.786875,0.000068,-2.418819,-0.000010,1.640200,0.785398
1.719363,0.000036,-0.786875,0.000068,-2.418819,-0.000010,1.640200,0.785398
1.721361,0.000036,-0.786875,0.000069,-2.418819,-0.000010,1.640200,0.785398
1.723347,0.000036,-0.786875,0.000070,-2.418819,-0.000010,1.640200,0.785398
1.725357,0.000036,-0.786875,0.000070,-2.418819,-0.000010,1.640200,0.785398
1.727357,0.000036,-0.786875,0.000071,-2.418819,-0.000010,1.640200,0.785398
1.729323,0.000036,-0.786875,0.000072,-2.418819,-0.000010,1.640200,0.785398
1.731359,0.000036,-0.786875,0.000072,-2.418819,-0.000010,1.640200,0.785398
1.733357,0.000036,-0.786875,0.000073,-2.418819,-0.000010,1.640200,0.785398
1.735344,0.000036,-0.786875,0.000073,-2.418819,-0.000010,1.640200,0.785398
1.737356,0.000036,-0.786875,0.000074,-2.418819,-0.000010,1.640200,0.785398
1.739359,0.000036,-0.786875,0.000074,-2.418819,-0.000010,1.640200,0.785398
1.741356,0.000036,-0.786875,0.000075,-2.418819,-0.000010,1.640200,0.785398
1.743358,0.000036,-0.786875,0.000075,-2.418819,-0.000010,1.640200,0.785398
1.745363,0.000036,-0.786875,0.000076,-2.418819,-0.000010,1.640200,0.785398
1.747338,0.000036,-0.786875,0.000076,-2.418819,-0.000010,1.640200,0.785398
1.749332,0.000036,-0.786875,0.000077,-2.418819,-0.000010,1.640200,0.785398
1.751326,0.000036,-0.786875,0.000077,-2.418819,-0.000010,1.640200,0.785398
1.753376,0.000036,-0.786875,0.000077,-2.418819,-0.000010,1.640200,0.785398
1.755327,0.000036,-0.786875,0.000078,-2.418819,-0.000010,1.640200,0.785398
1.757325,0.000036,-0.786875,0.000078,-2.418819,-0.000010,1.640200,0.785398
1.759325,0.000036,-0.786875,0.000078,-2.418819,-0.000010,1.640200,0.785398
1.761519,0.000036,-0.786875,0.000078,-2.418819,-0.000010,1.640200,0.785398
1.763428,0.000036,-0.786875,0.000078,-2.418819,-0.000010,1.640200,0.785398
1.765330,0.000036,-0.786875,0.000079,-2.418819,-0.000010,1.640200,0.785398
1.767355,0.000036,-0.786875,0.000079,-2.418819,-0.000010,1.640200,0.785398
1.769304,0.000036,-0.786875,0.000079,-2.418819,-0.000010,1.640200,0.785398
1.771295,0.000036,-0.786875,0.000079,-2.418819,-0.000010,1.640200,0.785398
1.773334,0.000036,-0.786875,0.000079,-2.418819,-0.000010,1.640200,0.785398
1.775357,0.000036,-0.786875,0.000079,-2.418819,-0.000010,1.640200,0.785398
1.777296,0.000036,-0.786875,0.000079,-2.418819,-0.000010,1.640200,0.785398
1.779380,0.000036,-0.786875,0.000079,-2.418819,-0.000010,1.640200,0.785398
1.781356,0.000036,-0.786875,0.000079,-2.418819,-0.000010,1.640200,0.785398
1.783409,0.000036,-0.786875,0.000079,-2.418819,-0.000010,1.640200,0.785398
1.785340,0.000036,-0.786875,0.000079,-2.418819,-0.000010,1.640200,0.785398
1.787309,0.000036,-0.786875,0.000079,-2.418819,-0.000010,1.640200,0.785398
1.789367,0.000036,-0.786875,0.000079,-2.418819,-0.000010,1.640200,0.785398
1.791442,0.000036,-0.786875,0.000079,-2.418819,-0.000010,1.640200,0.785398
1.793392,0.000036,-0.786875,0.000079,-2.418819,-0.000010,1.640200,0.785398
1.795380,0.000036,-0.786875,0.000079,-2.418819,-0.000010,1.640200,0.785398
1.797366,0.000036,-0.786875,0.000079,-2.418819,-0.000010,1.640200,0.785398
1.799331,0.000036,-0.786875,0.000079,-2.418819,-0.000010,1.640200,0.785398
1.801382,0.000036,-0.786875,0.000079,-2.418819,-0.000010,1.640200,0.785398
1.803407,0.000036,-0.786875,0.000079,-2.418819,-0.000010,1.640200,0.785398
1.805362,0.000036,-0.786875,0.000079,-2.418819,-0.000010,1.640200,0.785398
1.807397,0.000036,-0.786875,0.000079,-2.418819,-0.000010,1.640200,0.785398
1.809365,0.000036,-0.786875,0.000079,-2.418819,-0.000010,1.640200,0.785398
1.811361,0.000036,-0.786875,0.000079,-2.418819,-0.000010,1.640200,0.785398
1.813403,0.000036,-0.786875,0.000079,-2.418819,-0.000010,1.640200,0.785398
1.815332,0.000036,-0.786875,0.000079,-2.418819,-0.000010,1.640200,0.785398
1.817418,0.000036,-0.786875,0.000079,-2.418819,-0.000010,1.640200,0.785398
1.819533,0.000036,-0.786875,0.000079,-2.418819,-0.000010,1.640200,0.785398
1.821366,0.000036,-0.786875,0.000079,-2.418819,-0.000010,1.640200,0.785398
1.823388,0.000036,-0.786875,0.000079,-2.418819,-0.000010,1.640200,0.785398
1.825386,0.000036,-0.786875,0.000079,-2.418819,-0.000010,1.640200,0.785398
1.827360,0.000036,-0.786875,0.000079,-2.418819,-0.000010,1.640200,0.785398
1.829391,0.000036,-0.786875,0.000079,-2.418819,-0.000010,1.640199,0.785398
1.831344,0.000036,-0.786875,0.000079,-2.418819,-0.000010,1.640199,0.785398
1.833328,0.000036,-0.786875,0.000079,-2.418819,-0.000010,1.640197,0.785398
1.835326,0.000036,-0.786876,0.000079,-2.418819,-0.000010,1.640195,0.785398
1.837356,0.000036,-0.786876,0.000079,-2.418819,-0.000010,1.640192,0.785398
1.839349,0.000036,-0.786876,0.000079,-2.418819,-0.000010,1.640188,0.785398
1.841377,0.000036,-0.786876,0.000079,-2.418819,-0.000010,1.640182,0.785398
1.843384,0.000036,-0.786877,0.000079,-2.418819,-0.000010,1.640176,0.785398
1.845393,0.000036,-0.786877,0.000079,-2.418819,-0.000010,1.640168,0.785398
1.847383,0.000036,-0.786878,0.000079,-2.418819,-0.000010,1.640158,0.785398
1.849364,0.000036,-0.786879,0.000079,-2.418819,-0.000010,1.640146,0.785398
1.851355,0.000036,-0.786879,0.000079,-2.418819,-0.000010,1.640133,0.785398
1.853337,0.000036,-0.786880,0.000079,-2.418819,-0.000010,1.640117,0.785398
1.855365,0.000036,-0.786881,0.000079,-2.418819,-0.000010,1.640099,0.785398
1.857334,0.000036,-0.786883,0.000079,-2.418819,-0.000010,1.640079,0.785398
1.859383,0.000036,-0.786884,0.000079,-2.418819,-0.000010,1.640056,0.785398
1.861465,0.000036,-0.786885,0.000079,-2.418819,-0.000010,1.640031,0.785398
1.863469,0.000036,-0.786887,0.000079,-2.418819,-0.000010,1.640003,0.785398
1.865413,0.000036,-0.786889,0.000079,-2.418819,-0.000010,1.639972,0.785398
1.867410,0.000036,-0.786891,0.000079,-2.418819,-0.000010,1.639939,0.785398
1.869313,0.000036,-0.786892,0.000079,-2.418819,-0.000010,1.639921,0.785398
1.871383,0.000036,-0.786896,0.000079,-2.418819,-0.000010,1.639862,0.785398
1.873364,0.000036,-0.786898,0.000079,-2.418819,-0.000010,1.639819,0.785398
1.875350,0.000036,-0.786901,0.000079,-2.418819,-0.000010,1.639773,0.785398
1.877422,0.000036,-0.786904,0.000079,-2.418819,-0.000010,1.639723,0.785398
1.879724,0.000036,-0.786907,0.000079,-2.418819,-0.000010,1.639669,0.785398
1.881470,0.000036,-0.786910,0.000079,-2.418819,-0.000010,1.639612,0.785398
1.883429,0.000036,-0.786914,0.000079,-2.418819,-0.000010,1.639551,0.785398
1.885408,0.000036,-0.786918,0.000079,-2.418819,-0.000010,1.639486,0.785398
1.887389,0.000036,-0.786922,0.000079,-2.418819,-0.000010,1.639417,0.785398
1.889345,0.000036,-0.786927,0.000079,-2.418819,-0.000010,1.639344,0.785398
1.891366,0.000036,-0.786931,0.000079,-2.418819,-0.000010,1.639267,0.785398
1.893374,0.000036,-0.786936,0.000079,-2.418819,-0.000010,1.639186,0.785398
1.895388,0.000036,-0.786941,0.000079,-2.418819,-0.000010,1.639101,0.785398
1.897373,0.000036,-0.786947,0.000079,-2.418819,-0.000010,1.639011,0.785398
1.899361,0.000036,-0.786952,0.000079,-2.418819,-0.000010,1.638916,0.785398
1.901326,0.000036,-0.786959,0.000079,-2.418819,-0.000010,1.638818,0.785398
1.903386,0.000036,-0.786965,0.000079,-2.418819,-0.000010,1.638714,0.785398
1.905361,0.000036,-0.786971,0.000079,-2.418819,-0.000010,1.638606,0.785398
1.907387,0.000036,-0.786978,0.000079,-2.418819,-0.000010,1.638494,0.785398
1.909325,0.000036,-0.786986,0.000079,-2.418819,-0.000010,1.638376,0.785398
1.911377,0.000036,-0.786993,0.000079,-2.418819,-0.000010,1.638254,0.785398
1.913379,0.000036,-0.787001,0.000079,-2.418819,-0.000010,1.638127,0.785398
1.915366,0.000036,-0.787009,0.000079,-2.418819,-0.000010,1.637995,0.785398
1.917370,0.000036,-0.787018,0.000079,-2.418819,-0.000010,1.637859,0.785398
1.919351,0.000036,-0.787027,0.000079,-2.418819,-0.000010,1.637717,0.785398
1.921364,0.000036,-0.787036,0.000079,-2.418819,-0.000010,1.637570,0.785398
1.923349,0.000036,-0.787046,0.000079,-2.418819,-0.000010,1.637418,0.785398
1.925344,0.000036,-0.787056,0.000079,-2.418819,-0.000010,1.637260,0.785398
1.927335,0.000036,-0.787066,0.000079,-2.418819,-0.000010,1.637098,0.785398
1.929364,0.000036,-0.787077,0.000079,-2.418819,-0.000010,1.636930,0.785398
1.931365,0.000036,-0.787088,0.000079,-2.418819,-0.000010,1.636758,0.785398
1.933385,0.000036,-0.787099,0.000079,-2.418819,-0.000010,1.636580,0.785398
1.935325,0.000036,-0.787105,0.000079,-2.418819,-0.000010,1.636489,0.785398
1.937365,0.000036,-0.787123,0.000079,-2.418819,-0.000010,1.636208,0.785398
1.939365,0.000036,-0.787135,0.000079,-2.418819,-0.000010,1.636014,0.785398
1.941364,0.000036,-0.787148,0.000079,-2.418819,-0.000010,1.635815,0.785398
1.943330,0.000036,-0.787162,0.000079,-2.418819,-0.000010,1.635610,0.785398
1.945349,0.000036,-0.787175,0.000079,-2.418819,-0.000010,1.635401,0.785398
1.947327,0.000036,-0.787190,0.000079,-2.418819,-0.000010,1.635185,0.785398
1.949331,0.000036,-0.787204,0.000079,-2.418819,-0.000010,1.634965,0.785398
1.951326,0.000036,-0.787219,0.000079,-2.418819,-0.000010,1.634739,0.785398
1.953379,0.000036,-0.787234,0.000079,-2.418819,-0.000010,1.634507,0.785398
1.955346,0.000036,-0.787250,0.000079,-2.418819,-0.000010,1.634270,0.785398
1.957400,0.000036,-0.787266,0.000079,-2.418819,-0.000010,1.634028,0.785398
1.959446,0.000036,-0.787283,0.000079,-2.418819,-0.000010,1.633781,0.785398
1.961334,0.000036,-0.787300,0.000079,-2.418819,-0.000010,1.633528,0.785398
1.963325,0.000036,-0.787317,0.000079,-2.418819,-0.000010,1.633269,0.785398
1.965359,0.000036,-0.787335,0.000079,-2.418819,-0.000010,1.633006,0.785398
1.967338,0.000036,-0.787354,0.000079,-2.418819,-0.000010,1.632737,0.785398
1.969301,0.000036,-0.787372,0.000079,-2.418819,-0.000010,1.632462,0.785398
1.971283,0.000036,-0.787382,0.000079,-2.418819,-0.000010,1.632323,0.785398
1.973305,0.000036,-0.787401,0.000079,-2.418819,-0.000010,1.632041,0.785398
1.975350,0.000036,-0.787421,0.000079,-2.418819,-0.000010,1.631753,0.785398
1.977315,0.000036,-0.787442,0.000079,-2.418819,-0.000010,1.631460,0.785398
1.979366,0.000036,-0.787462,0.000079,-2.418819,-0.000010,1.631162,0.785398
1.981355,0.000036,-0.787483,0.000079,-2.418819,-0.000010,1.630858,0.785398
1.983434,0.000036,-0.787505,0.000079,-2.418819,-0.000010,1.630549,0.785398
1.985361,0.000036,-0.787527,0.000079,-2.418819,-0.000010,1.630234,0.785398
1.987360,0.000036,-0.787550,0.000079,-2.418819,-0.000010,1.629915,0.785398
1.989357,0.000036,-0.787573,0.000079,-2.418819,-0.000010,1.629589,0.785398
1.991400,0.000036,-0.787596,0.000079,-2.418819,-0.000010,1.629259,0.785398
1.993355,0.000036,-0.787620,0.000079,-2.418819,-0.000010,1.628923,0.785398
1.995409,0.000036,-0.787645,0.000079,-2.418819,-0.000010,1.628582,0.785398
1.997391,0.000036,-0.787670,0.000079,-2.418819,-0.000010,1.628236,0.785398
1.999394,0.000036,-0.787695,0.000079,-2.418819,-0.000010,1.627885,0.785398
2.001350,0.000036,-0.787721,0.000079,-2.418819,-0.000010,1.627529,0.785398
2.003410,0.000036,-0.787747,0.000079,-2.418819,-0.000010,1.627168,0.785398
2.005375,0.000036,-0.787774,0.000079,-2.418819,-0.000010,1.626802,0.785398
2.007362,0.000036,-0.787801,0.000079,-2.418819,-0.000010,1.626431,0.785398
2.009325,0.000036,-0.787829,0.000079,-2.418819,-0.000010,1.626055,0.785398
2.011375,0.000036,-0.787857,0.000079,-2.418819,-0.000010,1.625674,0.785398
2.013365,0.000036,-0.787886,0.000079,-2.418819,-0.000010,1.625289,0.785398
2.015363,0.000036,-0.787915,0.000079,-2.418819,-0.000010,1.624898,0.785398
2.017376,0.000036,-0.787945,0.000079,-2.418819,-0.000010,1.624503,0.785398
2.019358,0.000036,-0.787975,0.000079,-2.418819,-0.000010,1.624104,0.785398
2.021361,0.000036,-0.788005,0.000079,-2.418819,-0.000010,1.623700,0.785398
2.023358,0.000036,-0.788036,0.000079,-2.418819,-0.000010,1.623291,0.785398
2.025356,0.000036,-0.788068,0.000079,-2.418819,-0.000010,1.622878,0.785398
2.027359,0.000036,-0.788100,0.000079,-2.418819,-0.000010,1.622460,0.785398
2.029359,0.000036,-0.788133,0.000079,-2.418819,-0.000010,1.622038,0.785398
2.031357,0.000036,-0.788166,0.000079,-2.418819,-0.000010,1.621612,0.785398
2.033329,0.000036,-0.788199,0.000079,-2.418819,-0.000010,1.621181,0.785398
2.035334,0.000036,-0.788216,0.000079,-2.418819,-0.000010,1.620965,0.785398
2.037344,0.000036,-0.788267,0.000079,-2.418819,-0.000010,1.620308,0.785398
2.039365,0.000036,-0.788302,0.000079,-2.418819,-0.000010,1.619865,0.785398
2.041381,0.000036,-0.788338,0.000079,-2.418819,-0.000010,1.619418,0.785398
2.043336,0.000036,-0.788374,0.000079,-2.418819,-0.000010,1.618967,0.785398
2.045366,0.000036,-0.788410,0.000079,-2.418819,-0.000010,1.618512,0.785398
2.047399,0.000036,-0.788447,0.000079,-2.418819,-0.000010,1.618054,0.785398
2.049353,0.000036,-0.788484,0.000079,-2.418819,-0.000010,1.617591,0.785398
2.051432,0.000036,-0.788522,0.000079,-2.418819,-0.000010,1.617125,0.785398
2.053383,0.000036,-0.788560,0.000079,-2.418819,-0.000010,1.616656,0.785398
2.055325,0.000036,-0.788599,0.000079,-2.418819,-0.000010,1.616183,0.785398
2.057326,0.000036,-0.788638,0.000079,-2.418819,-0.000010,1.615706,0.785398
2.059373,0.000036,-0.788678,0.000079,-2.418819,-0.000010,1.615226,0.785398
2.061330,0.000036,-0.788718,0.000079,-2.418819,-0.000010,1.614743,0.785398
2.063337,0.000036,-0.788758,0.000079,-2.418819,-0.000010,1.614257,0.785398
2.065340,0.000036,-0.788799,0.000079,-2.418819,-0.000010,1.613767,0.785398
2.067325,0.000036,-0.788841,0.000079,-2.418819,-0.000010,1.613275,0.785398
2.069325,0.000036,-0.788883,0.000079,-2.418819,-0.000010,1.612779,0.785398
2.071330,0.000036,-0.788925,0.000079,-2.418819,-0.000010,1.612281,0.785398
2.073768,0.000036,-0.788968,0.000079,-2.418819,-0.000010,1.611780,0.785398
2.075489,0.000036,-0.788968,0.000079,-2.418819,-0.000010,1.611780,0.785398
2.077384,0.000036,-0.789034,0.000079,-2.418819,-0.000010,1.611023,0.785398
2.079473,0.000036,-0.789100,0.000079,-2.418819,-0.000010,1.610260,0.785398
2.081374,0.000036,-0.789145,0.000079,-2.418819,-0.000010,1.609748,0.785398
2.083357,0.000036,-0.789190,0.000079,-2.418819,-0.000010,1.609233,0.785398
2.085466,0.000036,-0.789236,0.000079,-2.418819,-0.000010,1.608717,0.785398
2.087312,0.000036,-0.789259,0.000079,-2.418819,-0.000010,1.608457,0.785398
2.089351,0.000036,-0.789305,0.000079,-2.418819,-0.000010,1.607937,0.785398
2.091375,0.000036,-0.789352,0.000079,-2.418819,-0.000010,1.607415,0.785398
2.093363,0.000036,-0.789399,0.000079,-2.418819,-0.000010,1.606890,0.785398
2.095365,0.000036,-0.789447,0.000079,-2.418819,-0.000010,1.606363,0.785398
2.097358,0.000036,-0.789495,0.000079,-2.418819,-0.000010,1.605834,0.785398
2.099358,0.000036,-0.789543,0.000079,-2.418819,-0.000010,1.605303,0.785398
2.101358,0.000036,-0.789592,0.000079,-2.418819,-0.000010,1.604771,0.785398
2.103411,0.000036,-0.789642,0.000079,-2.418819,-0.000010,1.604236,0.785398
2.105336,0.000036,-0.789692,0.000079,-2.418819,-0.000010,1.603700,0.785398
2.107358,0.000036,-0.789742,0.000079,-2.418819,-0.000010,1.603162,0.785398
2.109355,0.000036,-0.789793,0.000079,-2.418819,-0.000010,1.602623,0.785398
2.111357,0.000036,-0.789844,0.000079,-2.418819,-0.000010,1.602082,0.785398
2.113359,0.000036,-0.789896,0.000079,-2.418819,-0.000010,1.601540,0.785398
2.115332,0.000036,-0.789948,0.000079,-2.418819,-0.000010,1.600997,0.785398
2.117363,0.000036,-0.790000,0.000079,-2.418819,-0.000010,1.600453,0.785398
2.119418,0.000036,-0.790053,0.000079,-2.418819,-0.000010,1.599908,0.785398
2.121348,0.000036,-0.790107,0.000079,-2.418819,-0.000010,1.599362,0.785398
2.123362,0.000036,-0.790160,0.000079,-2.418819,-0.000010,1.598816,0.785398
2.125360,0.000036,-0.790214,0.000079,-2.418819,-0.000010,1.598269,0.785398
2.127358,0.000036,-0.790269,0.000079,-2.418819,-0.000010,1.597721,0.785398
2.129454,0.000036,-0.790324,0.000079,-2.418819,-0.000010,1.597173,0.785398
2.131364,0.000036,-0.790379,0.000079,-2.418819,-0.000010,1.596624,0.785398
2.133362,0.000036,-0.790435,0.000079,-2.418819,-0.000010,1.596076,0.785398
2.135355,0.000036,-0.790463,0.000079,-2.418819,-0.000010,1.595801,0.785398
2.137383,0.000036,-0.790547,0.000079,-2.418819,-0.000010,1.594978,0.785398
2.139400,0.000036,-0.790604,0.000079,-2.418819,-0.000010,1.594429,0.785398
2.141346,0.000036,-0.790661,0.000079,-2.418819,-0.000010,1.593880,0.785398
2.143330,0.000036,-0.790718,0.000079,-2.418819,-0.000010,1.593332,0.785398
2.145335,0.000036,-0.790776,0.000079,-2.418819,-0.000010,1.592784,0.785398
2.147366,0.000036,-0.790835,0.000079,-2.418819,-0.000010,1.592236,0.785398
2.149371,0.000036,-0.790893,0.000079,-2.418819,-0.000010,1.591690,0.785398
2.151362,0.000036,-0.790952,0.000079,-2.418819,-0.000010,1.591144,0.785398
2.153437,0.000036,-0.791011,0.000079,-2.418819,-0.000010,1.590600,0.785398
2.155365,0.000036,-0.791071,0.000079,-2.418819,-0.000010,1.590056,0.785398
2.157326,0.000036,-0.791131,0.000079,-2.418819,-0.000010,1.589514,0.785398
2.159327,0.000036,-0.791191,0.000079,-2.418819,-0.000010,1.588973,0.785398
2.161363,0.000036,-0.791251,0.000079,-2.418819,-0.000010,1.588434,0.785398
2.163504,0.000036,-0.791312,0.000079,-2.418819,-0.000010,1.587896,0.785398
2.165364,0.000036,-0.791373,0.000079,-2.418819,-0.000010,1.587360,0.785398
2.167350,0.000036,-0.791435,0.000079,-2.418819,-0.000010,1.586826,0.785398
2.169385,0.000036,-0.791496,0.000079,-2.418819,-0.000010,1.586293,0.785398
2.171382,0.000036,-0.791558,0.000079,-2.418819,-0.000010,1.585763,0.785398
2.173364,0.000036,-0.791621,0.000079,-2.418819,-0.000010,1.585234,0.785398
2.175293,0.000036,-0.791683,0.000079,-2.418819,-0.000010,1.584708,0.785398
2.177450,0.000036,-0.791746,0.000079,-2.418819,-0.000010,1.584185,0.785398
2.179359,0.000036,-0.791809,0.000079,-2.418819,-0.000010,1.583664,0.785398
2.181365,0.000036,-0.791872,0.000079,-2.418819,-0.000010,1.583146,0.785398
2.183343,0.000036,-0.791936,0.000079,-2.418819,-0.000010,1.582631,0.785398
2.185338,0.000036,-0.791999,0.000079,-2.418819,-0.000010,1.582119,0.785398
2.187332,0.000036,-0.792063,0.000079,-2.418819,-0.000010,1.581610,0.785398
2.189329,0.000036,-0.792127,0.000079,-2.418819,-0.000010,1.581105,0.785398
2.191325,0.000036,-0.792192,0.000079,-2.418819,-0.000010,1.580604,0.785398
2.193492,0.000036,-0.792256,0.000079,-2.418819,-0.000010,1.580106,0.785398
2.195392,0.000036,-0.792321,0.000079,-2.418819,-0.000010,1.579612,0.785398
2.197405,0.000036,-0.792386,0.000079,-2.418819,-0.000010,1.579122,0.785398
2.199367,0.000036,-0.792451,0.000079,-2.418819,-0.000010,1.578636,0.785398
2.201378,0.000036,-0.792516,0.000079,-2.418819,-0.000010,1.578154,0.785398
2.203477,0.000036,-0.792582,0.000079,-2.418819,-0.000010,1.577676,0.785398
2.205419,0.000036,-0.792647,0.000079,-2.418819,-0.000010,1.577203,0.785398
2.207532,0.000036,-0.792713,0.000079,-2.418819,-0.000010,1.576734,0.785398
2.209383,0.000036,-0.792746,0.000079,-2.418819,-0.000010,1.576501,0.785398
2.211401,0.000036,-0.792812,0.000079,-2.418819,-0.000010,1.576040,0.785398
2.213379,0.000036,-0.792878,0.000079,-2.418819,-0.000010,1.575583,0.785398
2.215403,0.000036,-0.792944,0.000079,-2.418819,-0.000010,1.575132,0.785398
2.217394,0.000036,-0.793010,0.000079,-2.418819,-0.000010,1.574686,0.785398
2.219376,0.000036,-0.793077,0.000079,-2.418819,-0.000010,1.574245,0.785398
2.221399,0.000036,-0.793143,0.000079,-2.418819,-0.000010,1.573811,0.785398
2.223394,0.000036,-0.793210,0.000079,-2.418819,-0.000010,1.573381,0.785398
2.225393,0.000036,-0.793276,0.000079,-2.418819,-0.000010,1.572958,0.785398
2.227501,0.000036,-0.793343,0.000079,-2.418819,-0.000010,1.572541,0.785398
2.229348,0.000036,-0.793409,0.000079,-2.418819,-0.000010,1.572130,0.785398
2.231448,0.000036,-0.793476,0.000079,-2.418819,-0.000010,1.571726,0.785398
2.233363,0.000036,-0.793543,0.000079,-2.418819,-0.000010,1.571328,0.785398
2.235330,0.000036,-0.793576,0.000079,-2.418819,-0.000010,1.571131,0.785398
2.237749,0.000036,-0.793576,0.000079,-2.418819,-0.000010,1.571131,0.785398
2.239903,0.000036,-0.793643,0.000079,-2.418819,-0.000010,1.570743,0.785398
2.241354,0.000036,-0.793810,0.000079,-2.418819,-0.000010,1.569802,0.785398
2.243365,0.000036,-0.793876,0.000079,-2.418819,-0.000010,1.569437,0.785398
2.245376,0.000036,-0.793943,0.000079,-2.418819,-0.000010,1.569081,0.785398
2.247395,0.000036,-0.794010,0.000079,-2.418819,-0.000010,1.568732,0.785398
2.249361,0.000036,-0.794076,0.000079,-2.418819,-0.000010,1.568390,0.785398
2.251359,0.000036,-0.794143,0.000079,-2.418819,-0.000010,1.568057,0.785398
2.253350,0.000036,-0.794209,0.000079,-2.418819,-0.000010,1.567733,0.785398
2.255341,0.000036,-0.794275,0.000079,-2.418819,-0.000010,1.567417,0.785398
2.257356,0.000037,-0.794341,0.000080,-2.418819,-0.000010,1.567109,0.785398
2.259366,0.000037,-0.794407,0.000080,-2.418819,-0.000010,1.566810,0.785398
2.261326,0.000038,-0.794473,0.000080,-2.418819,-0.000010,1.566521,0.785398
2.263325,0.000038,-0.794539,0.000081,-2.418819,-0.000010,1.566240,0.785398
2.265352,0.000039,-0.794605,0.000081,-2.418819,-0.000010,1.565969,0.785398
2.267327,0.000040,-0.794670,0.000081,-2.418819,-0.000010,1.565707,0.785398
2.269382,0.000042,-0.794735,0.000082,-2.418819,-0.000010,1.565454,0.785398
2.271330,0.000043,-0.794800,0.000083,-2.418819,-0.000010,1.565211,0.785398
2.273337,0.000045,-0.794865,0.000083,-2.418819,-0.000010,1.564978,0.785398
2.275300,0.000047,-0.794929,0.000084,-2.418819,-0.000010,1.564755,0.785398
2.277535,0.000049,-0.794994,0.000085,-2.418819,-0.000010,1.564542,0.785398
2.279343,0.000052,-0.795058,0.000086,-2.418819,-0.000010,1.564339,0.785398
2.281617,0.000055,-0.795121,0.000087,-2.418819,-0.000010,1.564147,0.785398
2.283424,0.000058,-0.795185,0.000088,-2.418819,-0.000010,1.563966,0.785398
2.285292,0.000060,-0.795216,0.000088,-2.418819,-0.000010,1.563880,0.785398
2.287445,0.000066,-0.795311,0.000090,-2.418819,-0.000010,1.563638,0.785398
2.289688,0.000070,-0.795373,0.000092,-2.418819,-0.000010,1.563490,0.785398
2.291326,0.000073,-0.795404,0.000092,-2.418819,-0.000010,1.563421,0.785398
2.293320,0.000078,-0.795466,0.000094,-2.418819,-0.000010,1.563291,0.785398
2.295324,0.000083,-0.795528,0.000096,-2.418819,-0.000010,1.563172,0.785398
2.297372,0.000089,-0.795589,0.000097,-2.418819,-0.000010,1.563066,0.785398
2.299366,0.000096,-0.795650,0.000099,-2.418819,-0.000010,1.562971,0.785398
2.301360,0.000103,-0.795710,0.000101,-2.418819,-0.000010,1.562888,0.785398
2.303365,0.000110,-0.795770,0.000103,-2.418819,-0.000010,1.562817,0.785398
2.305362,0.000118,-0.795830,0.000105,-2.418819,-0.000010,1.562759,0.785398
2.307360,0.000127,-0.795889,0.000108,-2.418819,-0.000010,1.562713,0.785398
2.309359,0.000136,-0.795947,0.000110,-2.418819,-0.000010,1.562679,0.785398
2.311360,0.000146,-0.796006,0.000113,-2.418819,-0.000010,1.562659,0.785398
2.313363,0.000156,-0.796063,0.000116,-2.418819,-0.000010,1.562652,0.785398
2.315360,0.000167,-0.796121,0.000119,-2.418819,-0.000009,1.562652,0.785398
2.317373,0.000179,-0.796178,0.000122,-2.418819,-0.000007,1.562652,0.785398
2.319330,0.000191,-0.796234,0.000125,-2.418819,-0.000003,1.562652,0.785398
2.321370,0.000204,-0.796291,0.000128,-2.418819,0.000002,1.562652,0.785398
2.323323,0.000217,-0.796347,0.000132,-2.418819,0.000010,1.562652,0.785398
2.325358,0.000230,-0.796404,0.000136,-2.418819,0.000019,1.562652,0.785398
2.327360,0.000245,-0.796459,0.000139,-2.418819,0.000031,1.562652,0.785398
2.329352,0.000260,-0.796515,0.000143,-2.418819,0.000046,1.562652,0.785398
2.331361,0.000275,-0.796570,0.000148,-2.418819,0.000063,1.562652,0.785398
2.333366,0.000291,-0.796625,0.000152,-2.418819,0.000084,1.562652,0.785398
2.335397,0.000299,-0.796652,0.000154,-2.418819,0.000095,1.562652,0.785398
2.337352,0.000324,-0.796734,0.000161,-2.418819,0.000135,1.562652,0.785398
2.339359,0.000342,-0.796788,0.000166,-2.418819,0.000165,1.562652,0.785398
2.341365,0.000360,-0.796841,0.000171,-2.418819,0.000200,1.562652,0.785398
2.343362,0.000378,-0.796894,0.000177,-2.418819,0.000239,1.562652,0.785398
2.345328,0.000398,-0.796947,0.000182,-2.418819,0.000282,1.562652,0.785398
2.347350,0.000417,-0.796999,0.000188,-2.418819,0.000330,1.562652,0.785398
2.349391,0.000437,-0.797051,0.000194,-2.418819,0.000382,1.562652,0.785398
2.351344,0.000458,-0.797103,0.000200,-2.418819,0.000439,1.562652,0.785398
2.353363,0.000479,-0.797154,0.000206,-2.418819,0.000501,1.562652,0.785398
2.355361,0.000501,-0.797204,0.000213,-2.418819,0.000568,1.562652,0.785398
2.357366,0.000523,-0.797254,0.000220,-2.418819,0.000641,1.562652,0.785398
2.359358,0.000546,-0.797303,0.000227,-2.418819,0.000719,1.562652,0.785398
2.361446,0.000569,-0.797352,0.000234,-2.418819,0.000803,1.562652,0.785398
2.363325,0.000593,-0.797400,0.000241,-2.418818,0.000893,1.562652,0.785398
2.365360,0.000617,-0.797447,0.000249,-2.418818,0.000989,1.562652,0.785398
2.367341,0.000642,-0.797494,0.000257,-2.418818,0.001091,1.562652,0.785398
2.369327,0.000668,-0.797540,0.000265,-2.418817,0.001199,1.562652,0.785398
2.371329,0.000694,-0.797585,0.000274,-2.418816,0.001313,1.562652,0.785398
2.373438,0.000720,-0.797630,0.000283,-2.418815,0.001434,1.562652,0.785398
2.375503,0.000747,-0.797674,0.000292,-2.418813,0.001561,1.562652,0.785398
2.377452,0.000775,-0.797716,0.000301,-2.418812,0.001695,1.562652,0.785398
2.379273,0.000803,-0.797758,0.000311,-2.418809,0.001836,1.562652,0.785398
2.381333,0.000831,-0.797799,0.000320,-2.418807,0.001984,1.562652,0.785398
2.383326,0.000860,-0.797839,0.000331,-2.418804,0.002140,1.562652,0.785398
2.385371,0.000890,-0.797878,0.000341,-2.418800,0.002302,1.562652,0.785398
2.387324,0.000920,-0.797916,0.000352,-2.418796,0.002472,1.562654,0.785398
2.389329,0.000951,-0.797953,0.000363,-2.418792,0.002649,1.562657,0.785398
2.391462,0.000982,-0.797989,0.000374,-2.418787,0.002833,1.562664,0.785398
2.393353,0.000998,-0.798006,0.000379,-2.418785,0.002929,1.562669,0.785398
2.395318,0.001046,-0.798057,0.000397,-2.418779,0.003226,1.562692,0.785398
2.397315,0.001062,-0.798074,0.000403,-2.418777,0.003329,1.562703,0.785398
2.399501,0.001112,-0.798122,0.000422,-2.418771,0.003650,1.562745,0.785398
2.401401,0.001129,-0.798138,0.000428,-2.418770,0.003761,1.562763,0.785398
2.403361,0.001163,-0.798169,0.000441,-2.418767,0.003990,1.562806,0.785398
2.405360,0.001198,-0.798198,0.000454,-2.418765,0.004226,1.562858,0.785398
2.407381,0.001233,-0.798227,0.000467,-2.418763,0.004471,1.562920,0.785398
2.409356,0.001268,-0.798254,0.000481,-2.418763,0.004725,1.562995,0.785398
2.411344,0.001305,-0.798281,0.000495,-2.418763,0.004986,1.563081,0.785398
2.413342,0.001341,-0.798306,0.000510,-2.418763,0.005257,1.563178,0.785398
2.415348,0.001379,-0.798330,0.000524,-2.418763,0.005535,1.563287,0.785398
2.417347,0.001417,-0.798352,0.000539,-2.418763,0.005823,1.563408,0.785398
2.419329,0.001455,-0.798373,0.000555,-2.418763,0.006118,1.563543,0.785398
2.421362,0.001494,-0.798393,0.000570,-2.418763,0.006422,1.563692,0.785398
2.423358,0.001534,-0.798410,0.000586,-2.418763,0.006733,1.563854,0.785398
2.425359,0.001574,-0.798427,0.000603,-2.418763,0.007048,1.564032,0.785398
2.427359,0.001615,-0.798441,0.000619,-2.418763,0.007371,1.564226,0.785398
2.429358,0.001656,-0.798454,0.000636,-2.418763,0.007703,1.564435,0.785398
2.431358,0.001698,-0.798465,0.000653,-2.418763,0.008044,1.564661,0.785398
2.433345,0.001740,-0.798474,0.000671,-2.418763,0.008394,1.564904,0.785398
2.435348,0.001762,-0.798479,0.000680,-2.418763,0.008572,1.565033,0.785398
2.437396,0.001827,-0.798488,0.000708,-2.418763,0.009119,1.565443,0.785398
2.439420,0.001872,-0.798492,0.000726,-2.418763,0.009494,1.565740,0.785398
2.441388,0.001917,-0.798494,0.000745,-2.418763,0.009879,1.566056,0.785398
2.443329,0.001962,-0.798494,0.000765,-2.418763,0.010272,1.566392,0.785398
2.445326,0.002008,-0.798494,0.000785,-2.418763,0.010675,1.566747,0.785398
2.447363,0.002055,-0.798493,0.000805,-2.418765,0.011087,1.567124,0.785398
2.449360,0.002102,-0.798491,0.000826,-2.418767,0.011508,1.567524,0.785398
2.451358,0.002150,-0.798489,0.000847,-2.418770,0.011938,1.567945,0.785398
2.453358,0.002199,-0.798486,0.000868,-2.418774,0.012377,1.568390,0.785398
2.455335,0.002248,-0.798482,0.000890,-2.418780,0.012826,1.568858,0.785398
2.457364,0.002297,-0.798478,0.000912,-2.418786,0.013284,1.569350,0.785398
2.459335,0.002348,-0.798473,0.000935,-2.418794,0.013751,1.569867,0.785398
2.461326,0.002398,-0.798468,0.000958,-2.418804,0.014227,1.570409,0.785398
2.463361,0.002450,-0.798462,0.000981,-2.418814,0.014713,1.570976,0.785398
2.465333,0.002502,-0.798455,0.001005,-2.418827,0.015208,1.571570,0.785398
2.467328,0.002554,-0.798448,0.001029,-2.418841,0.015713,1.572189,0.785398
2.469325,0.002607,-0.798440,0.001053,-2.418856,0.016227,1.572835,0.785398
2.471325,0.002661,-0.798431,0.001078,-2.418874,0.016750,1.573507,0.785398
2.473345,0.002716,-0.798422,0.001104,-2.418893,0.017282,1.574206,0.785398
2.475325,0.002771,-0.798413,0.001130,-2.418914,0.017824,1.574933,0.785398
2.477324,0.002826,-0.798402,0.001156,-2.418937,0.018375,1.575687,0.785398
2.479324,0.002882,-0.798391,0.001182,-2.418962,0.018935,1.576470,0.785398
2.481323,0.002939,-0.798380,0.001210,-2.418989,0.019505,1.577281,0.785398
2.483324,0.002997,-0.798367,0.001237,-2.419018,0.020083,1.578120,0.785398
2.485427,0.003055,-0.798354,0.001265,-2.419050,0.020672,1.578988,0.785398
2.487338,0.003084,-0.798348,0.001279,-2.419066,0.020969,1.579433,0.785398
2.489317,0.003143,-0.798334,0.001308,-2.419101,0.021571,1.580344,0.785398
2.491580,0.003233,-0.798312,0.001352,-2.419158,0.022492,1.581767,0.785398
2.493311,0.003293,-0.798296,0.001382,-2.419199,0.023117,1.582753,0.785398
2.495294,0.003355,-0.798280,0.001412,-2.419242,0.023752,1.583768,0.785398
2.497311,0.003385,-0.798272,0.001427,-2.419265,0.024073,1.584287,0.785398
2.499404,0.003479,-0.798246,0.001474,-2.419337,0.025048,1.585886,0.785398
2.501406,0.003542,-0.798228,0.001506,-2.419388,0.025710,1.586990,0.785398
2.503360,0.003574,-0.798219,0.001522,-2.419414,0.026045,1.587552,0.785398
2.505338,0.003638,-0.798199,0.001554,-2.419469,0.026720,1.588699,0.785398
2.507347,0.003703,-0.798180,0.001587,-2.419527,0.027404,1.589876,0.785398
2.509404,0.003769,-0.798159,0.001621,-2.419587,0.028098,1.591082,0.785398
2.511381,0.003835,-0.798138,0.001655,-2.419650,0.028801,1.592319,0.785398
2.513332,0.003902,-0.798116,0.001689,-2.419716,0.029512,1.593585,0.785398
2.515414,0.003970,-0.798093,0.001724,-2.419785,0.030233,1.594881,0.785398
2.517328,0.004038,-0.798070,0.001760,-2.419857,0.030962,1.596207,0.785398
2.519395,0.004107,-0.798046,0.001796,-2.419931,0.031701,1.597563,0.785398
2.521363,0.004177,-0.798021,0.001833,-2.420009,0.032448,1.598948,0.785398
2.523364,0.004247,-0.797995,0.001870,-2.420090,0.033204,1.600362,0.785398
2.525379,0.004319,-0.797969,0.001908,-2.420173,0.033969,1.601805,0.785398
2.527363,0.004391,-0.797941,0.001946,-2.420260,0.034742,1.603277,0.785398
2.529379,0.004464,-0.797913,0.001985,-2.420349,0.035523,1.604777,0.785398
2.531337,0.004537,-0.797884,0.002024,-2.420442,0.036314,1.606305,0.785398
2.533367,0.004611,-0.797855,0.002064,-2.420538,0.037112,1.607862,0.785398
2.535329,0.004649,-0.797840,0.002085,-2.420587,0.037514,1.608650,0.785398
2.537342,0.004762,-0.797793,0.002146,-2.420738,0.038734,1.611057,0.785398
2.539366,0.004839,-0.797761,0.002188,-2.420843,0.039557,1.612696,0.785398
2.541326,0.004916,-0.797728,0.002230,-2.420951,0.040388,1.614362,0.785398
2.543357,0.004994,-0.797694,0.002273,-2.421062,0.041227,1.616054,0.785398
2.545358,0.005073,-0.797659,0.002317,-2.421176,0.042074,1.617772,0.785398
2.547357,0.005153,-0.797623,0.002361,-2.421293,0.042928,1.619515,0.785398
2.549330,0.005234,-0.797587,0.002406,-2.421414,0.043791,1.621285,0.785398
2.551328,0.005315,-0.797549,0.002452,-2.421537,0.044661,1.623079,0.785398
2.553322,0.005398,-0.797511,0.002498,-2.421663,0.045538,1.624898,0.785398
2.555325,0.005481,-0.797471,0.002545,-2.421793,0.046423,1.626741,0.785398
2.557333,0.005565,-0.797431,0.002592,-2.421926,0.047314,1.628608,0.785398
2.559356,0.005650,-0.797389,0.002640,-2.422061,0.048213,1.630499,0.785398
2.561326,0.005736,-0.797347,0.002689,-2.422200,0.049120,1.632412,0.785398
2.563332,0.005822,-0.797303,0.002738,-2.422342,0.050033,1.634349,0.785398
2.565351,0.005910,-0.797259,0.002788,-2.422487,0.050953,1.636307,0.785398
2.567346,0.005998,-0.797213,0.002839,-2.422635,0.051879,1.638287,0.785398
2.569350,0.006088,-0.797166,0.002891,-2.422786,0.052813,1.640289,0.785398
2.571350,0.006178,-0.797119,0.002943,-2.422940,0.053752,1.642311,0.785398
2.573345,0.006269,-0.797070,0.002996,-2.423097,0.054699,1.644354,0.785398
2.575328,0.006361,-0.797020,0.003049,-2.423257,0.055651,1.646417,0.785398
2.577394,0.006454,-0.796969,0.003103,-2.423420,0.056610,1.648500,0.785398
2.579405,0.006548,-0.796917,0.003158,-2.423587,0.057575,1.650602,0.785398
2.581362,0.006643,-0.796863,0.003214,-2.423756,0.058546,1.652723,0.785398
2.583361,0.006739,-0.796809,0.003270,-2.423928,0.059523,1.654863,0.785398
2.585362,0.006836,-0.796753,0.003327,-2.424103,0.060506,1.657021,0.785398
2.587330,0.006934,-0.796696,0.003385,-2.424281,0.061495,1.659197,0.785398
2.589366,0.007033,-0.796638,0.003443,-2.424462,0.062489,1.661390,0.785398
2.591364,0.007133,-0.796579,0.003503,-2.424646,0.063489,1.663600,0.785398
2.593366,0.007234,-0.796518,0.003562,-2.424833,0.064493,1.665826,0.785398
2.595343,0.007336,-0.796456,0.003623,-2.425023,0.065504,1.668068,0.785398
2.597446,0.007439,-0.796393,0.003685,-2.425215,0.066519,1.670325,0.785398
2.599342,0.007543,-0.796329,0.003747,-2.425411,0.067539,1.672597,0.785398
2.601450,0.007648,-0.796263,0.003810,-2.425609,0.068564,1.674884,0.785398
2.603335,0.007754,-0.796196,0.003873,-2.425810,0.069594,1.677184,0.785398
2.605340,0.007861,-0.796128,0.003938,-2.426014,0.070629,1.679498,0.785398
2.607285,0.007969,-0.796058,0.004003,-2.426221,0.071668,1.681825,0.785398
2.609306,0.008078,-0.795987,0.004069,-2.426430,0.072711,1.684165,0.785398
2.611323,0.008189,-0.795914,0.004136,-2.426642,0.073759,1.686517,0.785398
2.613300,0.008244,-0.795877,0.004170,-2.426750,0.074284,1.687698,0.785398
2.615291,0.008356,-0.795803,0.004237,-2.426966,0.075338,1.690068,0.785398
2.617347,0.008469,-0.795726,0.004306,-2.427185,0.076396,1.692450,0.785398
2.619379,0.008583,-0.795649,0.004376,-2.427407,0.077458,1.694844,0.785398
2.621365,0.008699,-0.795570,0.004446,-2.427632,0.078524,1.697250,0.785398
2.623333,0.008815,-0.795489,0.004517,-2.427860,0.079594,1.699667,0.785398
2.625384,0.008933,-0.795407,0.004589,-2.428090,0.080668,1.702095,0.785398
2.627359,0.009051,-0.795324,0.004662,-2.428323,0.081746,1.704534,0.785398
2.629330,0.009171,-0.795239,0.004735,-2.428559,0.082827,1.706983,0.785398
2.631392,0.009292,-0.795153,0.004809,-2.428798,0.083912,1.709441,0.785398
2.633386,0.009415,-0.795065,0.004885,-2.429039,0.085000,1.711908,0.785398
2.635280,0.009476,-0.795020,0.004922,-2.429161,0.085545,1.713146,0.785398
2.637382,0.009663,-0.794884,0.005037,-2.429529,0.087185,1.716870,0.785398
2.639364,0.009788,-0.794791,0.005115,-2.429779,0.088282,1.719363,0.785398
2.641361,0.009915,-0.794696,0.005193,-2.430031,0.089382,1.721865,0.785398
2.643360,0.010043,-0.794600,0.005273,-2.430285,0.090485,1.724373,0.785398
2.645354,0.010173,-0.794503,0.005353,-2.430542,0.091590,1.726889,0.785398
2.647325,0.010303,-0.794403,0.005434,-2.430802,0.092698,1.729411,0.785398
2.649363,0.010435,-0.794302,0.005515,-2.431064,0.093808,1.731939,0.785398
2.651393,0.010568,-0.794200,0.005598,-2.431329,0.094920,1.734473,0.785398
2.653364,0.010702,-0.794095,0.005681,-2.431596,0.096034,1.737013,0.785398
2.655387,0.010838,-0.793989,0.005766,-2.431866,0.097150,1.739557,0.785398
2.657364,0.010975,-0.793881,0.005851,-2.432138,0.098268,1.742107,0.785398
